/* XPM */
static char *c5de01bbc7f44c61acaeaf595ad2bf9bn45B2IKHeW6tVmig[] = {
/* columns rows colors chars-per-pixel */
"500 500 256 2 ",
"   c None",
".  c #030303",
"X  c #0A0404",
"o  c #050905",
"O  c #0A0A06",
"+  c #050609",
"@  c #0A060A",
"#  c #050A0C",
"$  c #0B0B0C",
"%  c #120D0D",
"&  c #160706",
"*  c #0D110E",
"=  c #051109",
"-  c #12120E",
";  c #19140D",
":  c #010513",
">  c #030B13",
",  c #0D0E11",
"<  c #010C1B",
"1  c #060719",
"2  c #120E12",
"3  c #150D17",
"4  c #0D1113",
"5  c #0C141B",
"6  c #07151A",
"7  c #131314",
"8  c #1A1515",
"9  c #151916",
"0  c #1A1A16",
"q  c #161619",
"w  c #19161A",
"e  c #15191B",
"r  c #1B1B1C",
"t  c #280705",
"y  c #221C1C",
"u  c #2B1C1D",
"i  c #261617",
"p  c #351A1A",
"a  c #330C0A",
"s  c #1C211D",
"d  c #0F2115",
"f  c #24211E",
"g  c #35231D",
"h  c #000B23",
"j  c #000D2B",
"k  c #040825",
"l  c #00132D",
"z  c #081925",
"x  c #141C23",
"c  c #1D1E21",
"v  c #151B28",
"b  c #001B33",
"n  c #021634",
"m  c #0B1131",
"M  c #221E21",
"N  c #291E23",
"B  c #371E22",
"V  c #09222B",
"C  c #1D2224",
"Z  c #1C242A",
"A  c #17252A",
"S  c #072736",
"D  c #182A35",
"F  c #1A333B",
"G  c #0B323C",
"H  c #232324",
"J  c #2B2424",
"K  c #252629",
"L  c #2A262A",
"P  c #25292C",
"I  c #2B2B2C",
"U  c #282926",
"Y  c #332323",
"T  c #322C2C",
"R  c #392728",
"E  c #2C312D",
"W  c #33312E",
"Q  c #242C32",
"!  c #2D2E31",
"~  c #262A37",
"^  c #322E32",
"/  c #2D3134",
"(  c #2C343A",
")  c #27363A",
"_  c #333334",
"`  c #353639",
"'  c #34393C",
"]  c #3B3B3C",
"[  c #393737",
"{  c #4B1211",
"}  c #452728",
"|  c #423B3A",
" . c #502D2F",
".. c #6C2B2B",
"X. c #621D1E",
"o. c #3C423D",
"O. c #10413E",
"+. c #42423E",
"@. c #042847",
"#. c #193846",
"$. c #002A59",
"%. c #043657",
"&. c #0F374C",
"*. c #273B45",
"=. c #343C43",
"-. c #3E3E41",
";. c #363A47",
":. c #273A51",
">. c #002B67",
",. c #003468",
"<. c #003673",
"1. c #1F3F66",
"2. c #031C4C",
"3. c #423E42",
"4. c #084859",
"5. c #174858",
"6. c #114B54",
"7. c #28424B",
"8. c #3D4244",
"9. c #38444A",
"0. c #294856",
"q. c #374A55",
"w. c #39535C",
"e. c #28535B",
"r. c #054A65",
"t. c #164B64",
"y. c #075769",
"u. c #175768",
"i. c #055877",
"p. c #165B75",
"a. c #024C75",
"s. c #275867",
"d. c #385866",
"f. c #2C546D",
"g. c #06657A",
"h. c #176578",
"j. c #11656F",
"k. c #276777",
"l. c #366776",
"z. c #326871",
"x. c #434344",
"c. c #464649",
"v. c #4B4B4C",
"b. c #484848",
"n. c #514C4C",
"m. c #4E4E51",
"M. c #444B54",
"N. c #524E52",
"B. c #485459",
"V. c #535354",
"C. c #565659",
"Z. c #5B5B5C",
"A. c #575859",
"S. c #50514E",
"D. c #645A59",
"F. c #465A65",
"G. c #5E5E61",
"H. c #545C63",
"J. c #45576F",
"K. c #635E62",
"L. c #49626A",
"P. c #5A6367",
"I. c #506D77",
"U. c #636364",
"Y. c #666669",
"T. c #6B6B6C",
"R. c #686869",
"E. c #6E6E71",
"W. c #656B73",
"Q. c #6C7275",
"!. c #737374",
"~. c #767679",
"^. c #7B7B7C",
"/. c #777879",
"(. c #716E6E",
"). c #62615E",
"_. c #902B2E",
"`. c #9F292B",
"'. c #966161",
"]. c #CE4B50",
"[. c #F35E62",
"{. c #BB393F",
"}. c #88807D",
"|. c #025888",
" X c #005C93",
".X c #075283",
"XX c #086986",
"oX c #156A85",
"OX c #07738A",
"+X c #177588",
"@X c #016696",
"#X c #067797",
"$X c #167895",
"%X c #166B95",
"&X c #277887",
"*X c #32738A",
"=X c #097BA8",
"-X c #2E6FA6",
";X c #4D7788",
":X c #7C7E81",
">X c #667986",
",X c #4275A9",
"<X c #177AC4",
"1X c #827E81",
"2X c #158598",
"3X c #2E8796",
"4X c #0585A9",
"5X c #0888B6",
"6X c #1488BA",
"7X c #0F91B1",
"8X c #3093AD",
"9X c #30A6B8",
"0X c #0FA2BC",
"qX c #4C8A95",
"wX c #73888E",
"eX c #4B96AA",
"rX c #5FA4B1",
"tX c #0499C6",
"yX c #1595D4",
"uX c #128ECA",
"iX c #2B95D0",
"pX c #07AAD7",
"aX c #0AB3D9",
"sX c #0EAAD0",
"dX c #2EACCE",
"fX c #1DB7F4",
"gX c #0DB5E8",
"hX c #22B7F5",
"jX c #28B2EC",
"kX c #3995E0",
"lX c #4FA7DD",
"zX c #1CDBFF",
"xX c #18D4F9",
"cX c #0CCDF2",
"vX c #23DCFF",
"bX c #26D9FD",
"nX c #31CCF9",
"mX c #11E8FC",
"MX c #28E7FF",
"NX c #13C3DC",
"BX c #48DDFA",
"VX c #838384",
"CX c #8B8B8C",
"ZX c #868789",
"AX c #939394",
"SX c #9A9A9B",
"DX c #908E90",
"FX c #A8A8A8",
"GX c #B7B7B7",
"HX c #B0B0B0",
"JX c #93A1A8",
"KX c #C6C6C6",
"LX c #D5D4D5",
"PX c #EAE9E9",
"IX c #C9B0B4",
"UX c #5C817E",
/* pixels */
"                                                                                                                                                                                                                                                                                                                                                                                                                                                                                                                                                                                                                                                                                                                                                                                                                                                                                                                                                                                                                                        ",
"                                                                                                                                                                                                                                                                                                                                                                                                                                                                                                                                                                                                                                                                                                                                                                                                                                                                                                                                                                                                                                        ",
"                                                                                                                                                                                                                                                                                                                                                                                                                                                                                                                                                                                                                                                                                                                                                                                                                                                                                                                                                                                                                                        ",
"                                                                                                                                                                                                                                                                                                                                                                                                                                                                                                                                                                                                                                                                                                                                                                                                                                                                                                                                                                                                                                        ",
"                                                                                                                                                                                                                                                                                                                                                                                                                                                                                                                                                                                                                                                                                                                                                                                                                                                                                                                                                                                                                                        ",
"                                                                                                                                                                                                                                                                                                                                                                                                                                                                                                                                                                                                                                                                                                                                                                                                                                                                                                                                                                                                                                        ",
"                                                                                                                                                                                                                                                                                                                                                                                                                                                                                                                                                                                                                                                                                                                                                                                                                                                                                                                                                                                                                                        ",
"                                            C.b.V.V.C.C.C.V.v.v.C.C.C.C.C.V.v.v.V.V.C.C.A.C.V.V.V.C.C.V.V.V.n.b.n.n.n.V.D.).D.V.A.A.Z.Z.A.A.C.C.C.C.C.C.C.C.C.A.Z.Z.A.V.[ A.U.V.C.C.A.A.A.A.A.C.C.V.V.V.V.b.x.b.V.C.A.A.C.C.C.C.C.C.V.V.V.C.A.A.Z.Z.A.A.A.C.V.V.A.A.A.A.A.C.V.V.N.V.V.V.V.V.V.m.V.V.V.N.V.V.V.V.V.V.V.V.V.V.V.V.V.A.A.A.A.A.A.A.C.C.V.V.V.S.v.v.v.S.S.S.S.v.v.b.v.V.V.C.C.V.V.V.N.v.S.V.V.N.V.V.C.C.V.V.V.V.V.V.V.V.V.V.C.C.C.C.C.C.C.C.C.C.C.C.V.v.b.v.V.V.C.V.b.b.b.v.v.S.V.V.Z.!.                                VXZ.C.C.C.C.C.C.C.V.S.v.v.b.b.v.v.v.V.V.v.v.v.v.V.C.C.V.V.v.v.v.v.v.v.v.v.v.v.V.V.V.V.v.N.C.C.V.V.V.V.V.C.C.C.C.C.C.V.C.V.C.A.C.V.V.V.C.C.C.V.V.A.A.A.C.v.v.V.v.v.v.v.S.N.V.S.S.N.V.V.V.V.V.C.C.C.A.A.C.C.C.V.V.V.V.V.V.V.V.C.V.V.V.V.C.C.V.V.V.V.V.V.V.S.v.m.m.V.v.v.v.C.A.Z.A.C.V.V.V.S.v.b.v.v.V.V.C.C.A.A.C.V.C.A.C.x._ v.Z.A.V.C.v.b.A.C.V.V.V.A.A.S.v.V.n.n.b.n.V.A.D.V.V.V.V.V.V.V.V.A.A.V.V.v.S.V.V.v.b.v.v.V.C.A.Z.A.C.C.C.V.v.b.v.b.V.V.v.V.V.VX                                          ",
"                                        ZXb.r r r H r H K c H r I H H H U H c r U H H H ` c _ H J [ T J J H J y J J J T [ | W T Y T [ T | I I U I H U U x.^ U ^ x.A._ 7 + I ] _ U _ U I _ [ I I _ [ H _ I r 7 U _ [ ] ` / I U I K / / ! I I ! I ] [ I I ! P H I _ K _ I ! K I I H P I I P H H H K I U I H K H P U I U H H H U I I ! _ I _ ! _ I U I _ K H I I I r U U H H H H H H H U U I U U U H H H H H H H H H U I I H r H H U I U U H I U U U I H [ U U U _ H r r r H U H H r r r H H U r H H x.                                !.I H H H U H H H H H H r r H r H H H U H U r H H U _ U H H f H H H H r r r H r H H H H r H U U M H r H H U U H P I H C I I x.I I I I Q P P K K P ! / I P H K K K H H H H H H H J J K U U I U I / _ / ! I I K I ! I I ! I H I U H H I U P s P C H H I U _ H H H H I I I I _ I _ I U I ^ I U _ U H H U U I I I I I U [ x.r $ 7 ~.U ^ U r U H H H M H J I J y y f u u u Y ^ W J T Y J J J I H ^ I U H H H ^ J r r r H H W H H I H r H H r r r H r _ H f H _ CX                                        ",
"                                        ` 7 r , , 7 7 q r 7 7 7 7 7 7 r r c 7 7 r r c c H q H H M J H r r r r 8 i u u u u Y Y u J N J i T H f r 7 H H 7 H H J J I ] _ 7 $ r H H H H H H U r r r r r r 7 7 7 r 7 7 7 r r q 7 7 q 7 e w e e e r q r r q q r q q r r , 7 , 7 7 7 e 7 7 7 q e 7 7 7 7 7 7 e 7 e q r q e r e q q r r 7 7 r 7 r q r q r q r 7 , 7 7 q 7 7 7 7 7 7 7 7 7 7 r r r r r r r 7 7 7 7 8 7 r 7 7 7 r r 7 r 7 7 7 7 7 7 r 7 7 7 H r 7 H H r r r r 7 7 7 7 r r 7 7 r r r r 7 r r ]                                 b.7 r C r r r r 7 7 7 7 7 7 $ 7 r 7 H r 7 r $ H r r r r r 7 0 8 0 7 7 7 7 7 7 7 7 , , 7 7 q q q 7 7 $ 7 7 7 7 $ 4 7 4 7 7 4 r 7 q 7 7 r q 7 7 7 7 e r r e e 7 q q q q 7 7 7 r r r r r r r r 7 7 7 7 q e r r $ 7 7 7 7 q 7 4 7 7 7 7 r 9 e 7 4 * 7 7 7 $ r 7 7 , , 4 7 7 7 r e r 7 7 q r 0 7 7 7 7 7 7 8 r H U H H H r W 8 . 7 [ r q 7 r r r r r r r y H y i u u u i i u Y Y u J J y y r y r J r r r r 7 y q 7 r 7 r r H 7 r r r r r r r 7 7 7 7 H 7 7 7 7 b.                                        ",
"                                      E.7 q _ , , 7 q 7 q q 7 r 7 7 q c r H r r c q r r c r r H J r r r 0 8 8 8 u u u u p g g B J u u i J y y r r H H r r 7 H J U [ ] r 7 r r r H f H H H $ + . . . . . + + $ . + $ $ 4 4 4 4 4 , 4 , 4 q 7 q 4 , , , 4 4 4 , 4 7 $ , 4 , 4 , 4 7 4 , , , # + . + # + # + # $ , , 4 7 7 7 4 , 4 $ # $ # , # $ # $ + # + + + . . . . . . . . . + O $ $ 7 9 7 7 7 $ $ + + $ $ * 7 7 7 $ 7 7 7 7 8 7 r 7 7 7 r 7 7 r r H r r r H H H r r 7 r r r U r r H r r r r 7 7 [                                 [ 7 r r r H r r r r r r r r r f 7 7 H r r H 7 _ r 7 7 r r r r 7 7 $ 9 7 q 4 7 7 q e r r e r r r r r 7 7 , 4 4 7 7 4 4 e 7 4 $ # 4 , , 4 , # # # # $ , , , 6 4 4 4 7 4 4 4 , , 4 , , q 7 7 7 q 4 , , , , , $ # # , , , , , $ + $ $ $ $ # # # # $ 4 $ $ + 7 $ , , , # > , , 4 , 4 $ + + + . . . . . . . . 7 H _ I U H 7 U 0 + r I 7 7 H , r r H r r y y y y u g g g u u u u u u u u u u 0 y y y q r H H q r r q r r r r r r r r r r r r r r r r 7 $ $ r r $ 7 !.                                      ",
"                                      Y.7 c K . 7 7 r q q r 7 r q q r r r H r H H r c c H H H H U r H H y y i u J u u g R } R Y u Y Y J J J y f H f H H U % I I _ +.x.r 7 H 7 7 r H H H 7 $ . + + $ + + $ + . + . . . . + + + . # # + # , > , # + + # # + # # + + . + + + + . . . . + + . . . . . . . + + + + + # # # # # # + # # + # # + + + + # + # # # # + + . . + . . # # . . + o $ $ $ + O + . . . + + # $ $ $ $ + $ $ $ $ . + . + . + . . . . H [ H H r H r r $ 7 7 + $ 7 $ $ 7 7 r r r r r ]                                 [ r 7 r r H $ $ $ 7 7 - 7 7 $ $ + 7 r U r r r U $ + $ $ $ $ * o + . # + + . . . # # # , # # + + + + + . . . . + . . . # . . # + # # + . . . . . + + # + + # # # + # # # # # # # # $ , , $ , # # # # # # # + + + # # # + + + + + + # # . . . . . . . . . + . . . . . . . . . . + + . + @ . . . $ + . + . + 7 I I H H $ U 0 . q 3.7 7 _ $ r H H H H J J J J u u u u p p u p p B Y u Y u u J J H y M J J r r y r H r r r r H H r r r r r r r r 7 7 $ $ $ 7 7 7 T.                                      ",
"                                      U.7 r r , r r r q r r 7 r r q r r c H H H r H U H H r K H K c J J y J u u B B Y R } } } R B Y Y Y u f y y f H I H U r ] ^ W ] ] r 7 I 7 7 r H r 8 + $ 7 0 7 $ 7 7 $ $ 4 $ # + + + # # + + + + . # # + + . + + + + + # # . # . # . + . # # . . + + . + . + + . . + # + + + + + + + + + + + + + . + . . + + + # + + + # > > # # # + # # # . . + + + + . . + + . . . + . . . . + . . . + . o + + + $ O $ @ $ + + 7 r r H r U O $ 7 $ 7 r $ r 7 0 r r 7 r r r r x.                                _ r r r 7 r 7 7 r 0 7 2 7 7 r $ r 7 . r r H H r . + r $ $ $ $ + . . . . . . + . + + + + . . + . . . + + + + + # . + . # + # + + . + + . . + + + + + + . . + + . . . . + + + . + . . . . . . . . + + + + + + + + + + + . . + + . + + # # # # # # . # # # # + + + + + + # + + + + + + $ $ $ $ $ $ $ $ 7 7 + + r I U H 7 H 7 . 7 ` H r ` H e _ H J J J J Y J g g g g g R R } R R Y u Y u u f J J H H H M y r r H J r r H r C r H r H H H r r r 7 0 7 7 7 7 r 7 T.                                      ",
"                                      Z.r r r H c r r q r c r r c r H r H H H c H K I H U H I H H H U H H J J Y Y R } } } } } } R Y B B u J J r H U U H H U ] ! U [ [ H 7 H $ r r H r + + $ r 7 O 7 U r H r H r c c c c c C C v x A v Z Z Z Z Z Q Q Z Z P Z Z Z Z C Q C C e C C Z C C C Z Z C e Z Z Z Z P A A C Z Z Z Z Z P Z Z P Q P P C Z Z Z e C Z Z C C C x P C C Z Z C c C H K H C H C H I H s s C C C H H H H s r H P H H H H H H H H r H H $ $ 7 U H r 7 $ _ _ H r r r 7 H I I _ r 7 7 r r x.                                ] H C r $ $ U U U H H r H H H H V._ $ 7 r r H $ $ r _ H H H H H s P C K c C c c C C C Z c x C c c c H C C c K C e C e Z x x e K C x C Z Z c K C C v c c C C C C Z Z Z Z Z C Z K K Z K Z C Z C C C C C C C Z C C C C C C C C C c c c C Z Z C C P C C C c c C C c e e x C C C C C c e r q 7 7 7 7 $ $ 7 7 $ $ $ I I U 7 H 8 + 7 ^ K H ! _ s / H J J J J Y Y Y p p p p B } } } R Y u Y Y u J J H J J M y J r H H J y r H r H s r r r r r r r 7 r r 7 r H r 7 $ T.                                      ",
"                                      A.q , 7 r r r 7 7 r r r q r r H c H H H c I H U U I I K H K I H J J Y R R Y R } } } } } } R B R Y Y Y Y y J H U H J H I U H [ [ r 7 r $ 7 H H H $ 7 7 8 $ - T x.H [ _ I I _ _ ` ` / / / / Z ) Q ( ' =.9.=.=.9.9.9.9.=.=.9.=.' 8.=.=.( ( ( ( Q / ( =.9.=.( 9.9.9.9.9.' ' ' 9.9.9.9.9.9.9.9.9.M.9.9.=.9.9.=.( =.=.9.=.' ' / 8.=.=.8.8.' ' ' ` _ _ _ _ _ _ ] _ / / _ _ _ [ ` ] / / I _ ] [ / _ I I _ I U H I x.r $ $ H H H 7 . H _ 7 7 r 7 7 7 H H U r $ 7 r r ]                                 x.f H r . + H H H r r q r r H H v.H + 7 H H H $ H I _ I _ _ _ / I _ / _ Q / Q Q ' ' =.=./ Q ` / ` / ` / / Q / / Q ( Q ' ( / P ' ( Q / ( ' / =.' ' ( ' ' ' ' ( ' ' ' =.' ' ' ' =.=.' ' ( ( ' / / / / ( ' =.8.( ( / / ( ( ( / =.` ` / ( =.( ( ( 8.( ( / / Q ` ' ( / / ( ' ' ( Q Q P K K K H H r H r $ $ $ $ $ $ H _ H $ r r . 7 ` H I K K H H H J J J Y R R Y Y Y R } } } } } R R B R R R T Y J J J H J T H U H M H r H r r C r r r r r r r r r r 7 7 - $ 7 r T.                                      ",
"                                      T.q , 7 c c H q r r r c r r r r c H I K U U H I ! K I r I I T H J T Y R R R R R }  . .} { p p } R Y R R J J J [ H ! K ! I I x.x.7 7 H r r H I r 7 7 r 7 $ H _ ] H r r r e x c H c r q 7 5 x v v v A Z D A Z Q Q Q Q Z Z ( Z A Z A v A A A A Z Z Q Q Q Q Z Q D Q Q Q Z D Z Q Q Q Z Z D Q Z D Q Q Z A Q Q P C A v Z Z A Z Z D D D Z Z Z Z C Z C c c H r r r r r r c C c r r C e r e e P H r c r r C c r r f U _ r 7 U _ U 7 . J H q e x x x x x C H c $ 7 r r x.                                ] r H H + $ c c c C v v v v e U [ r $ r H f H 7 U U 7 r r r c e e C C C x x c v Z Z A A x 5 e q v v K v C x e x v Z e P P C e Z x e v e C Z K Z Z Z Z Z Z Z Z Z Z Z Z Z Z Z Q Q ~ Q Z C v A C v v v C C C A Z Z A v C Z Z v Q C Z v Z Q Z Z A Q v C x x x C K C x Z Z Z A C x x e q q 7 7 7 7 H U r 7 7 r 7 7 H _ U 7 H H . , ` K ! P K U U H J L T T R R B Y B R } } } } } } } Y R R R R u J J H H H I r J I H U r H H r H H r r H H r 7 r r r 7 7 7 7 7 7 T.                                      ",
"                                      U.7 7 7 r f H r r H r r r c r r K I K I H H K K J K K q I T Y J I T R R R Y R }  ........... .B } } } R T J J ^ ^ U ! P / ! _ ] r 7 I I r U I r 7 r H $ r 8.C C s H c.. $ @ 3 3 @ @ $ # . > > > > > > > > > > > > 6 6 < > > > > > < < < > > > < 6 > > > > 6 < > > > > > > > > > > > > 6 5 6 6 6 6 5 6 > > > > > > 6 6 5 6 5 5 z 5 6 6 > > < > > > , + + + + + + # # # # # # # # # # # # # # + : > . . 2 _ f U 7 , ! ^ ! 8 X r Q z : l n b l < z ~ e $ 7 M r ]                                 ] r U r $ $ Z A z < n b @.n . U _ H o r U U H 7 e r r r q . . # + > + # # + + > , + + > > : + . + > > + : > > > > > > > + + + + + + + + > > > > > > > > > > > > > > > > > 6 6 6 > > > > > > 5 4 5 5 5 < < 6 < > > > > > > > + + + + : > : : > > > > : : > > > # # # = = > > 6 > , . + $ r 0 r r I ] $ $ H r 7 U ] I r H H + 7 v.P ^ U I H I I L I L Y R Y R R B  ............. .p Y u R g R J y J I L J H H H H I H H H H H r H c H H r H r r q 7 7 7 $ , 7 Y.                                      ",
"                                      Y.r 7 r r r r U r x.[ x._ ] ] ] v.V.V.V.v.b.b.C.v.-.c.N.T Y Y I T R R R R R i t a { { { { { a t p } R R T T L T I ^ ! K P I x.] r $ _ H H I _ H 7 r r $ 7 s s C ! Z.. , + : h h j j 1 < h h h h h h h h h h h < < < h h h h h h h h h h h h h h h h h h h h h h h h < < < h h h h h h h h h h h h h < < < < < < < h h l h h h h h h h h < h h h h h 1 1 1 1 1 1 < 1 1 1 1 < < < : 1 > < < < l l j h : @ 7 s U 7 , ^ ^ T 7 X r K v n :.f.d.:.z 5 Z e 7 7 H H ]                                 v.U I r $ , K x v D d.l.f.:.> H _ C o 0 I U U 7 e r e , , + : : : < 1 h h h h h h h < < h h < 1 < < < 1 < h h h h h h h < < 1 < h < < < h h h < h h h < 1 1 h h h h < < < < h h h h h < h h h h h h h h h h h h h h h h h h < < < < h h h h h h h h 1 < h h h < < < < < h h h h 1 h + $ $ U H H H U $ + r 7 7 _ x._ $ I H $ H U.K U H r x.J I J U J Y R Y R p t a { { { { { { a a R Y R g Y Y T T I J M H J H H U U U U K K U H H c r r q H c c r 7 7 q 7 , Y.                                      ",
"                                      T.H r r r r r r $ 7 r r 7 r q q c c r H r r r r q r 7 c _ T T T T R R } } i t { X._.`.`._.X.{ a } | R R Y T ^ Y Y ^ c 2 7 c r U H $ _ I 7 _ _ U 7 r r + 7 r H U _ y 3 1 j n ,.,.<.<.<.<.>.>.>.$.$.$.$.$.>.$.$.$.$.$.$.$.,.$.$.>.$.>.>.$.$.$.$.$.$.$.$.$.$.$.$.$.$.$.$.$.$.$.$.$.$.$.$.$.$.$.$.$.$.$.$.$.$.$.$.$.$.$.$.$.>.,.,.>.>.$.>.>.>.>.$.$.$.$.$.>.>.>.$.>.$.$.$.$.$.%.$.$.$.$.$.%.$.<.<..X<.2.m v $ d s 7 $ ! I E - . r H e v ~ *.=.! U J J 8 - 8 r H x.                                v.f I 0 % 2 I r q x P D D A e H _ r + 7 I U I 4 q c r , @ h n 2.$.$.$.$.$.$.$.$.$.$.$.$.$.$.$.$.$.$.$.$.$.$.>.>.>.,.,.,.$.$.$.$.$.$.$.$.$.$.$.$.$.$.$.$.$.$.$.$.$.$.$.$.$.$.$.$.$.$.$.$.$.$.$.$.$.$.$.$.$.>.$.>.>.$.$.$.$.$.$.$.$.$.$.$.$.$.$.$.$.$.$.$.$.>.,.,.>.>.$.$.>.>.>.>.$.n k 1 + 8 U U H r $ + 7 r $ U I _ 8 H U . C ! H r $ M H H U J J N Y R R R p p ...._._._._._.{ a R Y R Y Y J J J J L J J J U U U U U I H c H H I U K K r c c r 7 7 7 7 q r Y.                                      ",
"                                      T.H r r H r H H $ + + + . $ . . . . . . . . , + $ . @ $ M ^ T I T R } } } p a X.`.{.].[.].]...a p } R R W J T T T [ M L J x.v.C.H 7 I _ H [ [ I 7 r r $ 7 U r T T 8 3 m n $.=XuXuXuXuXuXuXuXuX6X6X6X6XuX6X6X6X6X6X6X6X6XuX6XuXuXuX6X6X6X6X6X6X6X=X=X=X=X6X6X6X6X6X6X6X6X6X=X=X=X5X6X6X6X6XuXuXuXuX6X6X6X6X6X6X6X6X6X6X6XuXuX6X6X6X6X6XuXuX6X6X=X=X=X=X6X6X6X6X6X6X6X6X6X6X6X6X6X6X6X6X6XuXuXuXuXuX<.2.D . d s 4 $ ! U I ; . H H q K ~ / ^ Y i ; f 8 O * U H v.                                S.r I r % 8 T M J U ! K P K P K ` r . 7 I U I , x K K , 5 n ,.-X=X6X6X6X5X=X6X6X6X6X6X6X6X6X6X6X6X6X6X6XuX6X6X6X6XuXuX6X6X6X5X6X6X6X6X6X6XuXuX6X6X6XuXuXuXuX6X6X6X6X6X6X6X6X6X6X6X6X6X6X6X6X=X=X=X=X=X5X=X5X6X6XuX6X6X6X6X6X6X6X6X6X5X5X6X6X6X6X6X6X5X5X6X6XuXuXuX6X6X=X=X<XuX6X=Xa.n m 1 3 ^ I H r $ @ 7 q $ H _ _ r I U + I V.[ _ 7 ] K r J J J J Y R } } p { ..{.].].].].{.X.a R R } R Y T T Y J J J H H U H U U U _ I I H ! K H H H U c H c r r r 7 q H T.                                      ",
"                                      T.H H H H H H H r H U U U H H U I ! _ _ ! _ U v.I U v.+ J T I U I R R } } { { X.{.].[.[.[.]...{ p  .R R R T ^ T U I e I c _ x.V.H r _ [ I ] ] I $ H r + 7 J L y [ N 1 l S OXNXxXxXxXxXxXzXxXxXxXxXxXxXxXxXxXxXxXxXxXxXxXxXxXxXxXxXcXcXcXcXxXcXcXcXcXcXcXcXcXcXxXxXxXxXxXxXxXxXxXxXxXxXxXxXxXxXxXxXcXcXcXcXxXxXxXxXxXxXxXxXxXxXxXxXxXxXxXxXzXxXxXxXcXcXxXxXxXxXxXxXxXxXxXxXxXxXxXxXxXxXxXxXcXzXxXnX%X$.m # s s w 3 ^ N I 9 . I K C Q ( =.=._ T J J 8 $ 7 H K V.                                G.P I 0 $ 8 [ I _ ` ' ! ~ Q P H ] H + q I K I 4 K _ ! , 5 S .XjXnXxXzXxXxXxXxXxXxXxXxXcXxXxXxXxXxXxXxXzXzXxXxXxXxXxXxXxXxXxXxXxXcXcXcXxXxXxXzXxXxXxXxXxXxXxXxXxXxXxXxXxXxXxXxXxXxXxXxXxXxXxXcXcXcXxXxXxXcXcXcXxXxXcXcXcXxXxXxXxXxXxXcXcXcXxXxXxXxXxXxXxXxXxXxXxXxXxXxXxXxXbXxXxXnX6X@.n : c ` I H U $ + 7 7 $ I x.] 7 C.I $ _ T.` 3.7 ] H r y J J Y Y B } } p { _.].[.[.[.].{.X.a } } } R Y N Y T T I J H H U I U H H U H H I ! K U K H K H c H c r r r r q T.                                      ",
"                                      R.H H H H H H H 7 7 H r r e 7 r r r H c c H H H H K M $ M I I I T T Y }  .{ { X.{.].[.[.[.{._.{ { } R R } R T ^ I ` P _ c U _ ] r 7 b.b.U x.x.I 7 H H $ 7 U J I I 2 1 b @.2XnXbXzXzXvXzXzXvXvXvXvXvXzXzXzXzXzXzXzXzXzXzXzXvXvXvXvXzXzXxXxXzXzXvXvXzXzXbXvXzXzXvXvXvXvXvXvXxXzXzXzXzXzXzXzXzXzXzXzXzXzXzXzXzXzXzXvXvXzXzXvXzXzXzXzXzXzXzXzXzXzXxXzXzXzXzXvXzXzXzXzXzXzXzXzXvXvXvXvXvXvXvXzXzXzXvXBX|.@.z , C C w 3 ^ M P - @ ` ! A v z D D Z Z H H $ $ q H H C.                                Z.U I f O 8 [ P Z Z D v m z e r ;.H + r I H P , I ' ' , , n .XjXnXbXvXzXzXzXzXzXzXzXzXzXvXbXvXzXzXzXzXzXzXzXzXzXzXzXzXzXzXzXzXzXzXzXzXzXzXzXvXzXzXzXzXzXzXvXzXvXzXzXzXzXvXvXvXzXzXvXvXvXvXvXzXzXxXzXzXzXzXzXzXzXzXzXzXzXzXvXvXvXvXvXzXzXzXzXzXzXzXzXzXzXzXzXzXzXzXzXmXzXzXvXzXvXnX6X$.n 1 7 ` U H _ + + 7 7 $ ] ] x.r b._ $ U v._ I 7 ] 7 I r H J Y Y B }  .a { _.{.[.[.[.].{...a } } } R T ^ T T W [ | x.x.I _ ` ] _ x.] -.] ! ] x.-.` ! ] U H r q r r r q T.                                      ",
"                                      R.H r H H H H _ $ 7 $ $ . + . . . . + . . $ + $ , . $ q w I ^ ^ ^ R R }  .p a X._.].].[.]._.X.a } } R R R ^ T ^ T ] C H 7 $ 7 r $ 7 r 7 U b.b.U 7 U I $ 7 U r f _ % @ m n ,.<XiXyXuXyXuXuXyXuXuXuXuXyXyXyXyXyXuXuXuXyXyXyXyXyXyXyXyXyXuXuXuXuXuXuXuXuXuXuXuXuXyXyXuXuXuXuXuXuXuXuXyXyXyXyXyXyXyXyXyXyXyXyXuXuXyXyXyXyXyXyXuXyXyXyXuXuXuXuXuXuXuXuXuXuXuXuXuXuXuXuXuXuXyXyXyXyXyXyXyXyXyXyXyXyXiXiX>.n 5 @ U f 7 @ ` ! / * X [ P Q D #.f.d.d.#.v ) c O - I H A.                                S.J W U O 9 8.( F :.d.f.f.:.: e ;.H . H ! U K $ K _ _ , , m >.%X<X<XuXyXuXuXuXuXuXyXyXyXiXiXyXyXyXyXyXyXyXyXyXyXyXyXyXyXyXyXyXyXyXyXyXyXyXyXyXuXuXuXuXuXuXyXyXuXuXuXuXuXuXyXyXyXyXyXuXuXuXuXuXuXuXuXyXyXyXyXyXyXyXuXuXuXuXuXyXyXyXyXyXyXuXuXyXyXyXyXyXyXyXyXyXuXuXuXtXuXuXuXyXiXiXa.n m 7 7 _ H H I $ + r r $ v.x.x.H _ _ + H A._ U 7 ] H H f J J Y R B } } p { X.`.].[.[.{._.X.a p R R L I I J T _ H 7 $ . . + + $ . $ . . $ . + + + + . $ [ U H H H r q r T.                                      ",
"                                      T.H H H U H U H r r ] I I H c K P I _ I I H _ ! ! _ [ @ J ^ I ^ ^ ^ R }  .p p ....`.`.`.`...X.a R  .| } R T T ^ L x.H T ^ v.!.T.7 r C.U.] b.b.U 7 U _ $ 7 U H s H 3 3 k k 2.$.2.>.>.>.2.>.>.>.>.>.>.,.<.<.<.<.,.,.>.>.>.>.>.>.>.,.<.<.,.>.>.>.>.>.>.>.>.>.>.>.,.,.>.>.>.>.,.,.<.<.<.<.<.<.<.<.<.<.<.<.<.,.>.>.>.,.<.,.>.>.<.<.<.<.,.>.>.>.<.<.<.<.<.,.>.>.>.>.>.>.>.>.,.,.<.<.<.,.,.>.>.>.>.>.>.$.n m 1 . U U 0 @ ` ] o.9 . [ P ~ h l @.@.S b D ( e 7 r U U Z.                                A.W [ I o e ' ( F D &.&.@.b + r -.H . H _ _ ! 7 K I L + $ z 2.2.>.>.>.<.>.>.>.>.<.<.<.<.>.>.>.>.,.,.>.>.>.<.<.<.<.<.<.,.,.,.<.<.<.<.<.<.<.<.,.,.>.>.>.>.>.>.,.,.>.>.$.$.$.$.>.$.>.>.,.,.,.,.<.<.,.<.<.<.<.<.<.<.<.<.,.,.,.>.,.,.>.>.,.,.<.<.,.,.,.,.<.<.<.,.,.$.$.,.,.,.>.>.>.>.$.n j 3 . 7 I H H U 7 . r r - ] ] [ U !.[ $ ^ V.I ! 7 ` U U H U J Y R R  .} p { X..._.`.`.`...X.t u T T J U H y T T 7 7 H I K I I ! H _ I I H I I ! I H K r r c H H H c r r T.                                      ",
"                                      T.H H H H I H U r r r H 7 7 r 7 e H I _ U U H H H J H $ H _ I W U [ R } } p a { { ..X.X.X.{ a a R  . .D.| T T L ^ x.r _ _ v.Z.V.r $ [ V.[ _ x.H 7 H I $ r U v.H r ^ , 3 1 < h h j j j j j h h k j j h h j j j l j j j j j l j j j j j j j j j j j j j j j j j j j l j j j j j j l j l h j l l n l j j l j h l j j j j k l j n l l j j n j j n j j j l j j j j h h h h h j h h h h h h h j h l h < 1 > . + I I O % | b.+.y . ] ! ( Q D D D Z Q ( _ H $ r ^ _ C.                                Z._ -.` , e 8.( ( =.9.) ~ Q c I ] H . U ] x.x.$ U ! K $ . , 1 k j h h h h h h h h l l l j h h h h h h h j j l j j j h j j j j j n n n n j n l j j j j j l l j l h l j h l h h h h h h h j l n j n j j j n j h j j j j h j h h h j j j j j j j j j j j l l l j h h h l j j j j h 1 1 1 > + Z / U b._ $ $ H r 7 [ x._ v.V.] $ I 1X3.c.r _ U U I I f R R } }  .p B { { { { X.X.{ a t B R T J J J T I I 7 7 H H H c U I I H U H H c H H K H H r 7 K H H c r H r !.                                      ",
"                                      T.H H H H I U U r $ $ $ + $ # . # + . + $ + $ $ $ $ @ 7 U W T W T W R R }  .p t t a { a a a t &  .a t p ; 8 $ 2 $ r C H _ v.V.v.7 7 _ [ I _ A.H 7 U H $ 7 7 I C K ] ` q . # > > > 6 < > > > > > < 5 5 z z z z 6 < < < < < > < 6 < < < < < < < < h < < z z z < < z > < h h < h h < < z < z < z 6 h z z z < z h 6 < < < < 6 6 z 6 6 < < h < < h < < < < 1 < : > > : > > > > > > > > > > > 5 < 6 > 6 # . q 8.| T i - b.+.b.y @ ` ` ` ! I P s H U _ W 7 r K _ ` Z.                                A.` ] _ r q ` I _ _ [ I I U U H _ H + U +.+.x.0 I H _ ] $ 2 , , 6 6 6 6 6 6 6 z z x z z z 6 5 5 5 5 6 6 6 < h z v < v 6 z h h z h z z l z < < < < < < < < < < < < < < > < < < 6 6 z z < < z h h z z z z z < z z < h < < < 6 > < < < < < h z h h z 6 < < z z 5 3 5 < z 5 5 5 > > # # # 5 / 9.r H H $ $ $ r r r ] x._ [ x.U + H U.` -.7 $ 7 7 - $ % ; & t p p  .p t t t t t a t t p } R T g i T I T I r @ $ @ $ $ + + + $ $ $ + + $ + $ $ 7 , r H c c H H H H T.                                      ",
"                                      T.H H H H I U U H r 7 q 7 7 r e 7 7 r r r H H r H H 7 U I P ! _ T R } } }  . . . ..._._... .} n.R }  .R R H ! U r Z.C s ' C.C.V.r r _ I H x.x.I r f H 7 O * s C r K K 8.' / ' o.o.9.9.9.q.9.7.*.*.*.7.7.7.q.d.d.F.F.d.L.L.F.F.F.F.d.w.w.w.d.w.*.*.7.0.q.q.0.0.d.I.w.d.w.7.0.q.0.0.7.0.0.w.F.q.w.F q.q.q.w.w.q.w.q.q.q.q.q.7.7.7.q.q.w.w.w.w.w.q.q.q.0.7.7.*.9.9.7.7.9.9.*.7.=.) ) ) ) ) *.7.;.9.M.M.M.9.m.^ J y 7 x.m.m.C $ r r r y r 8 % 7 % 8 y y 8 [ +._ U.                                S.[ [ | H _ % $ 7 7 8 $ $ $ + $ 8 $ O W +.x.x.- [ I I I W ] ' =.' ' 9.9.=.9.=.=.9.9.9.9.q.7.9.9.9.q.9.9.q.7.9.q.w.q.*.q.w.9.0.q.:.7.q.7.q.0.q.q.q.w.F.F.F.F.J.J.F.J.d.d.d.q.F.F.d.d.d.d.d.J.F.F.d.q.q.q.q.q.q.q.7.q.w.q.0.w.q.w.F.F.w.w.F.L.L.F.F.w.F.F.q.*.=.' ( ) ;.7.7.*.' ( E [ o.E [ 8 8 7 r $ + 7 U 7 _ x.x._ I ] H $ U A.-.x.M q [ [ I H J J R R }  . . . .} {  . .B B } } B u Y } } T I I U I r H H r H r r 7 r r c q r r 7 7 7 r 7 ] I H H H H r r T.                                      ",
"                                      T.H H H U I U U _ U I U H H I U H U _ [ ! _ I H _ [ _ | _ P _ _ ^ R  . . . . .n. ..._._._.n.} | R R } R R _ ' x.[ m.x.r ] S.Z.Y.r 7 _ U H x.b.A._ 7 0 r - o 9 9 $ 4 . C 7 C P Z A Z A A D D F D V D F #.#.V *.0.w.0.0.w.d.q.7.#.7.0.0.0.0.0.e.0.0.0.7.q.d.0.7.0.0.#.7.e.0.7.0.#.#.#.#.#.7.7.*.F F F F F #.*.7.*.F #.F #.7.F F F 7.w.w.q.7.0.7.*.#.*.F F F D F F F D F ) F F D A A A A A D A D ~ / ) ' / C ^ L H A.b.M.8.Y.I 0 7 % 7 @ @ @ . . . $ J S.+.+.] T.                                T.[ +.V.A.J ; - - % - $ % $ $ 8 $ 8 I v.x.] V.+.7 U H 7 U H H K v C Z Z Z P ~ ~ ( ( ~ D D D D D F ) F D D D D 7.*.D *.*.) *.#.#.F #.#.#.0.7.7.7.*.*.0.0.7.q.e.0.0.e.d.d.d.0.q.q.e.d.d.0.0.e.V F #.7.#.#.F #.#.#.#.7.0.#.#.7.7.0.0.0.0.0.w.d.d.d.w.0.7.*.#.D F ) F D D A A A Z C 9 s 0 ; y X $ $ + . 7 r r H C.v.v.[ _ x.H + H Z.-.] r M x.[ _ [ _ _ R | R } } }  . . . . . .B R } R Y T R R J T I U T I W I H ! I I I I U ! K ! _ H K U I K ] K K H K U H H T.                                      ",
"                                      T.H H H U I U H I H U H H P U P I U H U H _ U H I H J T T W _ _ T R R  . .| |  .|  . ..... .R W U Y B } T ] ] c.[ | _ H _ v.U.!.r r ] ] [ x.V.] C.x._ _ _ W I H r q M q K / ( ( / / Q Z D ) *.) D D D F D V *.7.0.:.#.0.0.0.0.F F F *.#.S #.7.#.#.7.*.*.#.F F #.#.#.#.#.#.#.#.#.#.#.#.#.*.F z *.z D D D F S F V z V D F 0.F F F *.7.*.#.F *.*.#.F *.#.*.*.) D D D A A A D > 6 z z A A D D Q K K K K C Z A e K n.v.b.+.V.A.Z.3.[ ! _ _ _ ! U ` / _ V.b.v.x.b.!.                                ~.c.] x.).A.[ W W I _ -.c.x.] _ b.A.b.x.[ ] x.x.V.H H H U U _ ( P Q ( ( ' =.;.` ( ( ~ Q D D ) ) ) *.*.) *.*.V z z D F ) ) *.F F #.#.#.#.7.7.7.7.#.#.#.F G #.0.7.0.0.:.:.#.:.0.:.#.:.:.#.#.0.#.q.d.d.q.0.#.#.*.7.7.7.7.#.#.#.#.#.#.#.#.:.7.7.7.0.7.*.F F F F F F D Q ~ ! L K H I P P r 2 @ 2 7 r U I I x._ b.Z.S.V.[ x.V.U $ I E.] x.c ! ` I U [ | [ [ T Y | } R W W } } R W R R B Y J T W R J I U H H U U I I H H s U H r H K ! I r c c H H I c U U U I H r !.                                      ",
"                                      T.H H H H U H H U H K I I _ x.v.v.x.x.x.x.b.] | x._ [ _ [ T T U f f u Y R } R R T R } } } } i ; 0 i i 8 Y _ -.3.] 3.I 8 T x.V.U.r r [ ] _ x.] x.x.v.] A.N.K.A.b.] [ _ _ x.8.9.M.M.M.M.q.9.9.B.B.B.B.w.w.w.q.d.w.d.d.w.F.F.F.F.q.F.w.F.d.w.d.d.d.d.w.w.d.L.w.w.w.0.d.w.d.d.w.d.q.F.F.F.F.B.M.H.W.Q.P.W.Q.F.H.I.F.q.w.w.q.F.q.w.w.w.w.q.q.9.q.9.9.7.q.q.q.q.=.) ) =.=.=.q.B.=.M.H.B.M.M.M.M.v.x.8.b.A.C.C.B.P.A.A.b.o.v.n.n.K.V.V.x.v.S.S.c.' 8.c.m.V.v.3.!.I !.                                E._ T.c.x.A.A.v.x.[ -.c.V.m.V.v.b.C.v.b.-.] V.x.x.U.V.v.v.V.A.Z.B.B.A.B.P.G.Y.G.H.P.H.H.H.H.W.P.P.P.H.B.B.q.B.q.W.q.9.q.Q.9.w.q.w.w.q.w.d.F.d.F.d.d.d.d.w.d.d.q.q.q.q.w.w.F.F.w.q.q.q.q.w.F.F.L.F.F.w.F.F.F.F.F.F.d.w.0.w.w.q.q.0.0.q.w.w.q.w.w.w.q.q.q.q.9.*.9.9.8.b.m.b.3.v.v.c.8.3.3.L -.x.x.x.b.b.C.] !.v.b.v._ b.A._ * P T.! ] c ` ` _ ] [ _ x.J y u ; ; i Y g p B g p g i i i y r y i H y r f r H U ` I U I _ x.[ ] -.` ] ` I _ I U U U K I K H H c r !.                                      ",
"                                      T.H H H H U H U U U I _ I 7 _ o.] [ x.b.x.] [ x.x.x.v.v.V.V.n.b.n.b.n.n.D.R.D.).D.D.'.'.'.'.n.n.| b.| (.[ I 3.v.] x.I V.I v.C.Y.s r ] x.[ ] b.x.x.[ ZXVXR.DX1XP.B.A.o.A.v.H.H.H.H.N.C.B.B.B.C.H.C.B.B.M.M.B.B.B.F.H.H.L.H.H.H.M.H.B.q.q.B.B.q.B.F.L.I.H.H.L.L.L.F.I.L.L.L.F.H.B.L.P.H.H.C.c.c.P.V.C.G.P.B.m.B.B.B.H.H.F.B.H.P.H.H.F.B.H.B.H.P.H.H.H.P.H.A.C.m.m.b.=.8.b.m.P 8.m.b.c.b.v.m.x.c.9.' 3.3.+.+.o.o.v.V.m.c.v.N.v.v.v.x.x.[ ] ` 8.c.=.` c.x.V.A.U !.                                ^._ x.v.v.x.x.] ' ` ] x.V.V.x.C.v.x.x.v.m.V.x.c.-._ x.x.] ] n.n.c.M.q.M.Z.m.A.Z.Z.C.B.B.B.m.C.S.B.C.m.m.m.B.M.M.H.H.B.c.Z.P.P.B.M.M.9.9.H.P.H.H.L.H.F.F.B.w.P.B.M.M.M.B.M.M.M.M.M.M.B.B.B.B.B.H.B.F.q.H.H.P.L.P.L.I.F.F.L.L.L.L.F.F.F.H.H.H.F.L.P.H.B.M.M.M.M.H.P.Z.M.v.v.Z.m.B.B.M.N.n.] S.V.C.T.U.A.VXT.x.b.S.v.[ b.Z._ $ I R.I _ r _ 3.] ` x.] r ^.[ | | | n.D.D.'.D.'.'.D.n.n.b.c.x.v.x.x.+.v.S.x.b.b.S.] ] x.x.] _ ! _ _ ! I K ` ! K I U I K H H H K K !.                                      ",
"                                      T.H H H U I H K H U U U r _ 8.v.S.v.v.C.A.C.C.Z.A.Z.A.U.T.Y.).D.(.(.(.(.}.CX'.}.'.}.'.'.'.'.'.T.(.E.^.VXT.r I v.x.o.v.H _ v.A.T.H r x.C.x.x.V.x.b.x.x.b.b.N.x.8.9.o.b.A.A.G.B.m.m.3.c.B.B.m.m.m.b.c.c.M.m.M.B.H.H.P.P.H.B.G.G.m.G.C.B.B.H.H.M.H.H.H.P.H.H.C.H.H.H.P.P.H.H.B.H.m.H.H.C.Z.C.b.S.S.Z.Z.C.C.V.m.b.m.m.m.B.Z.m.H.P.C.B.C.Z.Z.m.b.Z.Z.P.Z.G.m.c.V.v.b.x.` ] c.x.-.c.c.c.v.v.v.v.v.v.9.' b.3.+.+.o.x.x.v.m.m.V.N.x.b.v.N.c.[ x.b.m.m.m.S.b.v.S.A.C.CX                                AXV.V.v.b.c.c.8.c.8.x.] x.x.V.V.V.V.x.c.V.v.x.] _ [ ` ] -.3.3.3.8.M.9.M.P.S.] b.m.8.8.b.S.b.S.b.b.v.c.x.c.b.m.A.C.V.c.v.c.V.Y.Z.b.S.c.8.G.H.H.H.P.H.B.B.B.M.m.c.v.v.b.v.x.x.x.c.c.] c.C.G.H.B.H.H.C.9.B.C.H.H.H.H.>XF.P.P.P.P.P.L.H.B.H.H.H.F.B.M.9.9.M.M.b.b.C.V.m.8.x.b.N.8.9.9.' 3.| _ o.] [ x.] +.o.x.b.x.V.b.] v.T.] 7 P U._ _ r _ c.] x.x.I c.T.G.U.A.A.(.'.'.'.'.'.'.'.R.R.K.T.T.T.U.).Z.T.G.C.Z.U.G.A.V.V.V.c.b.x.x.c.` H H _ I K ! K ! H K I H H H !.                                      ",
"                                      !.H H I _ I H U U U I r H I ] C.Z.T.R.^.^.~.U.!.E.!.Y.E.!.T.Y.Z.}.ZX'.(.FXAXDXZX(.FXAXDXDX'.'.'.CXAXZ.FXY.x.r ] c.[ ` ] Y.v.T.T.U r x.V.x.v.V.v.c.v.m.U.E.^.A.Z.^.Z.!.^.U.^.^.m.T.T.U.^.wXwXR.W.wXG.^.~.^.~.:XwXwXZXCXwX^.wXVX~.m.VXVX:X:XVXZXVXVXW.~.!.:XQ.^.^.:XW.AXH.W.H.Q.Y.E.!.VXG.A.^.ZX^.ZXVXCX!.~.^.T./.Y.Q.~./.:X/.:XQ.W.T.wXwX^.:X:X:X^.Y.ZX^.!.T.T.U.!./.^.!.R.T.E.c.o.C.FXV.Z.A.v.T.U.U.T.Y.T.U.).P.R.E././.^.!.~.^.^.^.^.!.!.U./.:X!.T.T.U.U.T.SX                                SX^.!.T.T.T.!.ZXCXVX^.!.^.CXAX^.VXZX!.^.^.^.Y.^.U.T.!.T.^.A.VXZX!.!.E.Y.E.T.T.ZX^.C.T./.Z.T.!.U.ZXU.T.T.Z.T.!.!.E.A.v.Y.V.P.^.wXVX:X!.:XVX/.Q.T.wXwXE./.wXY.E./.Q.!.E.^.~.E.E.T.T.Y.^.E.:XwXR.Q.Y.Q.~.^.E.ZX:X~.Q.P.P.~.~.:XQ.:XwXwX:X:X:X:X>XP.W.^.:X~.W.:X/.R.T.T.R.Y.T.U.U.U.R.-.G.S.U.R.Z.Z.Z.C.C.m.v.v.x.V.V.x.G.^.x.7 I T.o.] H [ b.x.x.I _ r v.C.T.R.).AXCXAXAXDXCXT.'.K.DXE.DXZX1XT.Y.A.U.] U.Q.^./.^.Q.v./.T.Z.V.V.V.[ [ 7 H U U U I U H U H c r H !.                                      ",
"                                      !.H H U U I U U U U H $ 7 [ _ _ _ _ c U c H 7 c w r 7 q q q 7 7 8 8 8 ; 8 % 8 7 $ 8 0 8 u 8 I J _ V.!.Z._ 9 r v.x.] S.v.x.C.Z.U.H H v.V.V.C.T.G.V.V.A.!.G.Z.v.v.U.v.Z.Z.V.Z.U.x.U.Y.U.T.T.!.Z.P.W.C.R.R.R.W.W.P.C.Z.P.Y.Y.Y.E.(.A.E.T.Y.G.U.U.Y.R.A.G.A.G.C.P.R.Q.R.:Xm.G.v.Z.G.T.T.T.] H T.!.!.!.!.~.R.E.T.U.!.T.!.E.T.E.Y.!.!.E.T.!.!.E.~.!.!.VX_ !.!.T.U.U.Z.T.E.!.!.R.).U.9 U x.c.v.] v.x.A.A.A.).).U.Z.A.C.A.U.Y.R.R.T.E.!.T.T.!.^.^.U.!.!.!.T.Y.A.V.v.^.                                ^.C.Z.Z.Z.U.Y.T.!.T.T.E.!.!.CX!.^.!.T.T.T.T.U.T.Z.Y.T.T.!.Z.R.T.).U.).Z.R.U.U.U.T.P.U.T.T.T.E.U.^.Z.Y.Y.C.U.^.U.U._ ] [ x.b.).Z.U.R.R.T.T.).).A.Y.T.P.R.E.A.T.!.T.E.T.!.E.T.Y.U.U.Y.~.T.T.U.G.U.A.G.Y.T.R.~.Q.~.R.' ' W.^.W.W.T.W.Q.!.W.R.W.Y.G.R.W.Y.P.Z.R.Y.A.Z.Z.U.Z.Y.Z.C.A.A.x.Z.C.Z.Z.V.V.m.b.C.V.C.V.m.U.H v.Y.Z._ , ! VX] b.] C.x.v.v.H 8 $ r A.A._ H ! 0 8 8 0 r $ 7 7 q q 7 q r 2 * 7 7 % e c q q 7 C 6 9 7 r H K H H H H . U U _ U U H U H H r H !.                                      ",
"                                      T.H U U U I U H I I U . 7 v._ U U H + + . . . . . . . . . . . + . . X @ . . . . + . @ X X % I T T ] T.H C H 7 x.] x.b.S.C.b.T.!.r r b.x.v.V.Z.V.C.A.U.!.x.r r r H r H r r $ 7 + r H r r r K q x r q H H C c K C r c c c c r r J M r H r q r q r e 7 r r r c c K K c C $ e c H H H r H r r P ! I H C C e C H H K P K H C H r H H H c H H H H K c . ! _ K K r r r H C H H r 7 r r 7 s C H * 9 * r r r r H s H s r r H H H H c H H r r H I U H U U H H H r 7 r b.                                b.r H H H H r r r r H H U U H r H H r H H H H r H H H U H H r H 9 r r e H H C 7 s H 7 9 s r H r H 7 r r 7 r 7 7 $ 8 $ r 7 H r 7 r r 7 9 r r r 7 r C r f H 9 r H c C c H C c r r q c U H c e C H c r c C c c r q c q e C e e e 7 7 e c r e e q q H C c C c U H r H H H H H H r r r r H H H f c r q 7 ! ~.Z.Y.C.T.x.G.G.T.] $ _ ZXx.x.x.[ _ V.C.r $ r $ V.] U T y @ . . . . . . . . . . . . . . . . . o . . . . . . o X . @ I J H H 7 + H _ U I U H U H H r H !.                                      ",
"                                      T.U I I I I _ H I I I . r _ I I 7 $ . . . . . . . . @ . . . . . + . . . . X . . . . . . . . . q I [ v.C P H 7 b.x.b.V.v.V.C.C.Z.H r x.v.V.C.C.U.Z.!.T.7 $ . . . + O + . . . . . + + $ . . + . + . + $ $ + . + . . . . . . @ + + @ + , $ $ $ . # . + + $ $ $ $ $ # + . . , . . , , + + $ , + $ , $ $ 7 7 c , , + $ + . + $ $ + . . + $ $ # $ 4 7 $ . $ . . + . + o . . . . + . + # . . + 7 O # $ $ $ . O $ # o + . . + + o $ $ $ . + $ $ $ $ $ + + $ $ $ $ . U                                 I + $ $ $ + + + $ $ $ $ 7 $ $ + $ + + $ + $ $ . $ $ $ $ + $ o $ . + + . $ # + $ o # # + O o + + $ + $ $ + $ $ $ + $ $ O . + $ $ 7 7 $ + + $ $ + . $ O $ O + . . . + . . . . . $ . # + + + # $ # , $ , $ , + # . + . + + . + . # $ o $ $ $ $ . . + . + $ + + + . . + . . + . . . + $ + . . . + . + $ r G.Y.T.!.U.A.A.V.!._ . _ VXx.] v.| x.v.S.H $ 7 7 Z._ J w @ . X . . . . . . . . . . . . . . . . . . . . . . . . . X . % c _ H 7 + H I _ ! U H U H H H H !.                                      ",
"                                      T.I _ _ _ I [ I I I I . 7 I U 7 . . . . + . . . . . . . . . . . . . . . . . . . X @ X . @ @ + . ^ [ b.r H H 7 x.] v.T.b.| b.T.T.r $ _ C.A.Z.Y.G.T.V.C.7 $ $ . + 7 7 $ $ $ $ $ $ $ $ $ + $ + $ $ $ $ 7 $ $ q q 2 $ , 2 $ , 2 $ , $ 7 7 $ , $ + 7 $ , $ 7 , $ 7 $ $ # $ $ 4 7 $ 4 , , , 7 4 7 7 7 $ $ , , 7 , 4 . 7 , $ , , 4 $ , 4 7 4 , $ $ + # , $ 7 7 7 4 $ 4 4 $ * * * o $ . 7 7 $ $ $ $ $ * $ O . * * * 4 7 * 4 7 7 7 8 7 $ $ 7 7 7 $ $ $ $ $ $ $ $ $ $ I                                 _ 4 7 $ $ $ $ $ $ 7 - 7 7 7 7 7 7 $ 7 7 $ $ - - 7 7 $ $ $ $ $ $ $ $ $ $ 7 $ $ 0 $ o 7 $ 7 $ $ 7 $ - 7 7 $ $ . + $ + 7 . $ $ $ $ $ $ $ $ $ + $ @ . $ $ $ $ $ , , 7 7 7 $ $ 7 $ 7 , 7 , , $ , , # 7 7 7 $ 7 , $ $ , $ $ 4 $ + $ $ 2 $ $ $ $ $ 7 $ $ $ $ $ $ $ $ $ $ 7 $ $ 7 7 $ $ 7 7 $ + $ $ $ . . . 7 $ :XY.Y.T.U.V.A.G.` $ ] FXU.C.v.x.x.x.v.H $ r r V.H _ @ @ . . . . . . . . . . . X . . . . . @ . O . . . . . . . 2 . . + J r r . U U ` T I H U H U H U !.                                      ",
"                                      !._ _ I _ I [ _ I I U . 7 I I . . + . . . . $ + $ $ $ $ $ o = = = * = = = + $ X @ % % . . . . + + ] ] r H H 7 x.] ] A.x.Z.V.V.A.U 7 ] Y.A.G.Y.T.T.U.$ $ 7 $ . + 7 7 $ $ $ $ $ $ $ $ $ $ $ $ 7 7 q 7 7 , 7 q q 7 7 q 7 7 7 7 7 7 $ 7 $ $ 7 , $ 7 $ 7 7 7 7 $ 7 $ $ + , $ $ $ + 7 7 q q q 7 7 7 4 $ $ 4 , 7 4 7 + 7 4 4 7 4 , 7 q 7 7 , 7 7 $ + $ 7 $ , 7 7 7 $ 7 4 7 7 7 4 O $ 7 . * 9 7 7 * * 4 $ $ o * 7 $ * 4 7 7 7 7 7 7 7 % - 7 7 7 7 7 % 7 7 7 $ - $ 7 _                                 _ r 7 $ $ $ 7 7 $ 7 7 8 7 7 7 7 7 7 7 r 7 8 8 7 7 7 $ $ 8 $ 7 7 7 7 8 7 7 7 7 7 $ * $ $ - $ $ 7 $ $ - $ $ $ . $ $ 7 $ 7 $ 7 % % $ @ @ $ % $ $ $ $ $ $ $ $ 7 7 , 7 7 7 $ 4 7 , q , 7 7 7 7 7 7 $ , $ , + , , 7 $ $ 7 7 , $ 7 7 $ $ - - $ $ % 7 - - 7 7 - 7 8 $ 7 $ 7 $ 7 $ 7 $ $ $ 7 7 $ $ $ $ + . 7 $ $ r AXT.T.Y.V.m.m.x., ] FXA.v.A._ [ S.V.H $ r r T._ $ . + . . . - 7 - O % O $ @ . $ $ , @ , , # 4 o . @ . . . . . . . $ r U r $ H [ I _ ! U ^ I I H H !.                                      ",
"                                      !._ I U / I _ _ I _ H . 7 I x.$ . . + . . $ r 0 r r r r y f f U I I I K C H ^ I T T _ r . + $ . $ [ Y.r U H 9 _ _ v.T.Z.A.b.R.T.H 7 b.Z.V.A.E.^.x., r $ 7 7 $ + $ $ $ $ + + $ $ $ $ $ $ $ $ $ $ 7 $ $ $ $ 7 7 $ $ $ $ $ 7 7 , 7 $ , $ $ 7 , + $ + $ $ 7 7 $ $ $ $ + 7 7 7 7 7 q q , 7 q e 7 7 4 7 $ q 7 7 7 7 $ $ $ $ , , $ , 7 $ $ $ , , $ $ $ $ 7 $ , $ * + $ $ $ $ $ o $ + $ $ $ . + $ $ $ $ $ $ $ $ $ $ $ $ $ 7 8 7 7 7 7 7 7 7 7 7 7 7 7 7 7 $ $ 7 7 7 _                                 U 8 7 $ $ $ 7 7 $ $ 7 7 $ 7 7 7 $ $ $ $ $ $ $ $ $ $ + + $ $ $ $ $ $ $ $ $ $ 7 $ $ 8 7 $ 7 7 $ 7 - $ 7 $ $ $ $ $ $ $ $ $ $ 7 $ 7 r 7 7 7 $ 7 7 7 % $ $ $ $ $ $ + $ $ $ + $ $ $ 7 $ $ $ , 7 7 $ # $ $ $ $ 7 7 $ $ 7 7 7 7 , $ $ O O $ - $ $ % $ - % $ $ O $ $ $ 7 $ $ $ $ $ $ $ $ $ $ $ 7 $ $ + . . $ , 7 r $ CXT.Y.U.v.C.v.7 x.FXU.v.V.7 ! V.b.r $ H 7 Z.U . . . o # e ` I ! K U ! Q / / / K ! ~ ~ Q Z C H r q q J 7 $ . o . $ H _ H . H _ _ _ _ I _ I I H H !.                                      ",
"                                      !._ I H _ _ _ _ I I H . 7 _ H + . . + . x.I x.x.+.x.x.x.| | b.n.D.v.Y.Z.b.c.C.K.Z.Z.Z.] $ $ . + o x.v.s H r r ] x.A.A.G.U.Z.U.Y.r r A.U.Z.Z.ZXT.H 7 $ , 7 $ $ . . . . . . . . . . . . . . . . . . $ + + + . + + + O . . + + . + + + + . . . . . . . + + . $ + $ + + + + . + . . + . $ . . . . . + . $ . . + + + . . . . . + . + . $ + + . . + + . . . . . . . + . . . . . . . . + . + . . . . . . $ + . + . + . . . + + + . + $ + + $ $ + + + $ $ . + $ $ 7 U                                 f $ $ + + + + $ $ + O . . $ + + + $ + + $ O + . . + . . . . . . . . . + + + . + + . + + . . + + $ . + . . . . . + . . . . . . . . . . . . . . . . . . . . . . . . . + . . . . + + + . . . + + $ + . + $ + . + . . + + . . + . . + . . . + . . + . . . . @ . . + . . . . . . . + . . . + . . . + $ 7 r $ $ 7 ` T.T.T.x.Z.V., x.SXA.A.C.[ v.b.b.r 7 r r V.I O . . * 7 _ G.v.N.V.v.m.Z.M./.C.C.C.P.M.P.=.=.' ' ` _ N.` H o = . o H U 7 + ] _ _ ] [ I I U U H H !.                                      ",
"                                      ^._ _ U I _ _ _ I I H . 7 ] _ + . + r v.I _ H H I H r c J J T I I ! ! ! ! I _ ] _ [ _ b._ I $ + $ ] V.H H r 9 x.] Z.U.Y.T.Y.~.^.H r U.Z.Y.!.Z.` I 7 7 , 7 7 O . . . . . . . . . . . . . . . . . . . . . . . . . . . . . . . . . . . . . . . . . . . . + . . + . . . . . . . . . . . . . . . . . . . . . . . . . . . . . . . . + . + . + . . + . + . . $ . . . . . . . . . . . . . . . . . . . . . . o . . . . . . . . . . . . . . . + + . . . . . . . . . + H                                 r + . . + . . . . . . . . . . . . . . . . . . . . . . . . . . . . . . . . . + . . . . . . . . + . . . . . . . . . . . . . . + . . . . . . . + . . . . . . . . . . . . . . . . . . . . + . . . . . + . . @ . . . . . . . . . . . . . . . . . . . . . . . . . . . . . . . . . . . . . . . . . . . $ 7 7 7 , , $ C.Y.CXU.E.C.r v.KXA.Y.x.x.[ C.V.H $ r r A._ $ o . 0 L Y.^ ` L K K / ( ' / / _ / P ( P P C c K K I N ^ [ 8 o o $ r U 7 . H _ [ [ [ I _ H H H U !.                                      ",
"                                      !.U I U I _ _ _ U U H . 7 ] ! $ . + 7 x.U V._ H I $ , $ , q r r q w e q 7 7 9 9 x.[ [ ] V.7 $ + $ x.P.H C H 7 x.b.Y.Y.U.T.T.ZXVX_ r x.V.T.Y.! 7 r 7 7 q , $ . . . . . . . . . . . . . . . . + + + + . . . + . . . . . . . . + + . . @ @ + + + + + + + + . . . . . . . . . + + . . . + # + + . . . . . . . . . . + + . . . + + + . . + $ $ $ $ $ $ . $ . + . . . . . + + + + + + + + . + + $ $ o + . $ + $ $ $ + $ $ + . . . . . . . . . + . . + + + . . + $ _                                 H o + . . . O $ O + + . . . . . . . . + $ $ + + O + + + + . . . . + + + + + + . . . . + . . . . . . . + + + + $ $ + . + $ + . . # o . # # # . . . . . . . . . . . + + + + + + . + . . + + $ . . . + . . + $ . . . . . . . . . . . . . . + + + + + + . . + . + + $ $ O + + + + . . . . . . . . . + , 7 7 7 7 $ $ x.U.VXT.U.r C.GXC.V.V._ b.A.A.U $ r r T._ - O . ; | K.` ^ ` K e e 9 9 r r r f f s s 7 9 $ 7 -./ L 3._ [ $ . $ r I 7 . H _ x.+.[ I _ _ _ U K !.                                      ",
"                                      !.U I U I _ _ _ U I H . 7 _ K . + + $ [ H _ f f 7 . . . + . . + + $ $ + . . . . U o.] [ x.* * . O o.P.r s r * b.b.U.T.T.Y.Y.^.!._ r v.!.Z.` 7 , , 7 7 q + . . . + $ $ $ $ 7 7 7 7 7 7 7 7 7 q r r r r 0 7 H r r r r r r r 7 7 7 8 7 0 r 7 7 7 7 7 7 8 7 7 7 7 7 r r 7 7 7 7 r q 7 7 r q 7 7 7 7 7 7 7 7 7 7 7 7 r r 7 7 7 $ 7 7 7 7 r r r 7 $ 8 7 $ 7 $ r 0 7 7 r 7 7 r 7 7 7 7 7 7 7 7 7 7 8 7 7 $ 7 $ 7 r 7 7 7 7 7 7 7 r 7 r 7 r $ 7 $ 7 r r r r r r H H x.                                [ r 7 7 7 r 7 7 8 7 7 7 7 7 r 7 7 7 7 7 7 7 7 7 7 7 7 7 7 7 0 7 7 r r 0 7 7 7 7 7 7 r r r r r 7 7 7 r r r 8 7 7 7 7 7 r r r r C C 9 7 7 7 4 7 e 4 4 9 * # 7 7 7 7 7 7 7 $ $ 7 7 r 7 7 7 7 7 r r 7 r r r $ 7 7 7 7 7 7 7 7 7 7 7 , 7 q q q e q q q q 4 7 7 7 7 r r r 0 7 7 7 7 7 7 7 7 7 $ $ . . . + , 7 7 7 q $ 7 m.Y.!.T.7 b.FXA.C.A.v.b.U.Z.H $ r r !._ $ . . % | c.` ^ I O . o . . & & & X % O - X . . o K I ` ] I H O . $ r _ r . U _ x.[ _ _ _ _ _ U U !.                                      ",
"                                      !.I I U I I _ _ I _ H . 7 [ L . + + 7 [ I W _ H . + , , e e 4 e x c K r r 8 * O . E o.x.] e $ . $ [ A.9 C 7 7 b.b.Z.U.(.T.T.VXVXH 7 b.^.x.7 7 r , r , $ . . . + $ 7 7 $ $ $ $ $ $ $ $ $ $ 7 7 q r r q 7 7 7 7 7 7 7 7 7 7 7 7 7 7 7 7 7 7 7 r 7 7 r 0 7 7 7 r 7 7 r r - 7 r r r q q r r r r r r H r r r r r r r r r r r r r 7 r r r r f r r r 8 r 7 % 7 r 7 - 8 7 7 $ - 7 7 7 7 7 7 7 8 7 7 7 7 r r r r r r r r r r H H r f r r 7 r r r 8 7 7 8 7 r r r H H x.                                x.7 r r H r H s r r 0 r r r f r r r r H H r r r r r r r r 7 7 7 7 7 7 8 7 7 7 7 7 r r r r r r r r r r r 8 $ 7 7 $ 7 7 7 7 7 7 7 7 7 9 r r r e r e 9 7 = = 7 7 7 7 r r r r r r 7 7 7 7 r 7 7 7 r 7 7 $ 7 $ $ r r 7 7 7 7 7 q q 7 7 7 q q q 7 e q q q 7 7 q 7 $ 7 7 7 7 $ $ $ 7 - - 7 7 - $ - $ + . . $ , 7 q $ r $ + v.!.Y.r b.FXV.C.b.v.v.A.U.H $ H H !._ $ O . % W x.] _ 7 . 0 f r f r M M ! Q / U f % ; o $ Q _ K ( 9 $ . $ H _ r $ x.[ [ [ _ [ _ _ _ U _ !.                                      ",
"                                      !.I I U I I _ _ ! _ U . 7 -.! + . + 7 [ I W ] $ . $ ` q v Z v D *.;.;.~ r r J 8 . r 8.=.8.q + . * _ A.r r e 7 x.V.Y.Z.!.!.T.AX^.H H b.[ + 7 7 7 7 q + . + . $ 7 7 $ O . + + + . . + + + + + $ $ $ $ $ $ $ $ + + + + + + + . + . . . . . . O $ + + $ $ + $ $ $ $ + + $ + $ + + + $ $ + + $ + $ # + + + $ $ $ $ + + + + + + $ . + $ $ $ $ $ . + . $ $ + . $ $ . . + . . . . . . + + + + + + $ + $ + . . $ + $ . + $ $ 7 7 $ $ $ $ $ + $ . . . + + $ $ $ $ $ $ x.                                v.$ + 7 $ $ $ + + $ $ + + $ + $ $ 7 $ $ $ $ + + + + + + + . + + + @ + . + + $ $ $ @ @ @ @ + $ $ $ $ $ O + + $ $ $ + + + . + $ $ O O # . + $ $ # O $ . # O . + . . . + + + + + . + + + $ . . + $ $ $ . + + $ + + + + + + + + + + + + + + . . $ + + + . . + + + + O $ $ + + + . . . + + + + $ 7 $ . . . $ , 7 q $ $ , 7 CXc.$ [ !.V.V.S.v.V.Z.U.H $ H H U._ $ O . 4 ` S.8._ O - ] [ L =.D #.#.:.#.7.) ^ y T 8 o ( I Q / P O . $ H _ 7 O x.[ ` ] _ _ I _ _ H U ^.                                      ",
"                                      !.I I U _ _ _ _ I _ H . 7 x._ . . . r [ W _ _ + $ , K + : n 2.2.$.%.1.#.h + K f @ r c.' ' 7 + . O _ A.H r e 9 x.V.E.T.~.!.Y.AXSXU.I [ 7 $ 7 , 7 7 + + . . . $ 8 7 + . . + . . . . . . . . . . . . . . . . . . . . . . . . . . . . . . . . . . . . . . . . . . I ] H H I H U _ x.C.V.] U J H H U U H H H H H H H U U U U U H H U b.x.V.v.C.Z.A.Z.A.C.C._ x.x._ U U U U U U U U U U U U H H H H U U U _ C.Z.V._ H I U r r r H H U v.V.V._ I U I U H H r y H x.^.                                  x.H H H r H U ] V.A.V.b.x.b.v.b.x.H H H U U U U U U U U U U U U U H H H U H H H H H H H H U U U H H U _ [ I x.x.I U I U U H H U I U I ] v.v.b.V.C.V.A.V._ _ I U U U H H U _ [ v.C.V.x._ U x.U . . . . . . . . . . . . . . . . . . . . . . . . . . . . . . . . . . . . . . . . . . . . + $ 7 7 $ . . . + $ r $ q $ $ 7 T._ A.CXx.A.V._ Y.Y.Y.U $ r H Z.[ $ . . 4 ' 8.x._ O y b.K : b @.$.$.,.r.t.&.: , y - + H _ / Z E O . $ H _ 7 $ _ _ ] _ [ _ _ _ _ H I ^.                                      ",
"                                      !.I I I _ _ _ _ W _ H . 7 x._ + . + H x.] _ ! + + x M v n .X=XiXkXlXlX,X%.< D I . i v.x.x.r $ . o _ A.s r 7 e V.V.!.!.!.!.^.AXCXA.7 r $ $ $ 7 7 $ . . + . $ $ $ O . . + $ + + + + $ $ $ $ $ $ $ $ $ $ $ $ $ + + + . . . . . . . . . . . . . . . + . . . + . _                                                                                                                                                                                                                                                                                                                                                                                                                                 r . + + . + + + . + . . . . . . . . . . . . @ . @ @ @ + $ $ $ $ $ $ $ $ $ $ + . . + + + . + , 7 2 $ . . . . 7 r 7 7 r 7 r r A.ZXV.Y.Z.V.U.!.!.I 7 H H !.x.$ . @ 7 ` ` o.W & u ] v h %.-XiXiXiXkXiX-Xh z K y % J ] I E / 7 . % H _ 7 $ U [ x._ x.[ ] _ _ _ [ ^.                                      ",
"                                      !.I I U _ _ [ _ _ _ H . 7 -.! . . . r [ [ _ x.. + M ~ 3 n -XkXkXkXlXlX,X@.h D ! $ y x.] x.9 + . $ x.A.7 r H 9 A.A.!.!.Y.^.^.SXAXx.7 $ $ $ $ 7 $ . + . . $ 7 $ . . . O $ $ @ @ $ $ $ $ $ $ $ $ $ $ $ $ $ $ $ $ $ + . . . . . . . . + + + + + . + $ . . + + . !.                                                                                                                                                                                                                                                                                                                                                                                                                                x.+ $ . . + + + + + + + . . . . . . . . . + @ . @ $ $ @ $ $ + + $ $ $ $ $ $ $ + + $ $ $ . . $ , 7 , + . . . + 7 r , 7 7 7 $ V.VXA.C.A.U.A.!.!.U $ r H VX] . @ . q x.c.[ J @ y / v k %.lXlXlXlXlXlX-Xh v K r X [ [ T _ P $ . $ U [ $ $ I x.x.] b._ [ _ _ I _ ^.                                      ",
"                                      !._ _ _ _ _ [ [ _ x.[ . 7 x._ . . + r ] ` ! V.+ + M ! w v @.$.$.$.@.@.b h > Q _ $ T Z.| v.r $ . $ v.Z.r r r r Z.v.Y.^.Y.!.^.AXC.r . O $ $ $ O . . . . + 7 $ + . . + $ $ , 7 . , $ $ + 7 + $ $ 7 $ $ $ $ $ $ $ + $ . . . . . . + + + + + O $ + . $ . . $ + +                                                                                                                                                                                                                                                                                                                                                                                                                                   b.. $ $ . 7 O + + O + + . . + . . . . . . + $ + $ + $ $ + , $ $ , $ $ $ + $ $ $ + $ 7 $ $ . . + $ 0 8 + . . . + 7 7 7 7 + . _ C.A.A.C.Z.Y.Y.T._ $ r H CX] $ . @ 7 v.V.] T X q ! v 1 n &.%.%.%.@.b b : A K M @ (.W [ _ H 7 . $ H _ r 7 [ x.x.] [ _ _ _ _ _ _ ^.                                      ",
"                                      !._ _ _ _ [ ] [ _ ] _ . 7 ] ^ . . . r ] [ I . + . M ` _ Z D D D v v z z 5 P / _ $ - I _ S.r $ + $ v.U.7 r r r Z.A.!.^.T.U.^.SX!.U . . + + $ + . . . $ $ 7 $ . . $ $ $ , 7 , $ 7 r r r r r _ H r U H H r H _ r + $ . . + . + + O O O O $ $ $ $ $ $ $ $ 7 $ O                                                                                                                                                                                                                                                                                                                                                                                                                                   b.+ $ $ $ 7 $ $ $ $ $ $ $ $ $ + + + . . . + $ . + ` r r U r r r r r r r r r r $ + $ 7 7 $ $ . . $ 8 7 $ . . . . $ $ $ @ + + r SXA.x.Z.Z.A.U.T._ $ r 7 ZX[ + $ . - n.b.- O . @ c Z v ~ *.#.*.D z z 5 x P ` J q $ I _ _ H 4 . $ H I 7 7 x.x.] x.] [ _ _ _ _ _ ^.                                      ",
"                                      !._ _ _ _ _ [ ] ] ] _ . 7 [ _ . . + r ] -.+ . 7 r 7 K ! Q ~ ~ D A v v v c C I U 7 7 7 [ G.H $ O - V.!.r r H r C.A.E.T.!.Z.!.CX!.I 7 $ $ + . . . . $ 7 7 $ + . + 7 , 7 q 7 . + , H H H H K + 7 $ $ 7 H U H U 7 + 7 . . . . . + + + + + + $ . + . + + + $ O $                                                                                                                                                                                                                                                                                                                                                                                                                                   x.+ 7 $ $ $ $ O O O + + + + + + . . . . . + , . 7 _ r r ] $ 7 $ 7 7 q c r c c $ + . $ r 7 2 $ + . $ 7 7 $ . . . . + + . + $ _ T.A.Z.V.A.A.Z.T._ $ 0 r ZX] + + . 7 v.v.$ O 7 - r c Q Q ~ D ~ D z v 5 Z C I r r $ $ v._ [ $ . $ H _ r 7 x.x.] x.x.[ [ _ _ _ _ ^.                                      ",
"                                      !._ _ _ _ [ [ ] ] [ [ + 7 ] _ + . + r [ c.. @ H q w 7 , e 5 z 5 5 , # $ , q 7 r H q @ b.v.H $ . $ v.T.r r r r A.C.T.Y.!.T.T.!.V.U 7 7 $ + . . . + - 7 $ . . . $ 7 7 r q . . + , H r H c r r H H H U r H H [ 7 . $ . . . . . . . . . . . . . + . . + . . . O                                                                                                                                                                                                                                                                                                                                                                                                                                   x.+ $ + + . + + . + + . + + . . . . . . . + $ . , [ H U H r H r r r 7 H H r r 7 + . + r q 7 7 $ . + $ 7 7 7 . . . . + + O $ _ T.C.A.Y.U.A.U.Y.U $ 7 H ^.x.$ + $ q x.b.- $ q q $ $ 4 5 5 4 5 5 > , 5 , q r r q f . v._ _ $ . $ H [ r 7 x.x.x.x.x.] _ _ _ _ I ^.                                      ",
"                                      !._ _ _ _ x.] [ [ _ [ + 7 ] U . . + 7 _ b.. $ . K $ + $ + $ # # . . . o $ $ 7 2 7 q . x.c.r 7 . $ ] A.r H r H Y.A.!.E.!.!.T.!.b._ 7 7 7 $ . . $ 7 7 $ $ . . $ 7 7 7 q $ . + + 7 K 7 K H 7 7 H H H I 7 U U [ 7 + $ . . . . . . . . . . . . . O . . + . + + $                                                                                                                                                                                                                                                                                                                                                                                                                                   b.$ $ . + . + . . + + . . + . . . . . . . + 7 . , _ r U , H K H c 7 $ H H 7 c q + . . + 7 7 7 $ + . + $ r r $ . . . + r $ $ ] ^.Z.C.Z.Y.Z.Z.Z.I $ r r ^.] $ $ . q b.V.7 . 7 7 + o # $ # # + . # + q $ 7 7 r 0 . . ] _ H $ . $ H _ 7 - x.x.x.x.x.] [ _ _ _ _ ^.                                      ",
"                                      ^.[ _ _ _ [ ] [ ] ] x.+ 7 ] U . . + r _ c.+ . q + + . . $ + + + . . . . O $ @ $ % . . V.v.r 7 . $ ] Z.H H r H Y.A.!.!.Y.T.^.ZXV._ 7 r H $ . . $ q $ + + . $ 7 7 q 7 $ . + + + 7 K 7 I I 7 7 U r H H 7 I H [ 7 $ 7 . . . . . . . . . . . . . . . . . . + + $                                                                                                                                                                                                                                                                                                                                                                                                                                   b.$ $ . + . . . . . . . . . . . . . . . . + , + q _ c H r 7 K H c r $ K U 7 H q . + + . $ q 7 7 7 $ . + $ 7 7 + . . + I $ $ x.CXY.U.Y.Y.v.Y.U._ $ H H CXx.$ + . r v.C.7 . % . . . . . . . . . . + $ $ $ @ $ 8 . . +._ U 7 . $ H _ 7 8 v.b.x.] ] [ _ _ _ _ _ ^.                                      ",
"                                      ^.[ _ _ _ I [ [ x.x.x.. 7 x.U + . + r [ x.. + , . . $ . . . . O O O X X O $ $ $ $ $ . x.m.H $ . 7 x.!.I U f H U.C.T.!.Y.T.!.^.V._ 8 r r + . . $ 7 + . O $ , 7 r q $ . + $ + + 7 K r ! ! q H H H [ [ r [ +.Z.H $ 7 . . . . . . . . . . . . . . . + . + $ + + !.                                                                                                                                                                                                                                                                                                                                                                                                                                v.$ O O + . + + + + + . . . . . . . . . . + , . 7 G.` ] H H [ K c c $ I I 7 H 7 + $ $ . + 7 7 q 7 $ + . + $ 0 + . . + H $ $ [ FXY.T.T.R.U.U.T._ + H U VXx.7 . # H x.c.2 . + $ @ @ + . . . o $ $ $ $ 7 7 % $ $ O . [ x.K q . $ H ] r 7 v.b.x.[ ] [ _ _ _ _ _ ^.                                      ",
"                                      ^.[ _ _ [ _ x.] ] ] x.. 9 x.U + . + H [ ] . . 7 . . . . + . . . . . . . + O . + $ + . [ b.H $ + 7 x.!.H H H H Y.U.Y.E.T.T.!.T.C._ 7 r r $ + . $ $ . . $ 7 7 7 q 7 . + , $ + $ 7 U K _ ! c c I _ [ [ 7 ] _ C.r $ 7 + . . . . . . . . . . + O + + O . + $ + . Y.                                                                                                                                                                                                                                                                                                                                                                                                                                v.$ $ $ + . $ O O $ + . . . . . . . . . + + 7 $ 7 -.I _ r H ] c q r , ! _ c K 7 7 $ , 7 . . 7 7 7 7 $ + + $ 7 + . . + r $ $ x.^.T.Z.U.T.C.Y.Y.U $ H U U.[ 7 o . r ] x.2 $ 2 + . . + . . . . . + + + @ @ . . $ . . x.[ ! 7 . $ U x.r 7 b.x.o.o.x.] _ _ _ _ W ^.                                      ",
"                                      !._ [ ] [ _ ] +.[ ] x.+ 7 [ _ . . + r [ x.. . $ . . . . . . . . O O . . . . + . $ # . V.v.r $ . $ v.T.H U H r A.Z.!.T.T.T.U.T.U._ r 7 7 $ + . $ $ . $ 7 7 7 7 $ + + q q $ $ + r ` [ ] [ c H _ x.] [ r [ [ V.8 O r + . . . . . . + + + + + $ $ $ $ . $ $ + . A.                                                                                                                                                                                                                                                                                                                                                                                                                                V.$ $ 7 + + $ 7 $ $ $ + + . . . . . . . . $ q + 7 c.U I c c _ _ _ H r _ _ [ _ q + $ 7 c $ + + + 7 7 $ 7 $ $ 7 + + . + H $ $ x.CXT.U.T.T.A.T.Y.H $ r I V.o.7 . O r _ c.$ . 7 . . . @ . . . . . + @ . . @ . . 7 . . v._ _ 7 . 7 I _ r 7 [ ] ] x.x.x.] ] _ _ I ^.                                      ",
"                                      !._ [ ] ] ] x.] ] x.x.+ 7 _ _ . . + H [ _ . . 7 . . $ H _ ] _ _ _ ` [ -.x.[ $ + o * . x.S.r $ . $ b.E.H H 7 r V.A.T.!.!.!.T.^.!._ 7 r r + + . $ $ . @ $ 7 7 + . , $ $ + $ $ $ H [ _ _ [ ` r H r 7 r _ x.[ U.H $ 7 . . . . . . . . . . + $ $ . $ 7 . $ 7 + . A.                                                                                                                                                                                                                                                                                                                                                                                                                                V.$ $ 7 $ $ 7 $ $ $ 7 . + . . . . . . . . $ q . r A.` ] _ 7 r r r 7 _ c.[ [ ` r $ $ , $ $ $ + . $ 7 $ 7 + $ 7 . . . + U 7 7 x.CX!.T.Y.U.T.C.A.U $ H H GXV.8 . o r [ c., + 2 . + H ] ] ] _ ] v.] [ [ [ H @ . - O . V.m.] $ + $ I ] r 7 x.x.+.x.x.x.] [ _ _ _ ^.                                      ",
"                                      !._ ] ] ] ] ] ] ] +.] . 7 x._ . . $ r [ x.+ + 7 . . $ f H I K I / _ ! I K r . . 7 . . [ o.0 $ . 7 v.!.H H H r v.A.!.!.^.^.!.CX1X[ 7 r r + $ . 7 7 + $ $ 7 7 . + r r , + 7 , $ r ] _ _ ` x._ U U I _ b.x.[ v.r $ 7 + . . . . . . + + + $ - 7 $ 7 0 . $ 7 + . A.                                                                                                                                                                                                                                                                                                                                                                                                                                C.$ $ 7 $ $ r $ $ $ r + $ + + . . . . . . $ q + r v.I [ c.m.I H _ ` -.` _ [ ` r $ , q . 7 c 7 . $ 7 7 - . $ 7 . . . + U 7 7 b.SXT.^.T.T.A.Y.V.H $ U _ ^.x.8 . . r ] x.$ + 7 . . H U I ! L [ [ _ W I H - . . 7 $ . H v.` 7 . $ I x.7 $ x.x.] x.b.x.x.] [ I ] VX                                      ",
"                                      ^._ [ ] [ x.x.x.x.x.] . 7 c._ . . $ r ] V.. . - . . . + . + . . + + . . . . . . $ O . A.v.7 + . 7 v.!.H H H 7 v.C.^.Y.^.^.!.VX^.] r r r + $ + 7 7 + $ $ 7 7 + + q q 7 + q 7 , r ] ` ` ! ] x.x.x.v.x.x._ ] Y.H $ 7 + . . + . . + + + . + $ + . $ $ . 7 7 @ . C.                                                                                                                                                                                                                                                                                                                                                                                                                                C.$ $ r $ $ 7 $ + $ $ O + + + . . . . . . $ $ + 7 C.] -._ x.Z.] x.x.] ` ] x.] r $ , r . 7 q 7 $ $ r 7 $ . $ 7 . + + + I $ $ +.AXT.U.Y.T.T.U.C.H O H H ^.] r . . r x.x.7 $ 7 . . $ . . @ @ $ $ + . . . . . . $ + . v.[ ! $ + $ H ] 7 $ x.] ] x.b.] ] [ _ I [ VX                                      ",
"                                      ^._ _ ] ] +.x.b.x.] x.. 7 ] ` + . + U x.x.. . 0 . . . o O $ $ + + + + @ $ + . $ $ 7 . ).V.7 + . 7 x.T.H H r r C.V.!.T.^.^.!.^.!.] 7 7 r + $ . - 7 + $ 7 7 7 + $ 7 q 7 + q $ , c ] _ ` ! ] x.x.b.x.[ _ ] ] !.U $ 7 + . . . . . . + + . + $ + . $ 7 . 7 r + . C.                                                                                                                                                                                                                                                                                                                                                                                                                                C.$ $ r $ + + $ + + . . . . + . . . . . . $ r + r C.[ ] _ _ ` x.] [ x.c.! K [ r $ $ c . 7 7 $ + + r $ - + $ 7 . + + $ _ 7 7 x.GXU.Y.R.T.R.Y.Z.[ $ _ U ^.] - . . H C.S.7 $ $ + . . + + , , @ $ + . . . $ + $ 7 + $ U.[ _ , . $ I _ r + v.x.x.b.b.x.[ x.[ _ [ ^.                                      ",
"                                      ^._ ] x.[ x.x.x.] x.b.. 7 v.] + . + U x.x.. . 7 . . $ $ 8 * * - 7 7 7 7 7 $ + 7 7 2 + x.x.r + . - ] Y.H H r r A.U.!.!.!.VX^.ZX^.] 7 7 r + $ . - 7 + $ 7 r q + $ r c q . r , $ r ` [ b.x.v.b.b.b.x.x.] b.] A.r + 7 + + . . . . + $ $ $ 7 r r $ H I . 7 H . + A.                                                                                                                                                                                                                                                                                                                                                                                                                                C.$ $ r $ . H H r 7 H 7 r $ + . . . . . . + 7 $ H V.] -.-.] [ c.c.x.] c.x.x.[ H $ , c . r c $ $ + r $ 7 + $ - . + $ $ _ 7 7 x.CXT.U.Y.E.!.T.V.[ $ H H CXx.7 + . H C.S.8 o - $ . . 7 7 7 r q , $ $ $ $ . . $ r $ . ] x.[ q . $ ] [ r + A.x.x.x.b.x.[ x.] _ _ ^.                                      ",
"                                      !.U [ x.[ b.x.x.x.x.v.. 0 C.] + . + r [ b.. . - . $ _ W W W I U H U _ _ [ I H J . 7 . v.v.r + . $ [ U.r H r r Z.T.!.!.T.^.^.CXZXx.7 7 r + $ + - 7 + $ 7 r q + $ r c q . q 7 + H -.v.Z.A.A.U.v.V.b.V.v.C.C.VXH $ r . . . . . . + $ $ $ 7 r 7 $ r H . 8 H + $ A.                                                                                                                                                                                                                                                                                                                                                                                                                                A.$ 7 H 7 + U r 7 7 H 7 7 . + . . . . . . + H $ H Y.c.m.x.x.x.` -.m.v.v.m.x.x.J , , r . 7 r 7 $ + r - 7 + $ 7 . + $ $ [ - 7 v.GXU.T.T.Y.!.Z.v._ 4 H H x.[ 7 + + c C.v.7 . 8 O 0 _ +.x.+.] _ U H c H _ _ r 7 7 + . V.x._ + $ $ x.] r $ V.x.x.[ o.] [ [ _ H r ^.                                      ",
"                                      T.7 H [ ] x.[ x.x.x.x.. 0 -.` @ . . r [ b.. + $ . $ 8.9.9.) ) D D *.7.q.q.9.' , @ % X v.x.r + . $ [ U.H H r r T.Y.!./.T.^.!.VXZXb.r 7 r $ - + - 7 + $ 7 r q $ , q c r . q 7 $ _ V.A.G.Z.U.C.b.Z.Z.Y.T.U.T.GX[ O H $ . . . . . . + + . . $ + + + + + 0 7 $ $ A.                                                                                                                                                                                                                                                                                                                                                                                                                                A.O 7 H 7 + $ O . + + . + + + . . . . . . + H $ ] HXA.U.Z.Z.m.m.v.b.C.m.m.v.b.H $ 7 c + 7 r 7 $ . H 7 7 + % 8 . + $ + [ 7 r A.FXY.Y.^.Y.Y.T.A.[ $ H r AX] 7 . . H Z.C.r . - . H A.M.q.q.7.F A D F *.9.9.C + # . $ v.] I % . $ x.[ r 7 b.] x._ x.] ] _ _ r $ ^.                                      ",
"                                        r 7 H [ _ _ x.x.v.x.. r c.c.. . + r _ x.. . , . . D @.b b S S S @.$.%.%.@.D + X & . +.o.s $ . + H A.r f H r V.^.!.!.Y.v.T.!.VXv.7 r r . 7 + 7 7 + $ 7 r r + , H H r . r r + q _ C.G.Z.G.Z.G.^.Z.Y.T.x.!.KXb.7 I # . + . . . . $ O $ 7 U 7 r H I + 7 I . + C.                                                                                                                                                                                                                                                                                                                                                                                                                                Z.+ $ I 7 $ _ H $ H H 8 $ $ $ . . . . . . $ r 7 x.KXT.T.T.T.x.Z.b.v.Z.C.x.v.[ r + 7 r + r H 7 , + H r 7 + 7 7 . + + + _ q c C.SXY.Y.b.V.Y.T.T.] 7 H r ^.] 2 . @ H A.A.q $ 7 o A q.&.&.@.S b b n b @.S D v + $ + o ] W I 8 . 7 U A.r 7 Z.x.x.x.x.] [ _ H . _                                         ",
"                                        7 . $ I x.[ x.x.x.V.. H x.x.$ + + c x.V.. . , . + D %.oX8X9X8X8X6X6X6X8Xk.@.e @ % O S.x.9 + . $ H Z.f r H 7 G.Y.!.!.T.Y.Y.U.Y.v.7 H 7 O 7 + 7 $ . $ 7 r r + $ r H r . H H $ r r C.C.G.A.G.A.] C.Z.!.^.!.GXv.7 [ $ + . . . . + 7 $ $ $ 7 7 7 $ 7 $ 0 H $ + C.                                                                                                                                                                                                                                                                                                                                                                                                                                A.$ 7 _ 8 + 7 7 $ 7 7 7 $ + $ . . . . . . $ H 7 [ KXT.T.Y.U.U.A.x.v.V.v.b.x.r 7 $ H H + 7 r 7 $ + H r 7 + , 7 . $ , . _ 7 c Z.AXT.T.U.!.Y.R.^.[ + H H !.[ $ . + q A.V.r + r 4 A &.*X8X8X9X9X2X6X8X-X*XS z + . . . ] _ I % . % I v.r 7 Z.v.x.x.[ ] _ H $ $ _                                         ",
"                                        [ . . $ Z._ b.S.x.A.$ r V.x.+ . # P x.x.. . 7 . . V r.lXnXnXnXnXbXnXnXlXeXS > 4 r + -.^ 7 + . o U U.H r H 7 x.b.!.T.T.T.Y.!.CXv.r r r 7 7 + - $ + $ 7 r r + $ r H r . K H 7 7 c c V.G.Z.C.C.V.v.G.U.E.E.GXC.7 [ $ + . . . . + 7 O + . . . . . + $ H U $ + C.                                                                                                                                                                                                                                                                                                                                                                                                                                Z.$ 7 I 7 + . + . . . . 7 $ $ . . . . . . $ H 7 [ KXT.Y.U.A.C.Z.b.A.A.v.x.r 7 7 $ H H + r H 7 $ + K q 7 + , q . . q $ _ 7 H V.GX^.T.T.Y.U.T.U._ 7 _ r T._ r . # U v.!.H % H 4 A 4.lXBXnXnXnXbXbXnXnXlX@.b . $ + . [ I I 4 o 7 _ b.H r C.V.b.x.r ] ] . . . v.                                        ",
"                                        A.$ . . $ I U _ [ r $ H v.] . . + Q +.b.. . , . . 6 S $XyXaXjXsXsXtX7X8Xk.S 6 = 4 # 3.` 7 $ . + I Y.U r H 7 r I C.C.A.V.C.S.b.W 7 r r 7 7 $ 7 7 + $ 7 r r $ $ r U r . I K + H , q K C.U.U.U.V.V.C.A.!.!.KXA.7 U $ . . . . . + 7 $ 7 7 7 7 7 r r $ r I + $ C.                                                                                                                                                                                                                                                                                                                                                                                                                                C.$ 7 I 7 + r 7 7 7 r 7 7 + $ . . . . . . $ H 7 ] KX!.T.T.V.V.V.A.C.A.v.f 7 7 7 + r H $ H H q , + I q 7 + 7 r . . 7 7 _ 7 r _ V.V.Z.A.v.x.b._ I $ U H AXb.$ . . r A.v.H % 8 7 A &.3X7X0XsXsXsXsXsXiX8X@.b . + . . +.[ E 4 . $ _ x.H r _ [ _ _ I x.. . . 7 !.                                        ",
"                                        A.. . . $ 7 $ $ 7 r + r v.| $ . # ! +.b.. . # . . q < S r.p.p.r.4.%.@.@.D A = = 7 O | ] 7 $ . + _ Y.I r 8 $ + 7 _ I I I _ _ H r $ $ 7 8 7 $ 7 7 + $ 7 r r $ , c I H + I H $ $ r r q H U.Z.U.U.m.!.G.T.T.GXV.7 I $ . . . . . . $ + $ $ 7 7 + 7 7 . $ r $ $ A.                                                                                                                                                                                                                                                                                                                                                                                                                                Z.$ $ 7 + . $ $ $ 7 7 . + . $ . . . . . . $ H 7 [ GX!.T.Z._ A.C.v.Z.C.U 7 7 7 $ . H U + r H q , + I 7 7 + 7 q + $ 7 , H 7 $ _ _ x.x.[ H r H 7 7 7 I H VXb.r . = U b.b.x @ y & 7 D S %.4.4.r.i.i.a.r.@.z 4 . . . . +.[ E > + 7 ] b.H 7 7 r r 7 7 $ + . . r                                           ",
"                                        V.. + $ H C.[ x.b.x.+ y N.b.$ . # ! b.n.. + , . . r v #.1.t.5.&.&.@.&.#.*.) o o * $ +.S.0 $ . $ [ Y.I r 7 . H U A.Y.T.!.T.!.V.r . + 7 7 r $ 7 7 + $ $ r c $ , c U c $ _ U + , q r r q ` G.C.V.Z.x.Z.T.T.FXb.7 ] $ . . . . . . + . . + 7 7 7 $ + + + $ + 7 Z.                                                                                                                                                                                                                                                                                                                                                                                                                                Y.7 7 $ + $ . 7 - $ $ . $ $ + . . . . . + $ H 7 _ FXU.Y.Z.x.V.C.A.Z.] 7 r 7 $ $ . H U . r H r , $ _ 7 7 + 7 r . $ r 7 $ . $ I ZXZX^.^.A.V.V.r . . H I !.x.f . O f v.m.c + $ X 7 =.V &.&.G 6.r.r.t.t.#.*.r . O o o n.W I 6 + # _ x.H r I x.b.x.v.C.$ 7 + H                                           ",
"                                        b.$ $ $ b.b.] +.] U.+ r o.x.O . + P v.V.. . $ . . A S 4.a.a.r.%.%.%.,.r.&.G > o @ . ` [ H $ . 7 x.U.U r 7 . _ _ Y.!.!.!.T.AXCXV.7 $ . 7 r $ 7 7 O $ 7 r H $ , H K r + I I + r q $ r r 7 ] U.C.T.T.Y.ZXT.FXx.7 x.$ . . . . . . $ 8 r r _ 7 H H 7 H _ I r $ A.                                                                                                                                                                                                                                                                                                                                                                                                                                C.$ _ I H r r H 7 r U H 7 . + . . . . . + 7 r $ ] SXZ.Z.Y.T.V.v.Y._ 7 r 7 r 7 7 + H H . H U r 7 $ ` 7 7 + 7 r . + H 7 $ + c T.HXFXCX!.U.C.V.W r $ r H CXC.r . $ I x.T.q . . . # V G @.%.%.i.i.XXXXa.%.b 6 o o . $ Z.] W , . 7 [ ] r 7 x.b.V.x.] Y.I $ $ 7                                           ",
"                                        x.$ $ $ x.x.] x.] V.. 7 c.v.. . # E x.x.. . % . . D 4.8XdXiX8X6X6X6X6X8XqX&.# + @ . ` ' _ 8 . 7 x.U.U r 7 $ [ x.T.!.^.T.!.ZXCXH r r r 7 r $ 7 7 O $ 7 r H + 7 H K r . H K $ r r $ q 7 r 7 c.U.G.G.Y.T.T.GXx.7 _ $ . + . . + . + 7 7 7 U 7 $ r 7 r U I 7 $ C.                                                                                                                                                                                                                                                                                                                                                                                                                                A.$ _ H r H 7 r $ 7 r 7 $ $ + . . . . . + $ H 7 x.AXA.b.b.A.b.A.] r r 7 7 $ 7 r $ H H + H H r 7 , ] q 7 + , q $ + r , c H ! ] HXT.T.Z.).T.V.x.U + U H AXv.c + 2 J Y.m.7 . o . > S qX8XiXiXdXdXdXdXiXeX@.D . O . $ A._ I , . $ _ _ 7 7 V.x.] x.x.A.8 - + r                                           ",
"                                        x.- $ $ x.v.] ] x.x.$ 4 c.` + . . / B.c.. o - . # &.|.BXnXnXnXjXhXhXjXdXeX&.# . % . 3.3.I 7 . 7 x.Z.H r r r v.V.T.!.T.T.T.!.CXI r 7 r r 7 $ 7 7 $ $ 7 H H $ $ , 7 7 . q 7 + r K $ $ 7 7 7 ] v.Y.T.T.T.T.FXx.7 H $ + . O $ $ . $ $ $ f r r r r r U H _ r $ v.                                                                                                                                                                                                                                                                                                                                                                                                                                C.$ [ U H H r r 7 7 r r 7 O + . $ $ + . + $ H 8 [ AXV.C.A.A.v.] I r 7 7 $ O r r . 7 7 . r 7 $ q $ ] 7 7 + , r + + r c ] 7 r ] CXv.A.U.U.T.U.V._ $ U H ^.x.c @ , ^ U.V.q . $ . z %.lXnXnXnXnXBXBXBXBXlX%.#.+ X & + G.;.K @ . $ _ _ 7 7 x.] x.x.] Z.H $ $ r                                           ",
"                                        x.$ $ $ _ v.Z.b.x.b.. r 3.Q . . + P c.c.# . $ . , #.$.@X#X#X@X@X@X=X=X2Xh.G # . @ + v.C.r 7 . 7 x.T.I H 7 H C.T.T.V.I [ Z.!.AX[ r 7 r 7 7 $ 7 8 $ $ 7 H H $ I K H H I I I H q H . $ 7 7 7 $ m.T.Y.T.!.T.GXx.7 H 7 . . + @ + . O $ $ $ O $ $ $ $ H U _ r $ V.                                                                                                                                                                                                                                                                                                                                                                                                                                Z.$ _ I I r 7 7 $ $ $ $ $ + + . + + . . + 7 H $ W SXV.Y.Y.Z.Y.] r 7 r 7 . . r 7 H U H U H U K c + _ 7 7 @ $ q + + q 7 _ 7 c x.AXb.V.U x.T.Z.T._ $ H _ T.b.7 . , T V.c.4 . $ $ 6 @.i.=X=X5X5X4X4X=X@X%X%.F @ & X , m.;.M 3 . $ _ [ 7 7 b.[ U Y.v.A.H $ $ r                                           ",
"                                        x.% $ $ _ x.U H ] V.+ $ 3.^ . . + C | b.+ . q $ % ~ n 2.b b b b b b b b A 9 o . o . -.v.M $ . 7 x.!.U H r H Y.U.!.U r 7 T.ZXHXS.H 7 r + 7 $ $ 8 + $ 7 H K + r r K H ! I r r 7 K + . $ $ 7 r v.T.U.T.Y.U.GXb.$ U $ . . . + @ . . . + . . . . . + 7 _ [ r $ V.                                                                                                                                                                                                                                                                                                                                                                                                                                U.$ I U I - . . . . . . + . . . . . . + . $ I $ I SXU.U.Z.Z.T.x.8 r 7 + . + H 7 7 r r U r r r 7 + ` 7 7 $ 2 7 + + 7 $ _ 7 c v.HXx._ . $ C.T.!.] 7 U U ^.x.7 . 7 I x.B.e . 7 X $ x b b @.S @.S S b b b D K @ $ @ + v.I J $ . $ _ ] 7 7 V.+.H _ ] C.U 7 r H                                           ",
"                                        x.- $ O _ V.x.x.x.v.$ r x.] + . . H +.n.+ . x + . T ;.;.*.*.( ( ' =.9.9._ f O o = . ] v.! $ . $ x.T.H H r H Y.Z.T._ AXH U.VXFXV.H 8 r + $ + $ 7 . $ 7 H K + + , $ 7 , , 7 + r I 7 . $ $ H c v.T.T.E.x.T.AX] r -.$ . . + . . . . . + . + . + . + $ U _ r $ C.                                                                                                                                                                                                                                                                                                                                                                                                                                U.$ I H H + . . + + . . + . . . . . . . . $ H 7 _ CXT.C.V.Z.Y.V.r r $ . . $ H H + r $ $ $ $ $ . $ x.r 7 $ 7 q + + 7 7 ` q r C.HXA._ Z.r Z.Z.^.] $ _ I SXx.7 . $ U c.8.5 . $ X ; ] 8.;.q.;.8.9.) ) 9.( -.K @ + + # v.T I $ . $ I ] r 7 v.v.[ x.v.V.r . 7 r                                           ",
"                                        x.7 $ + _ x.b.b.x.V.. $ x.[ @ . # C +.S.X . v + . U E P F #.F F D D D Z ! w X X % . ] b./ $ . + x.T.H U r r Y.Z.U.[ A.7 C.!.AXv.r 8 r $ $ + $ 7 . $ - H _ + + H H v.x.r _ + r U $ . $ , H U V.T.Y.Y.T.A.GXx.7 U + . + . + + + $ $ $ + 7 7 7 7 7 $ U _ r $ Z.                                                                                                                                                                                                                                                                                                                                                                                                                                Y.7 [ H H + 7 7 7 $ $ + $ $ . . O + . . . 7 r 7 ] CXZ.V.C.Y.T.C.r r $ + $ $ H 7 + H _ ] H H q . + ] r 7 + 7 r + + 7 7 [ q 7 V.FXb.I [ $ C.T.!.[ $ _ _ ^.] $ . o E E./ e # $ . O ] K ~ *.*.F D A A ~ ~ ^ c : > 5 . U.T +.o # $ H ] r 7 v.b.x.b.b.x.H $ r 7                                           ",
"                                        x.7 $ + I _ [ x.[ x.. 7 S.] . . # C x.).. . q + . s 6 S %.,.r.r.r.r.%.@.S 1 @ X @ X 8.c.H $ . $ ] !.U H r $ U.Z.!.A.x.V.Z.^.DXb.H 7 r + 7 + $ 7 . $ 7 H H + $ r q U K q _ + H _ + + . , _ r V.!.Y.Y.Y.Z.FX] 7 ] $ . + 7 r $ + $ r 7 7 r H H r 7 $ _ ] r $ U.                                                                                                                                                                                                                                                                                                                                                                                                                                T.7 b.I U + H H H H U 7 r r $ . $ - + . . $ r $ ] FX).C.C.R.T.v.7 r 7 . $ r H 7 8 r H H 7 r r + + _ r 7 + 7 r + + 7 $ _ 7 7 x.HXA.C._ _ C.T.!._ 7 I U !.] $ . o K Z.c.q . O . o Z #.&.4.r.t.u.%.%.@.#.D v : : . . V.[ U o . $ H ] r 7 C.S.x.v.V.x.r $ 7 7                                           ",
"                                        x.7 $ . H _ U [ x.x.. $ V.] . . + Z c.Z.# . , . . b $.-X6XuXuXuXuXuXuX=XoXb x @ $ O v.Z.H 7 . 7 x.!.H H r 7 C.A.T.T.AXVXZ.^.ZX[ r r H $ 7 + $ $ + $ 7 H K , . , r r 7 c c , I _ 7 $ + 7 I _ m.E.Y.Y.Y.C.FXx.$ ] $ + . 7 r + . 7 r + r U H U U 7 $ _ x.r $ T.                                                                                                                                                                                                                                                                                                                                                                                                                                (.7 S._ _ + H H U U _ 7 $ r 7 . $ 7 $ . . + U $ _ HXY.Z.C.R.U.x.r r 7 . $ H U H $ $ r 7 7 7 $ + $ _ 7 7 + 7 r . + q $ I 7 , b.FXY.U.VX1XT.C.!.I $ U _ AXV.7 . $ J b.U.M @ 2 + h @.-X6XuXtXtXuXuXuX=X%X$.l . @ O . Z.[ _ % . $ U x.r 7 A.v.x.[ V.b.r $ f r                                           ",
"                                        x.7 o . H I I I x.v.. q c.] o . # P x.c.+ . $ . + n $.iXjXhXnXnXnXfXfXiX8XS 6 @ % . x.m.H $ + 7 b.T.H r 0 $ A.V.!.!.T.!.Y.VXVX_ 8 r r + 7 + 7 $ + $ 7 r H 7 $ 7 $ 7 7 q c q H r 7 + $ 7 [ H C.Y.E.U.Y.G.AX_ 7 _ $ . . $ $ . $ H I $ I x.[ x.x.H 7 x.V.H 7 T.                                                                                                                                                                                                                                                                                                                                                                                                                                !.r V.x.] + V.b.x.x.b.r r _ U + . $ . . + + H 7 U ZXZ.Y.Y.T.Z.] r r r + $ H $ r 7 7 7 $ 7 $ $ $ 7 I 7 7 + 7 r . + r 7 _ 7 $ [ SXU.Z.Z.T.Z.U.E._ + _ _ !.b.7 . O J N.v.w @ @ + l @.$XyXhXnXhXnXhXfXjXiX$.l . X X . C.] ! 2 . $ U x.r $ v.x.x._ x.[ 7 7 H f                                           ",
"                                        x.O O + r H _ U [ x.. r x.8.# . + K c.-.+ . 7 . + D n ,XkXjXjXjXjXiXiXiX,XS 5 X ; . ' 9.H $ . 7 v.VXr e 7 $ A.v.~.(.~.~.T.ZXCXU 7 7 H + , $ $ , $ $ 7 H H 7 H _ ] -.v.c.m.Z.V.U.7 $ $ q _ H V.Y.U.Y.v.A.GX_ $ v.$ . . + + . $ [ ] 7 x.b.T x.A.x.c Z.E.I $ Z.                                                                                                                                                                                                                                                                                                                                                                                                                                U.7 !.U.A.7 ^.V.x.] A.[ H b.] $ . . + . + O r $ _ GXZ.U.C.V.A.x.c H c . , r -.x.` ] [ ` -.` _ H H _ 7 $ $ , H + + r $ _ 7 $ I CXT.Z.^.T.T.A.Z.I $ I I !.x.$ . $ L v.v.7 . $ + z @.oX6XiXjXjXjXjXjXiX-X@.b . X X . m.' / % . 2 I ] H $ x.] x._ x.H 7 7 H H                                           ",
"                                        x.$ O + r H _ H [ ] . 7 v.x.+ . + L x.x.@ . 7 . + v h @.,.a.a.a.a.,.<.,.%.b v X & X ] ' P 7 . 7 V.ZXH r 7 4 A.C.(.~.~.~.~.CX^.H H 7 r + 7 $ $ $ $ $ 7 H r H 7 q 7 r r r c r x.` $ $ , H ] r v.T.Y.!.Y.C.SX[ 0 ] $ + . . O . $ Z.Z.7 Z.Y.V.G.VXv.H ^.ZX_ $ Z.                                                                                                                                                                                                                                                                                                                                                                                                                                Z.H VX^.^.q SX^.!.Y.~.b.I (.A.. + $ . . + - r r I ZXZ.Z.V.U.C.x.c H c + , 7 I H H ! c c , q r $ 7 _ 7 7 + 7 c . $ q $ I 7 $ H AXY.T.^.^.T.Z.T.H $ H _ T.x.9 . o ^ K.m.q . O + 5 #.@.%.,.<.<.a.a.a.,.%.l < . X X . v.' ( 7 X $ I x.H $ [ [ ] _ x.U r $ r r                                           ",
"                                        x.$ $ + H I _ I ] ] + 7 S.x.. . + K ] x.O . * . . D F #.#.5.6.&.#.#.0.0.:.D c O & . =.8.H $ . $ b.:XC r r r U.U.T.~.!.T.'.CXT.H H 7 r $ 7 $ $ , $ $ 7 c H 7 q [ -.b.v.x.r b.H ] r $ . H _ r v.E.Z.U.Y.A.AXx.r _ $ $ . + . . 7 FXAX- 1XHXKXKXKXA.x.FXSX! , C.                                                                                                                                                                                                                                                                                                                                                                                                                                Z.7 wXFXHXr HXGXHXGXHXV.] FXFX$ . + . . + $ r r ] FXY.U.v.Z.Z.x.H H H $ $ 7 K K x.K _ -.` ] _ r 2 ] q 7 . 7 r . $ 7 $ I q 7 ] FXY.Z.!.!.!.T.T.H $ H I HXx.O . o I K.x.7 . $ O r 9.*.#.0.:.:.:.:.0.0.#.*.v @ X X . M.=./ = . $ I V.H 7 _ ] x._ ] U 7 $ r r                                           ",
"                                        x.$ $ + H _ _ _ x.x.. 7 S.x.. . + K _ v.. . - . . Q *.*.Q Q ) D P ' ;.=.M./ 4 $ 7 . ] c.s $ + + -.!.r H c C (.T.!.!.!.U.!.VXZXb.r 7 r + 7 + , 7 + $ 7 c I $ H -.[ x.x.x.^., K _ r + $ H _ r b.Y.Y.T.Y.Y.HXx.7 _ 7 $ + 7 U . 7 KXHX7 VXGX| GXPXY.x.HXSX/ $ Z.                                                                                                                                                                                                                                                                                                                                                                                                                                C.q DXHXHXr KXPXZ.^.PXY.b.LXGX$ + 7 $ + O $ I r x.GXZ.U.C.Z.T.c.c H c + @ 7 I K q VXc.-.-.` ] H $ ` 7 , + q r . $ , $ _ r r x.SX!.U.T.T.T.!.CX[ + H _ ^.x.O . o U V.;., + - X 0 3.' ' =.! ^ _ Q ~ ~ ~ Q q . X @ + c.=./ # . + H b.r $ ] +.x._ ] U 8 $ r r                                           ",
"                                        b.$ $ $ _ x.[ x.x.v.+ 8 v.+.. . . H _ v.. . * . . Q Z ~ ( Q D =.Z / ` ] ] _ q $ 2 . +.v.r + + . ` E.r H C H !.E.!.!.(.U.^.CXFXV.7 r 7 . , + 7 q $ $ 7 c r 7 r _ [ b.x.x.c.r K [ $ + $ r [ r C.Z.Y.Y.Y.T.GXx.7 [ - . O 7 9 . r GXFXr U.^.3.FXKXV.x.FXAXP , C.                                                                                                                                                                                                                                                                                                                                                                                                                                S.7 VXSXFX, FXGXZ.!.GXc.3.KXSX7 + 7 7 . O $ I r [ AXZ.U.V.Z.T.x.r H H . . 7 I K c x.] x.[ -._ r $ _ 7 , + 7 c + $ $ $ _ 7 7 x.SX!.!.U.T.Z.VXFX[ $ r _ A.] - . o K v.x.q o * X i x.^ ' Q ( / P Q C K ~ ! y X X @ + m.;.( , . + H x.r 7 v.x.x.] x.[ r + 7 r                                           ",
"                                        b.$ $ $ _ x._ ] ] b.. - b.[ . . + P ] V.. . O . . Q C ( ;.*.D d.#.D 8.] o._ q + $ X +.S.r . . . ` ~.r H H I !.!.(.~.R.U.^.DXSX8.7 H 7 . , . 7 r $ $ 7 H H 7 H _ x._ x.] Z.7 r _ 7 + . c ` H v.~.-.Y.C.T.GX] e ] $ . + $ 7 + r ZXT.7 (.SXSXGXHXm.I :XCX_ q _                                                                                                                                                                                                                                                                                                                                                                                                                               :XK I ZX~.ZX7 FXFXFXFXSXb.y !.!.7 . $ $ . + $ H r _ SXU.Y.x.Z.Y.] r H H + . 7 ` H r b.-.b.` v.! r $ ` r , + $ c + + $ + [ 7 7 Z.CXU.A.Z.T.Y.ZXAX[ 7 U _ AX[ $ . $ U c.m.e . $ X i [ ! ( 9.*.F F 9.D ( ! ^ 7 . @ $ + G.-.! , . $ H [ r 7 A.x.x.x.b.] r $ 7 r                                           ",
"                                        b.$ $ $ _ ] ] ] x.v.. 7 b.W . . + P 8.V.. . - . . U c Q q.&.t.*X5.5.9.( / r , + 7 @ +.b.f + . + -.VXc H H I !.!.~.~.U.Z.R.:XAXx.r r 7 + 7 . 7 r $ $ r H K $ U ! H c _ x.C.7 ! ` , $ . r ] 7 V.U.U.T.T.T.GXx.r +.+ . . $ * . $ A.x.$ S.E.I V.!.x.c !.VX_ r r _                                                                                                                                                                                                                                                                                                                                                                                                                           ^.] r _ CXT.!.+ T.T.] v.U.J r x.x.$ + $ $ . + 7 H H ] GXA.Y.x.T.Y.] r H H $ . 7 ] I r v.[ [ r [ U r + ] 7 7 + 7 r + + , $ x.7 q Y.CXZ.V.T.Y.!.!.AXx.$ I _ CX] $ . @ I V.v.q . O . q ! ~ #.;Xs.u.6.z.#.F Q ! q . o O . T.] L % . @ H _ 7 $ C.x.] x.x.[ 7 $ r r                                           ",
"                                        b.$ $ $ _ [ x.x.V.V.+ 8 V.W . . # P 8.m.+ . - . . H U Q w.&.*X*Xt.l.q./ E s 7 + $ . | +.0 . . + ] VXr C r H !.T.VX~.U.C.CX^.^.] r r H . 7 . 7 r $ $ r H K 7 r _ c Z.r x.G.q H ] $ + . r _ K m.Y.T.T.Y.!.KXv.7 ] $ + . $ . $ 7 x.[ $ I H 7 r ] I H U.Y.x.I $ U [                                                                                                                                                                                                                                                                                                                                                                                                                       ZX] K r ! ZXU.U., V.I 2 7 _ J % b.b.$ . . . . + $ r H x.HXU.T.v.U.T.x.H H c $ + , U U q v.] r Z.H I c + x.q 7 + 7 7 + + , + -.$ 7 A.AXU.Y.).Z.^.^.AX] 7 I I CX_ $ . + T Y.m.q . O . 2 ! v S l.u.k.u.;Xd.F ( Q 7 . . O . (.| J % . $ H ] r $ A.x.x.x.x.] r $ r r                                           ",
"                                        x.$ $ . I x.x.v.V.C.+ - n.[ . . # P 8.c.. . 2 . . H J I Q F 5.s.t.5.' I f ; o + , . _ +.r $ . + x.Y.H r r C Z.E.ZX^.G.C.Y.CXSXb.r r H + q $ r r $ $ q K U , c _ 7 ] H ] T.r U ] 7 + . c x.c Z.T.T.T.Z.T.KXC.r _ $ . . + $ . $ _ I + I v.v.b.x.H 7 x.T.] H 7 7 H C.                                                                                                                                                                                                                                                                                                                                                                                                                    x.` r , U T.v.b.$ x.] v.b.x.H 7 ^ _ + . $ + . . $ I r x.FXY.U.A.T.T.x.M U H + + , ` H 7 c.] c _ H ! r , ] r 7 . 7 r + $ , $ ` 7 r V.CX^.!.!.!.^.ZXFX] $ U I Y.[ $ . o H V.] q # O . $ I x D #.:.5.0.7.:.~ Q I 4 . . . . ).b.W = . O I A.r O Z.x.x.x.V.x.r $ r r                                           ",
"                                        b.7 7 $ _ x.I v.v.x.+ 7 b.[ . . . P 8.m.. . 2 . . y H U E 7.#.s.t.0.Q f f 0 O . # . ] S.r $ . O ] E.H K c 7 Z.T.VX^.T.R.R.ZXAXx.r 7 r . 7 + 7 7 $ $ 7 H H , r _ U ` K ` Z., c _ , . . r _ H C.!.G.U.V.!.SXx.r _ $ . + + $ + $ U H . r T ^ _ I r 7 ] Z.` r $ 7 r I V.                                                                                                                                                                                                                                                                                                                                                                                                                A.[ r q q I U._ ` $ I _ [ [ T 7 $ H H . . + . . . $ f r [ FXY.U.Z.A.T.x.r K H $ + 7 I H 7 x._ _ ` I I r $ _ 7 7 . 7 c . . $ + ! 7 r v.^.T.VXT.!.VX!.AXI $ U I FX] $ . o P C.3.7 + $ o O H r P *.0.e.0.7.*.P K U 7 . o . . v.x.U = . $ _ b.r 7 C.x._ ] x._ r 7 H r                                           ",
"                                        x.7 7 $ _ x.I b.b.[ . 7 A.| . . + I c.c.. . 2 . . r y P P 0.5.k.f.f.F P f 0 $ . + . ] v.r + . $ -.^.K I c 7 E.T.ZX^.T.Z.Y.^.ZXx.r r H . , . 7 7 + $ 7 H U $ H ! Y.b.v.] C.$ r _ $ . . r _ H ] VX!.!.!.U.FXx.7 _ 7 . . . . . + r r . $ q 7 r r q 7 ] C.] H $ r H H U T.                                                                                                                                                                                                                                                                                                                                                                                                            U._ H C r 7 H Y.I _ . r r y J y $ 2 r 7 . . . . . + 7 H r x.GXC.x.T.T.T.x.r H H $ + $ I c 7 c.] V.m.V.U r $ _ 7 7 + 7 H + + , $ _ 7 H A.GXT.^.CXCXVXVXCX_ $ U _ CX] $ + # I Z.+.8 . O . - T y K *.l.f.f.e.*.~ K J - . + $ . b.] P 4 . $ U x.H 7 b.[ _ x.x._ r 7 H r                                           ",
"                                        x.r 7 $ _ b.x.x.b.b.. 0 Z.x.. . . P 8.x.. . 2 . . r r P D 0.u.*Xk.t.F / U y $ . $ . _ ] 7 . . - v.wXP K c 4 T.G.~.(.Z.Z.(.^.VX] r 7 r . , + 7 7 + $ 7 H I 7 q K ] _ ] -.A.7 H ` , . . r [ r Z.CX!.!.!.T.GXv.7 [ $ . . . . . . 7 r $ $ 0 7 7 r r 7 ] C.x.H 7 r H H I ] !.                                                                                                                                                                                                                                                                                                                                                                                                        !.V.I H C H q H Y.! _ . H 7 7 q M $ r 7 - . + . . . + 8 H r _ HXY.b.Z.U.!.v.H U I , $ 7 ` H 7 b.` -._ ] U r , [ q 7 + $ r + + $ $ _ 7 7 b.FXT.!.^.CXZX^.CXI + U _ CX_ 7 + $ I A.| % . % . - R N ( 7.l.t.u.s.#.*.I T r @ + $ . v.3.! > . $ H V.H 7 V.[ ] x.x.] r 7 H r                                           ",
"                                        x.r $ $ _ V.v.x.x.b.. 7 S.] . . . H -.c.. . 2 . . r s / F &.%.%.%.S G ) P r $ @ 2 . _ x.r + . 7 S.!.I K H 4 Y.U.!.T.S.U.T.^.VX] r 7 r . 7 + q q $ $ 7 H H $ r _ ! ] ] ] C.7 K ` , . . r I q _ T.~.!.~.T.HXv.7 _ $ . . . . . + 7 H 7 8 U J J I H 7 ] C.x.H 7 r r r U I _                                                                                                                                                                                                                                                                                                                                                                                                       ^.A._ H H c K r I T.-.] + [ H M H ^ % H r $ . . . . . + 7 U H b.HXZ.U.T.U.T.x.q r H $ . $ I c 7 V.x.-.] [ U 7 $ [ 7 7 + $ q + . $ $ _ 7 7 x.ZX^.ZX!.!.ZXVX^._ $ U _ AX] 7 @ @ U C.] $ . O X % | T ~ V 4.@.@.%.S F K L 2 . @ @ $ v.V.I 3 . , ! A.H 7 U.x.[ x.x.x.r $ H r                                           ",
"                                        x.r $ $ _ A.x.x.b.[ . 7 v.o.. . . U o.b.. . 2 . . r s / w.d.;XqX*Xe.*.Z P r 2 @ $ . o.A.r $ . $ c.Y.U P r q !.T.(.!.Z.A.U.^.ZXx.r r H . 7 + q q $ $ 7 H _ $ r H _ ] x._ C., H _ , . . c b.7 C.:XU.^.~.Y.GXV.7 [ $ + . . . . . 7 r 7 7 U J J I U 7 ! x.] U 7 r H H U _ U b.                                                                                                                                                                                                                                                                                                                                                                                                    C.x.U H H P K 7 I V.` _ + _ H J J T $ J r $ . . . . . . 7 U r [ SXU.T.Z.U.!.v.c H K $ + 7 U H 7 C.] [ -._ I 7 $ [ 7 7 + , r + . 7 $ I 7 r x.ZX!.!.!.!.!.^.ZX[ 7 U _ CXx.$ + @ I C.] % . O . - | T ` *.l.3XqX;Xd.7.I J 2 X , + + C.V.! 2 . @ ! v.H 7 V.x.] x.x.b.r $ H r                                           ",
"                                        +.H 7 $ [ U.v.b.v.[ + 7 S.x.. . O I ] v.. . 7 . . C C P / Q F F D Z I I H r 4 + @ . +.Z.r $ . $ x.E.K H r , !.Z.Z.T./.K.T.VXCXx.H 7 r . 7 + 7 q $ $ 7 H r + q _ _ x.] -.G.7 c _ 7 + + H I K v.!.!.E.T.T.KXC.7 x.7 + . . . . . $ $ 7 $ r 7 7 7 7 + r c ! K $ H H H U _ H x.                                                                                                                                                                                                                                                                                                                                                                                                    b.] U U r K H r I H 7 r + r 7 7 7 r . 7 2 $ . . . . . . 7 H 7 x.KX).Y.Z.U.E.v.c c H $ . , I H q U.[ -.x.-.I 7 $ -.q 7 $ 7 r . . , + K 7 r x.^.T.T.T.!.!.!.AX_ $ _ I AX[ 7 . $ ! A.] , + > . e | R R _ *.G F F Q U U I 2 + @ : . P.x.W O . O U x.H 7 x.x.x.x.b.b.r $ r r                                           ",
"                                        +.H $ $ [ A.A.b.b.x.. 7 c.x.. . o H [ v.. . 7 . . s s H r I C C r M i u y r $ . $ + +.V.r $ + $ c.ZXU H ! $ ^.!.U.U.^.Z.T.^.CXx.H 7 r . , + 7 q $ $ 7 H K 7 q I -.] [ -.T.q r _ 7 + . r _ r Z.!.!.T.^.Y.FXS.r x.$ + . . . . . + $ 7 + 7 2 7 $ 7 $ , $ ! H 2 I H H _ [ H b.                                                                                                                                                                                                                                                                                                                                                                                                    b.] I H r _ H r _ r 7 , + 7 $ $ $ 2 + $ @ + . . . . . . 7 I r x.GXZ.T.U.A.T.b.r r H $ . , I r r !.-.x.] x.I , $ x.r 7 + , 7 $ + 7 + I q q v.VX!.^.!.Y.Y.!.!._ 7 _ ! U.x.$ . O E V._ # . > + 6 W Y Y J Z A A Z s 0 f H 2 . : + + Z.v.W - . $ U S.r $ U.v.b.b.x.x.7 $ r r                                           ",
"                                        x.r $ $ _ m.b.V.c.x.. q x.] . . + I x.x.+ + 7 . + r $ $ $ * * $ $ + @ % - $ * . $ . v.] r , . $ [ CXI K $ $ H _ C.U.(.!.!.VXCXv.H r H . $ + 7 r $ $ r I I $ q _ _ ] ] ] !.7 r _ $ + . H _ H U.!.T.!.T.T.FXb.r x.7 $ . . + + . . $ + + $ + $ + . + $ - $ H 7 U [ U I [ H x.                                                                                                                                                                                                                                                                                                                                                                                                    b.b._ U I U I 7 U $ , + + $ $ + $ $ + O + . . O . . . . $ I 7 v.KXU.T.U.U.!.v.r H H $ + 7 U H 7 Z.x.] _ ] I 7 $ ] r 7 + 7 r + + $ + ` 7 r C.ZX!.^.^.T.T.ZX^._ 7 U _ KXv.7 . O I A.[ $ + # . ` $ % @ $ $ # $ $ O o . O 7 . @ + . Z.S.U 7 . $ U v.9 7 _ v.b.x.x.] r $ J r                                           ",
"                                        x.r $ $ _ V.v.v.x.x.. 7 [ _ . . . U x.v.+ + 7 . . . + . . + + . + + . . . . + + + . S.Y.r 7 . $ x.Y.I P U o T.A.V.T.^.T.T.^.AXv.I r U . 2 $ 7 r $ $ 7 K _ , q ! ] x.] ` v.$ U [ $ + + H ] H A.!.^.^.!.Y.GXC.r [ 7 $ + . + + . . + . . + + + $ + . + $ $ 7 r W W H _ b.H x.                                                                                                                                                                                                                                                                                                                                                                                                    b.b._ U U ! ` H H $ + + + + + . + . + . . . . $ + . . . % I r x.AXY.Y.E.Y.^.C.H U H O + 7 I r $ T.] x._ x.I 7 $ ] c 7 + 7 r + $ $ $ [ q q Z.ZX!.^.^.T.!.!.^.[ $ I _ HXv.7 . # U A.x.7 + $ . + . . @ $ . . . . . . . + O . . . . U.b.W 7 . * I o.s 7 v.v.b.b.b.x.H $ H r                                           ",
"                                        x.r $ $ _ C.v.b.b.V.+ 7 x._ . . . U x.V.. . r . . . . . . + + . . + . . . . . . $ . V.C.H 2 . $ ] E.H P 7 7 VXZ.v.A.!.Y.!.^.AXv.U r I . , + 7 r $ $ 7 H c + q I _ -.-.-.^.r r I $ $ + r ] H A.^.^.^.!.T.HXv.r I $ $ $ . . + . . . . . . . . . . . . . $ 7 U ] _ I I b.H x.                                                                                                                                                                                                                                                                                                                                                                                                    v.v._ U U ! ] H , $ . + . . . . . . . . . . . + . . + . $ r U ] SXY.Y.v.T.T.v.r U H $ + 7 I 7 r Y.] ] ] ] U 7 $ ] c q $ q r + + $ $ ] r q U.CXT.^.T.Z.!.T.VX[ $ _ I FXb.7 . # H V.x.$ . 7 + . . $ . . . $ $ . . . . . . + $ $ . /.[ x.$ + * I ] H $ A.V.b.b.b.x.H $ r r                                           ",
"                                        x.r $ $ K v.x.x.c.V.. 7 b._ . . + U x.C.$ . 7 r $ $ . $ $ $ $ $ $ $ + O . + $ $ $ . v.x.H , + , -.~.C H r 7 ^.v.Z.^.T.!.!.^.AXb.H r U . $ + 7 r $ $ 7 H I $ q ! ] x.-.] Y.$ H ] 7 . . U ] U Z.^.!.T.!.T.HXV.H ] 7 + + . . . . . . . . . . . . . . . . O . 7 [ U I U x.H x.                                                                                                                                                                                                                                                                                                                                                                                                    b.b._ I I _ ] c . + . . . . . . . . . . . . . . . . + . $ _ r b.HXY.Y.Y.Y.!.V.H I U $ + 7 _ r 8 T._ ] [ _ I 7 $ ] H 7 $ 7 r + + , $ [ q 7 Z.SX!.^.U.U.T.T.VX_ 7 I I FXx.7 + o H A.V.7 . 7 H 7 . $ $ @ $ . . o # . . $ + $ 7 + + T.[ _ $ . $ I x.r $ V.v.b.x.x.] H $ H r                                           ",
"                                        x.r $ $ H c.x.x.v.V.. 7 ] _ . . . H x.A.. $ 7 U 7 + O $ 7 7 $ $ $ $ $ $ + $ 7 H + + x.x.M $ . 7 v.Z.C r 7 $ ^.U.U.!.T.^.!.^.CXx.7 7 H . $ + 7 r $ $ 7 K _ , q _ -.x.] x.VXr H _ 7 + + H x.H A.^.^.!.^.T.SXb.r x.$ + . + . . . . . . . . . + + + + . . . $ r x.I _ _ x._ x.                                                                                                                                                                                                                                                                                                                                                                                                    x.x.! I I _ ] r . + . . . + . . . . . . . . . . . . + + 7 U r b.AXT.Y.T.T.^.C.H _ I $ + $ x.r 7 ^.] ] ] x.! q , ] H 7 $ 7 H $ + 7 7 _ 7 7 x.VXT.T.A.Y.T.Z.^._ 7 U I FXx.7 . O U A.b.$ $ H 0 $ 7 $ $ + $ % $ $ $ $ $ $ $ 7 r $ + Y.[ U $ . 7 ! V.r $ x.b.x.x.x._ H % I y                                           ",
"                                        x.r $ $ I b.c.v.v.C.. 7 [ _ . + . H x.S.r + r r r r - 7 7 $ $ $ - 7 $ $ $ 7 H r $ r V.x.M $ . $ x.T.r r r 9 !.^.VX!.ZX^.T.^.CXx.7 r H + 7 $ q r $ $ q U H + 7 ! [ ` _ c.U.7 H [ $ . . H ] H Z.VX^.^.^.T.GXA.H x.7 $ . . . + + $ + $ $ . . + $ $ $ . . . $ r b.U I _ ] U x.                                                                                                                                                                                                                                                                                                                                                                                                    b.x._ I I I ] r + . . . $ 7 O $ . $ 7 $ $ O + + . . + + 7 U r x.HXT.!.T.T.VXC.H I U $ + 7 _ $ 7 Y.] _ ] [ ! q 7 ] H 7 $ 7 H + . r 7 _ 7 r x.!.T.!.Y.Y.VX!.!.] 7 U H AXx.$ . $ U A.x.r 7 H I U $ 7 $ 7 $ % $ + + $ 7 - r H r r 7 Y._ _ $ . 4 I S.C $ v.b.x.b.b.[ H % I c                                           ",
"                                        x.r $ $ I c.b.b.x.V.. 7 [ ] . . . f ] ] T._ r r _ _ r 7 7 H r 0 r H H r 7 I _ 7 f x.T.A.J @ . + _ ZX9 r 7 4 ^.^.^.^./.ZX!.^.AXx.r r H $ 7 $ q r $ $ 7 K I $ 7 I ] ] _ ] U.8 U [ 7 + + H _ r U.VX!.!.^.!.HXv.r [ $ $ + . $ $ , 7 7 q r , . . $ 7 $ + . . + r b.I _ [ b._ x.                                                                                                                                                                                                                                                                                                                                                                                                    b.b._ ^ _ I ] r + . . $ 7 O . . $ $ H $ $ 7 $ $ . . . + $ _ H [ FX!.T.A.T.ZXA.H _ U $ + 7 U r 7 U._ x.x.] ! 7 7 ] H 7 $ 7 r + . r 7 _ q r x.CXT.!.T.Y.^.1X^.] $ H H CXx.+ + $ H Z.A.C.[ 7 H ] r 7 r 7 7 r 7 r r 7 U U [ r 7 r [ x.] U $ . $ U b.H 7 V.b.b.v.v.x.H 7 H y                                           ",
"                                        x.7 $ $ ! c.v.c.x.m.. 7 I ] . + . 7 ] [ x.U.r r H x.T.x.A.T.!.Y.U.T.!.!._ x.7 r U !.A.v.H $ + $ [ !.e r 7 7 A.^.T.ZXVX^./.^.AX[ r r H + 7 $ 7 r $ $ 7 H r $ r I ] ] ` x.!.7 r _ 7 + . H [ r Y.^.T.!.!.T.FXv.r _ $ + $ . $ , 7 r r H I r 8 O + $ 7 $ . . + r x.[ _ _ x.U ]                                                                                                                                                                                                                                                                                                                                                                                                     b.b._ _ _ _ -.H . . + $ $ + . . r r [ r r r 7 7 + . + + 7 H H b.HXY.T.T.T.(.b.r U U $ + 7 U 7 r C.] [ x.] I 7 , [ H 7 $ 7 q + + r 7 _ 7 q x.GXT.T./.VX!.!.^._ $ r H AX] $ . $ H C.v.T.Z.I H ] A.r T.T.T.Y.A.b.b.A.U._ _ 7 7 H A._ [ I $ . * H S.s 7 v.b.x.b.v.v.H 7 H H                                           ",
"                                        x.7 $ $ _ c.m.m.c.x.. 7 Z._ + . . 8 ] [ x.v._ $ 7 ] H U H H H r r r H H I I 7 r b.C.A.x.H $ . $ x.^.U r r r V.T.A.VXZXCXT.^.^._ r 7 H $ 7 + 7 c + $ 7 H ! $ q ! -.-.x.x.Z.7 U _ 7 + $ H ] r v.^.^.VX!.T.!.b.r [ r . + $ 7 H ] x.c.:X] H c 7 + $ $ $ + . $ 7 v.[ U _ x.U x.                                                                                                                                                                                                                                                                                                                                                                                                    b.A.x._ [ _ x.r . + $ 7 8 . + H _ ] V.G.C.b._ y 7 $ + . 7 H H b.FXA.A.T.T.^.C.r U U $ + 7 x.r r VX] x.] [ I 7 $ x.H r $ 7 r . + r , V.7 q x.AXE.!.Y.!.!.CX1X[ $ H r CX] $ + . H A.V.v.U.v.H V.I U H H H r 7 r r r H H r 7 7 U _ [ _ _ 7 . 7 U v.H r A.v.x.x.v.V.H 7 U y                                           ",
"                                        x.7 $ $ [ v.b.v.v.x.. 7 x._ O . . 7 x.] x.] C.r $ . 7 $ $ $ $ + + + $ $ $ O $ I Z.v.x.V.H $ . $ x.!.s C s r Z.VXY.^.~./.!.^.!._ r 7 r + 7 $ 7 H $ $ 7 H K $ q _ -.x.x.-.^.r H [ 7 . . H x.U T.^.!.T.T.T.HXV.7 [ $ . O + $ , r r U V.Y.-.I r + . @ + . . + r V.] _ x.C._ x.                                                                                                                                                                                                                                                                                                                                                                                                    b.C.x.] _ [ b.H . . + + + . $ r ] c.!.] _ I r 7 O + + . $ H H v.HXT.T.T.Y.VXA.r H H $ . 7 _ r 7 U.x.x.x.] I 7 $ ] r q $ q H + + r 7 x.7 r x.^.!.U.^.!.^.!.~._ + H U ^.x.$ . + r A.v.V.A.A.H r + O $ . . + . + + + $ $ $ . 7 V._ [ ] I $ $ 7 H c.r 7 A.V.b.x.b.b.r 7 U H                                           ",
"                                        x.7 $ $ [ m.v.v.v.] . 7 ] _ $ . . r ] [ x.x.x.x.+ $ + $ $ $ $ $ $ $ $ $ O 7 + A.b.v.x.x.H @ + $ x.!.r H H 9 Y.CXT.!.T./.!.^.^.[ H r H - $ $ q r $ $ 7 H H + r ! ] -.x.] T.7 r _ 7 $ + H x.r U.^.^.!.!.T.SXx.r x.$ O . + . $ 2 r ` c Z.G._ r 7 . + . . . + H V.] _ x.A._ x.                                                                                                                                                                                                                                                                                                                                                                                                    b.V.b.x._ [ b.H . . . + . + 7 I -.^.H x.! H r 7 $ O + . $ I U x.GXT.^.!.!.^.C.H I I $ + 7 _ 7 7 !.] x.] [ I 7 $ ] r 7 $ 7 H . + 7 q _ 7 r x.!.!.R.!.!.!.!.!.[ 7 I H Y.I $ . $ H C.v.b.S.U._ $ $ . $ 7 7 $ $ $ $ $ $ $ $ $ v._ [ ] ] U 7 . 7 H b.r 7 A.V.b.x.x.x.r 7 I H                                           ",
"                                        x.7 $ $ _ v.v.v.v.] . q x.x.+ . . r I _ [ _ ] x.v.x.b.b.A.C.V.C.C.A.A.A.Z.U.T.b.V.] x.v.r @ + $ v.ZXr H r H !.^.Z.!./.!.^.VXVX[ H U U + $ $ 7 r $ $ 7 H H $ r I ] -.x.] T.7 H _ 7 $ + r [ r Z.VX!.^.T.!.AXx.r _ 8 0 + . + . + . , w M G.Z.U r + . + $ . $ I V.] [ +.Z.I x.                                                                                                                                                                                                                                                                                                                                                                                                    b.b.b.b._ _ x.H . . $ $ . + 7 -.b.m.q , r $ + . . . $ $ 7 U 7 x.SX!.T.!.T.T.b.r U U $ . $ ] r 7 !._ ] ] x.I 7 $ -.c q $ 7 r . . 7 q I 7 q ] FX!.T.T.!.T.^.VXx.$ H U HXx.7 . $ H x.C.x.b.C.T.V.A.b.A.Y.U.V.v.b.v.v.b.b.v.b.] [ ] [ ! _ 7 . 4 H c.r 7 A.v.x.b.x.x.r 7 U M                                           ",
"                                        x.7 $ $ ! c.x.v.V.x.. 7 x.x.. . + $ 7 _ U I U I [ I I _ [ [ _ _ [ ] ] ] x.x.[ _ [ x.b.r 7 $ . $ x.AXH H H r ^.ZXU.T.T.(.^.CXAXx.H H H $ $ $ 7 r # $ 7 K I $ q I ] x.x.-.^.r H [ 7 . . H [ H Z.VX!.!.!.!.HXv.H U 7 7 @ . + $ c ! ^ , $ U T.I $ , . 7 $ . $ I V.x.x.x.U.I x.                                                                                                                                                                                                                                                                                                                                                                                                    b.x.v.b.[ [ v.U + + 7 7 . $ H r C.r + $ I _ H 7 + + $ $ 7 U H v.GX!.^.T.T.VXA.r U I $ + 7 _ r 7 A.x.x.] ] I 7 , x.c q $ 7 r + . q q ! q q v.CX!.!.Z.!.!.^.VXx.$ U ] U.x.$ + @ 7 y b.[ [ _ ] _ _ _ ] ] _ _ [ _ _ [ _ _ _ _ _ _ _ U _ . . . $ H c.r 7 A.v.] v.b.x.r 7 J r                                           ",
"                                        x.7 $ $ I b.c.v.V.m.+ r v.x.. . $ . . r 8 7 - 7 7 7 7 7 7 7 7 7 7 8 8 7 7 7 7 $ $ 7 $ 7 $ $ + $ ] CXU U I q ^.DXT.Y.Y.(.^.ZXAXv.H H H 7 $ $ q c $ $ 7 K I $ q ! x.x.x.x.Y.7 H [ 7 $ + U x.r b.T.!.!.^.!.GXv.U _ 7 $ $ . , q M ` V.q $ $ I -.r . . K q . $ H C.x.x.x.Y.I x.                                                                                                                                                                                                                                                                                                                                                                                                    v.v.V.b.+.[ V.I . $ 7 7 + $ U x.H + 7 x.c._ H 7 + + + + 7 I H v.HXT.T.U.T.ZXA.f U U $ . $ I r 7 U.x.x.] x.! q , x.r 7 $ 7 q + . r 7 ` r q b.SXT.T.E.^.Z.VX^.x.7 H H ZXx.7 + $ % $ H r r r 7 r 7 r r 7 $ 7 7 $ $ $ $ $ $ $ $ 7 7 7 + $ $ . 4 H c.r 8 A.V.b.v.v.x.r 7 U M                                           ",
"                                        x.7 , $ _ m.v.b.v.A.+ H A.x.. + $ $ . + $ + + $ . $ $ $ $ $ O O + + $ $ $ + + $ $ + $ . O . $ $ x.^.! ! H c VX^.Z.E.!.U.^.^.VX[ H H r + $ + r H $ $ q K I $ q _ x.x.x.x.U.7 H [ $ $ . H ] H b.T.!.Y.^.T.KXA.H _ 7 $ $ . + 2 e H -.Y.e + H ` 7 + . $ . , $ H A.] [ x.Y.H x.                                                                                                                                                                                                                                                                                                                                                                                                    v.U.C.v.x._ C.I . $ 7 $ + 7 H ] H $ ` ] ` H 0 $ + . . + 7 _ H ] FXZ.!.Z.!.VXA.H _ _ 7 + 7 [ r 7 T.[ ] x.v.! q , x.c 7 $ 7 r + . q q ` q q x.LXT.^.!.!.!.!.VX| $ H H VXv.r $ 7 7 $ + + . $ . $ $ o # $ + $ $ $ + + + + $ $ $ . - . $ . . $ 7 H c.r 7 A.C.V.V.V.b.y 7 U H                                           ",
"                                        x.7 7 $ x.C.c.x.b.Y.+ c V.] + + . $ $ . . . + . + + . + . . + + . . . . . + + . . + . $ % . $ 7 v.^._ _ I q ^.^.Z.Y.R.K.T.ZXSXx.r r H $ $ + r K $ $ q K I $ 7 _ -.] x.c.!.r H +.7 . . U _ H x.^.!.T.:X!.SXA.U _ 7 + . + + $ w c K x.` . 7 I , . . $ , . $ H Z.] _ x.T.U x.                                                                                                                                                                                                                                                                                                                                                                                                    v.!.Z.v.x.W A.W . $ 7 $ . $ H _ 7 $ x.[ H r 7 $ + + . + 7 I f x.FXT.!.U.T.!.v.r U U $ . 7 I r 7 C.b.x.] x.I q 7 x.H q $ 7 H + + 7 r ` q q x.FXZ.E.!.VXT.CXVX] $ H U T.v.r % $ 2 $ + + . . + . + . . + . . . . + . . . . . . $ . . + + $ . 7 H c.r 7 C.V.v.S.V.b.r 2 U y                                           ",
"                                        x.7 7 $ _ V.V.v.b.b.$ r I v.] 7 $ $ + + + . . $ + . + . . . + . + . . . $ . + . . . + . + $ H x.C.T._ U H 7 !.^.Z.!.Y.!.!.^.AX] r H I $ * $ r H # O 7 I ` $ 7 _ -.x.x.-.T.7 H [ 7 + + U b.H Z.^.:X^.VX:XKXZ.I _ $ $ + . $ $ , y c ] c + 7 _ $ . . O + . $ H Y.] _ x.!.U x.                                                                                                                                                                                                                                                                                                                                                                                                    x.Z.Z.v.b.[ C.H . . $ + . O r I 7 r x._ r $ + + + . $ + 7 I U Z.KX!.!.U.U.ZXZ.H ! _ + . , -.q r ZXx.] ` [ K 7 , x.H 7 + 7 c $ + q q [ 7 7 v.GXVX!.^.^.T.!.^.+.7 H _ SX).v.7 H r + . . + . . . . + . . . . . . . . $ . . . + . + . . $ . 7 -.` -.H , G.V.x.v.C.x.r 7 ^ M                                           ",
"                                        x.r 7 $ [ V.S.V.b.x.+ r c -.c._ H _ K I I I K H U I H r H U K H K _ I ! I ! I H U H H H U _ x.!.Z.!.I _ H $ ^.^.b.U.!.!.!.CXSXx.H H H 7 $ * r U $ $ 7 U I + q _ x.-.x.] VXr H [ 7 . + _ v.H A.ZXVX^.~.^.HXC.H U $ . . . + $ 7 r r _ r . $ H 7 . . 7 $ + $ U Y.x.+.x.!.I x.                                                                                                                                                                                                                                                                                                                                                                                                    b.U.U.v.x.] A.U + + 7 $ . $ 7 U $ 7 _ _ y U $ $ . . . . 7 _ U v.AXT.T.Y.T.!.V.r U _ $ + , ` r r T.-.x.-._ U 7 $ V.q r . 7 H $ + r q [ 7 7 v.KX!.^.^.T.!.T.T._ 7 [ [ T.C.R.] K ! K r r q r r H U r H H ! K r I U K c U I H H r H c r r r _ Z.x.] H $ V.c.v.V.C.c.H 7 I r                                           ",
"                                        x.r 7 $ [ V.v.v.b.b.+ 7 I x.` Y.V.!.AX!.T.E.VXCXv.T.E.!.^.^.!.T.^.ZX^.T.:XAX!.T.SXSX^.VXVXVX^.T.Z.!.+.H r r ^.VXV.T.!.!.!.DXAX[ H U H 7 $ $ r H O $ 7 I ! $ q _ -.-.x.x.Y.7 H [ 7 $ $ H ] H C.^.~.VXVX^.CXV.H H 7 . . . . $ $ 7 7 U r $ + 7 $ . . r $ . + U U.v.b.v.!.I x.                                                                                                                                                                                                                                                                                                                                                                                                    b.U.U.v.x.x.A.U + $ 7 $ . + . $ O 7 U U $ I $ O + $ . + r _ r C.GXT.!.T.A.!.m.r U ! $ + $ _ r q Z.] ] -.-.I r q Y.H c + 7 H $ + r q [ 7 7 V.GX!.^.^.!.^.!.A.[ 7 [ b.!.Y.V.Y.~.!.!.T.T.!.^.T.^.:XE.!.~.VX!.T.^.T.Y.V.T.!.!.^.V.^.!.Y.Z.^.v.c.v.x.c , C.c.-.v.Z.V.H 7 ^ J                                           ",
"                                        x.r 7 $ _ C.S.x.x.b.$ $ r ] _ m.c.Z.Z.V.Z.m.m.V.m.V.m.m.m.v.Z.v.G.C.C.V.V.Z.V.C.C.v.C.v.v.v.Y.V.Z.C._ 7 r r T.^.b.T.!.VX!.VX^._ H r r 7 $ $ 7 r o $ e I _ $ 7 I ] ] x.x.VXr H x.r . . _ [ U T.CX:XCXZX!.FXV.r U 7 . $ . . . . $ + 7 $ . . . $ . . $ $ + + U A.b.S.V.^.I x.                                                                                                                                                                                                                                                                                                                                                                                                    b.Z.Z.v.b.b.Z.U + + $ + . . . + $ $ r 7 $ 7 . . . . + $ r _ 7 b.FXT.T.!.!.E.c.q H I $ + 7 ! q r :X[ b.x.[ _ q 7 v.c 7 $ r H + + r q [ 7 7 V.GX^.^.!.!.!.T.T.] 7 ] x.!.Z.C.] C.Z.V.v.v.C.A.C.Z.V.A.C.A.C.V.b.N.V.m.v.x.v.v.-.V.c.x.x.v.b.c.] [ I r q V.x.c.c.C.V.H 7 ^ H                                           ",
"                                        x.r 7 $ I C.V.x.[ x.+ 7 H b.b.C.v.A.Z.V.V.v.-.b.C.b.c.v.C.v.A.v.C.x.b.V.A.C.C.C.m.x.A.v.b.b.V.V.C.C.] H r 7 !.ZXx.T.^.VX^.AXCX_ 7 H I $ $ $ 7 r . O e ! _ $ q _ x.x.b.x.T.r H [ 7 $ $ H c.r m.!.^.ZXDXZXLXA.r x.7 $ H $ r H [ C.U.!.^.!.V.I $ + . . + . + U A.b.A.A.VX_ x.                                                                                                                                                                                                                                                                                                                                                                                                    b.U.U.V.V.V.G.U + . . . + . $ H x.Y.E.Y.A.v.] U r $ 7 $ 7 I 7 ] GXT.^.T.!.:Xv.r K I $ + 7 _ H r x.c.] ] -.U q 7 c.I 7 + 7 H . + q r -.7 7 Z.GX^.ZX^.T.T.T.ZXx.7 ] [ ^.v.A.A.I Z.C.b.V.V.V.C.V.b.C.V.m.v.m.c.-.x.v.C.x.c.b.-.c.] V.x.v.v.v.v.c.! c r v.-.-.b.c.x.c 7 J M                                           ",
"                                        x.r 7 7 [ v.x.x.x.x.. 7 r V.b.x.Z.v.V.C.v.V.] Z.b.C.v.b.C.v.v.V.A.V.V.G.v.A.A.m.Z.b.A.T.v.V.C.C.A.A.] 7 r r ^.^.A.!.^.!.^.!.!.[ r 7 r $ $ O 7 r + O 9 I ` , r _ x.b.m.b.CXr H ] 7 . . W -.K !.CX^.^.ZX^.FXC.r _ $ $ r + 7 7 r I _ [ ] _ U H H U 7 . + O $ U U.v.A.Z.ZX_ x.                                                                                                                                                                                                                                                                                                                                                                                                    v.T.T.A.V.C.U.U + . . + $ _ H H r x.x.] _ U r 7 7 + 7 $ r I 7 x.SXT.T.Y.Y.ZXm.H I I $ + 7 ] H r !.x.v.x.x._ H 7 x.U r + r H . + 7 r x.r r Z.HX^.VX^.T.Y.^.CXb.r _ _ CXA.V.U._ C.C.Z.A.G.U.A.C.C.V.C.b.m.V.C.V.v.V.V.m.V.V.c.x.b.v.m.c.v._ x.c.! r r A.V.v.x.x.x.H 7 J H                                           ",
"                                        x.r 7 $ [ x.] x.b.x.. 7 q I G.v.m.V.v.C.b.Z.A.m.Z.C.m.A.v.C.Z.Z.v.b.b.Z.A.c.c.c.m.C.Z.v.Z.b.C.C.V._ _ H H H ^.U.U.!.!.E.!.!.T.[ H H H $ O $ 7 C o O 9 ! _ $ 7 U [ x.v.c.T.7 H [ 7 $ + H x.H Z.^.!.ZXCXT.ZXA.f _ $ H r $ $ $ 7 7 r r H $ I I _ I $ + . . + H T.v.A.Z.CX_ x.                                                                                                                                                                                                                                                                                                                                                                                                    v.T.!.Z.C.v.G.U . . + $ 7 _ _ _ r $ r 7 7 7 7 % $ + r - 7 I 7 x.GXU.!.T.T.!.x.r U U $ $ 7 -.c q !.-.x.] c.U r 7 c.H r + 7 H . + 7 7 x.r c A.FX!.!.!.!.Z.^.VXx.r I U V.x.V.V.V.C.C.U.m.G.A.C.C.V.v.V.b.m.b.b.V.v.V.v.V.v.x.x.m.v.b._ x.x.x.v.x.H C r c.b.V.x.v.m.H 7 K H                                           ",
"                                        x.r 7 $ I b.b.v.x.] . r c q [ ! _ _ _ I _ U ` _ I _ _ _ K _ ] H H H U _ _ _ _ I I [ ] ` [ H H H H r U H U r ZX!.Y.!.T.T.!.CXZX] f H U $ # # 7 s + O e _ ! $ r _ -.x.v.x.VXr H [ 7 . + I x.H U.ZXT.!.^.!.HXZ.r ] $ U U $ 7 U _ _ _ [ [ r U.U.Z.[ $ 7 . . . H ^.V.C.A.ZX_ x.                                                                                                                                                                                                                                                                                                                                                                                                    v.T.T.Z.A.b.Z.U . . $ 7 7 U.Z.Z.v.7 [ _ [ [ ] I 7 $ H r $ H f x.GXT.Y.v.T.E.x.H I U $ + $ [ H 7 Y.x.c.] [ I r 7 x.r 7 $ 7 H + + $ , x.r r U.KX^.^.^.T.T.T.T.] r I r $ r H ! _ ] -.-._ ] _ _ _ U _ _ ` ! U U _ I I I ! _ _ ` _ _ _ I K K I c I c H r V.V.c.v.v.v.c $ r H                                           ",
"                                        x.r $ $ _ x.x.x.x.V.+ r r q 7 $ 7 7 7 , 7 7 7 r r 7 7 7 , 7 q 7 , $ $ 2 7 7 q 7 7 q r 7 7 7 O $ $ + r U I H ZX!.!.!.!.T.T.FXAXx.H U H $ o o 9 e o $ 7 I U , 7 I x.x.x.c.^.r H [ 7 $ . U -.c V.VX^.^.T.^.HXZ.r [ @ U H C.v.FXHXHXHXHXHXx.GXKXKXv.H $ + . + H ^.v.A.U.ZX_ x.                                                                                                                                                                                                                                                                                                                                                                                                    V.U.!.A.Z.x.U.r . + 7 - U FXKXLXHXx.FXFXHXGXGXFXx.b.H 7 $ H r v.AXT.Z.U.T.!.b.H I _ + . 2 _ c r T.] -.x.x._ r , m.c r + r H + . $ 7 x.H r Z.GX^.^.!.!.^.^.!.[ 7 _ H $ + $ 7 r c H H c r r r c q 7 7 7 $ , 7 7 r r , $ 7 7 7 7 7 7 , 7 , 7 4 e c P c Z.Z.V.C.C.v.r $ , q                                           ",
"                                        x.r $ $ ] b.x.x.x.A.$ 7 q 7 7 , 7 , , , $ 7 $ , 7 $ , $ $ , 7 $ $ $ $ 7 $ $ 7 7 7 , , $ $ $ $ $ $ 7 7 H H r ZX^.T.U.Y.Y.T.AXCXx.U I H $ $ # 7 r + $ 7 I I $ q _ x.x.v.c.^.7 H [ 7 $ . U x.I U.CX:X~.Y.^.FXV.r _ + $ % Z.x.FXKXGXGXGXGX+.KXKXLXx.U.H + + $ H ZXC.A.T.^._ b.                                                                                                                                                                                                                                                                                                                                                                                                    v.Y.^.Y.A.v.C.U + . 7 H T.AXKXKXGXC.KXGXGXGXHXSXx.[ 7 $ $ U 7 b.HX!.T.U.T.!.b.H _ _ + + , ` H r T.x.x.x.x._ r 7 v.r r + q r + + $ 7 -.c r A.FX^.^.!.^.!.!.T._ 7 H r $ $ 7 , 7 7 7 q q 7 7 , 7 7 7 , $ $ $ , , 7 7 , $ 7 7 $ $ $ $ $ $ , 7 7 e r q r U.U.b.m.b.v.r 2 7 q                                           ",
"                                        x.r $ + ] x.x.x.x.Z.- $ $ $ $ $ $ + $ $ $ $ $ $ $ + $ $ $ $ $ + $ + + + $ + $ $ $ + + . . . + . + $ $ 7 7 H CXVXT.!.^.^.VXSXZX] U H r $ O # 7 e o $ 7 I _ + r _ -.x.m.c.^.7 H [ 8 + . U x.H C.VX^.^.E.^.LXb.$ ] $ 7 . U H I [ v.b.x.v.H C.Z.C.U H _ - H . I /.C.A.U.AXx.v.                                                                                                                                                                                                                                                                                                                                                                                                    V.T.!.T.C.v.V.U . $ _ H _ V.U.U.U.r x.] b.b.x.[ r H $ + $ I 7 v.KX!.!.U.U.!.v.H I ! . . , [ H c T.v.x.-.x._ r 7 v.r q + 7 r + + $ 7 -.r r A.FX^.VX^.VX^.!.T.U . + $ $ $ $ $ 7 7 7 , , , , , $ , $ . + + $ + + $ $ $ $ + + $ $ + . + + + $ $ $ $ $ H U.Z.v.v.m.b.c $ [ r                                           ",
"                                        x.r $ + ] x.x.b.x.V.7 7 7 $ $ $ $ + $ $ 7 $ $ 7 7 $ , 7 7 7 r 7 . . 7 + $ $ $ $ + $ $ + . + $ $ 7 7 7 7 $ 7 ^.!.A.!.^.!.^.CX^._ H H r $ O o 7 e o $ 7 U ! $ r _ x.x.v.x.!.7 H [ 8 + . U c.r x.~.^.ZX~.^.FXx.7 x.. + $ r $ r I U _ [ [ $ ] _ ] r $ 7 7 7 $ U ^.v.b.Y.ZXx.V.                                                                                                                                                                                                                                                                                                                                                                                                    A.!.T.T.V.V.Y._ + 7 7 7 7 _ ] ] _ r W _ I I H 7 7 7 $ $ $ U $ v.GXT.T.T.Z.E.v.H ! ! + + 7 [ H r !.x.x.-.x._ r 7 b.r q $ 7 H + + $ 7 x.c r U.HX^.VXVX^.VX!.Z.H $ $ $ 7 7 7 7 7 7 7 7 7 , $ 7 , $ $ $ , . . $ , , $ 7 $ + , , 7 , $ $ $ + $ $ , , 7 c G.V.b.m.C.c.H $ x.r                                           ",
"                                        x.r $ + ] b.b.v.x.b.7 r x.` ] _ ] U _ _ 3.` _ -.] _ ] x.] x.C.x.+ 7 c.x.] x.] ] ! -.] [ I _ _ x.b.x.x.x.$ $ T.!.Y.!.^.^.^.CXVX_ H H r $ $ + 7 r # $ 7 U I $ q _ v.x.x.c.!.7 U ] 7 + + I b.H m.:X:XVX^.^.AX] 7 7 $ $ $ $ $ $ $ $ 7 r r $ $ 7 $ $ $ 7 $ 7 $ U ^.v.v.T.CXx.V.                                                                                                                                                                                                                                                                                                                                                                                                    A.!.T.T.b.C.Y.H + 7 $ 7 $ $ r 7 7 $ H H 7 7 7 + $ $ + $ 7 U 7 b.FXT.!.^.^.Y.x.c ! ! $ + 7 [ c r ^.] x.x.x._ r 7 c.r q $ 7 K + $ $ 7 x.r r U.FXVX^.^./.^.^.U.r $ r U V.C.A.C.b.x.b.m.v.x.x.-.x.] ] x.x.+ + ] [ [ _ _ _ _ x._ ] ` ] _ ` _ _ _ ] ] H H Z.V.b.m.m.v.c 2 J r                                           ",
"                                        x.r $ $ _ x.x.b.x.x.- H x.] x.] c.[ x.-.A.v.v.C.m.b.C.Z.V.A.E.U.7 U Y.U.c.V.m.v.x.V.m.c.[ x.] V.C.x.v.x.$ + Z.!.R.!.VXVXVXAXAX] H H r $ $ + 7 r # $ 7 I I $ q _ m.c.x.v.!.r U ] 7 + + I v.K m.:X~.^.^.VXGXx.r H $ $ . $ + . . . $ $ $ $ $ $ . + $ $ + 8 + I !.v.V.T.SXv.V.                                                                                                                                                                                                                                                                                                                                                                                                    V./.!.T.x.[ U.I . $ $ $ . $ . + 7 + $ $ + . . . . + $ + $ U 7 ] FXT.!.!.^.!.v.r U U $ + 7 [ c r ^.] c.b.x._ r 7 c.r 7 $ 7 H + $ $ 7 x.q r U.FXCX!./.^.!.^.).r r x.v.!.T.Y.T.U.G.U.G.C.C.G.V.C.m.m.Z.T.. + m.b.v.c.c.c.x.C.] b.x.c.] x.[ x.b.c.m.K H m.V.v.b.v.c.c 2 I M                                           ",
"                                        x.r $ $ U +.x.x.x.] $ H I ! ` [ ] ] -.-.-.` [ x.[ ` x.x.x.c.V.V.+ H V.b.] x.x.-.] x.x.` ] b.x.b.b.] x.[ r $ Z.T.T.^.VX^.VXCXCX[ H H H 7 O o 7 r # $ 7 / I $ r ] v.c.c.b.!.r U ] 7 + + I v.K v.^.!.^.:XVXKXx.7 b.7 $ $ 7 7 r H I _ _ [ 7 _ _ _ r . + + 7 $ H 1Xx.x.Y.CXb.V.                                                                                                                                                                                                                                                                                                                                                                                                    C.!.T.U.b.b.T.I + $ + . . H U [ _ r ] x._ I H r $ $ $ $ 7 [ H v.GX!.^.!.!.:XC.c U K $ $ q ` H r E.x.c.b.c.` r 7 c.H 7 $ 7 H + $ $ 7 x.q r Y.HXVX^./.^.!.!.Y.f _ v.[ x.b.V.m.m.m.v.x.-.x.v.c.x.x.x.v.!.+ 7 x._ ] [ ` ` _ ] [ x.` ] _ ] ` ] -._ ] H r m.b.c.x.v.x.H , x.J                                           ",
"                                        x.r 7 $ H b.V.v.x.] $ H K _ ] c.x.c.x.x.-.-.x.v.x.x.b.-.c.v.c.m.+ r x.b.c.x.v.x.v.x.b.] x.v.v.b.b.x.x.x._ $ V.T.!.!.^.^.^.ZXDXx.I U H $ $ # 7 r o $ 9 _ _ + r ] b.x.b.c.!.r U ] 7 + . I x.I Z.CX~.!.~.~.SXv.7 b.0 . H 7 _ b.C.A.Z.^.VXU ^.^.VX_ . $ + $ . I VXv.V.U.AXx.V.                                                                                                                                                                                                                                                                                                                                                                                                    A.!.Z.S.C.V.^.U + $ . + + U.^.^.^.[ VXVX!.T.Z.V.U r $ + r ] r V.GXT./.!.!.!.v.r U U $ + 7 _ H r U.v.x.x.c.` r 7 c.H 7 + 7 H . $ $ 7 c.q 7 Y.KX!.VX!.T.!.T.T.r _ A.V.V.v.b.b.b.c.b.v.V.m.b.v.x.v.c.-.!.. 7 Z.x.-.[ ` -.] x.-.x.[ [ ] x.x.x.` ` ` _ r T.V.x.-.] v.c 7 -.r                                           ",
"                                        x.r 7 $ I b.b.x._ x., K _ [ ] x.x.x.x.x.-.] x.x.b.-.c.x.x.] ] V.. r b.x.b.] x.x.b.x.x.] v.V.V.c.v.v.m.x.` $ V.T.T.~.VX~.^.^.CXv.I U H 7 $ + r r $ $ r I x.$ r _ ] b.x.S.^.7 I [ 7 + + U x.U Z.ZX!.^.!.!.GXS.H ] r + + $ , r H H c H H r r r r 7 + $ + . + H !.Y.A.U.CXb.v.                                                                                                                                                                                                                                                                                                                                                                                                    A.T.T.C.v.C./.H . + + 7 O H H H H c K H r H r 7 $ . . . 0 [ H C.CX!.E.E.T.^.m.r H I $ + 7 _ H r ^.v.m.x.x._ q 7 x.H 7 + 7 r $ $ $ 7 ` 7 r G.SX!.T.!.T.Y.!.Y.r ] G.C.m.c.v.x.v.x.v.v.b.m.x.b.v.x.x.] Z.$ , U.x.b.x.] ] ] ] ] x.] ` ] ] x.x.] ] _ I 7 A.x.[ x.v.[ r 7 J H                                           ",
"                                        x.r 7 $ _ c.c.c.-.x.$ I -.x.x.x.x.x.-.-.x.x.[ x.x.x.x.-.] x.b.A.+ r b.v.v.b.v.x.x.x.b.b.[ V.A.V.v.b.b.x.x.$ G.E.T.Z.T.~.~.CXSXV._ H H q $ + r r + $ q I ] $ r [ x.v.b.v.CXr U [ 7 + + H x.H x.^.^.^.!.T.SXS.H S.r . . $ $ 7 r r r r r 7 H H c r @ + . . . r VXT.U.Y.AXx.v.                                                                                                                                                                                                                                                                                                                                                                                                    C.ZX!.Z.b.).T.f . . + . 7 f r r 7 7 r r q r 7 $ $ + . . 7 o.r V.LX!.!.U.T.^.Z.c I I $ $ 7 ] H r !.b.v.v.v._ r 7 ] H 7 + r r $ $ $ 7 [ 7 q G.AX^.Y.T.T.T.Y.T.r [ G.Z.A.b.b.b.v.x.v.v.b.b.c.m.m.] ] ] A.. 7 U.] x.x.-.` _ -._ ] ` [ ] ] -.] ] [ ] ! 7 b.x.b.x.v.] H 7 I H                                           ",
"                                        x.r 7 $ _ x.c.c.x.x.+ I ] -.x.x.x.x.x.-.c.] -.x.x._ -.x.] x.] b.. r x.x.x.v.v._ _ b.v.b.[ v.m.V.v.V.v.v.v.7 T.^.T.G.VX!.!.CXFXm._ K H 7 $ + r c $ 7 q I x.$ r [ x.v.b.v.ZXr H ] 7 + + I ] I Z.CX^.!.T.!.KXU.8 b.r . . + $ $ 7 7 , , , $ 7 7 7 q + . . . $ H ^.C.U.Z.CXx.v.                                                                                                                                                                                                                                                                                                                                                                                                    A.^.!.A.V.A.U.f . . $ . $ r r 7 $ $ $ $ $ $ $ $ $ . . . 8 _ I Z.GX^.^.!.Y.^.C.H I H , . 7 [ H r !.v.v.m.m.` r 7 x.H r $ q r $ $ $ r ] 7 7 C.HXT.!.Y.E.!.T.!.H -.Y.Z.A.x.x.b.b.x.v.c.v._ _ _ m.b.[ ` C.. $ G.-.] ] ] c.[ ] ] -.` _ [ ] x.c.8._ 8.! r [ x.V.x.b.] H 7 _ y                                           ",
"                                        x.r 7 $ I b.m.c.c.x.$ I _ ` ] -.x.-.x.x.x.x.v.x.] H U K I _ W ] . r ] [ x.[ I H H [ v.b.x.x.x.v.m.A.V.C.c.r E.Y.T.T.G.E.~.ZXSXv.U K H 7 , $ r H $ 7 q I x.7 r [ x.v.v.v.!.7 H x.q + + I V.U ^.CX^.^.C.T.CXv.H b.$ . + . + + + + . . + + $ , 7 7 $ . . . . H VXC.Y.C.^.V.V.                                                                                                                                                                                                                                                                                                                                                                                                    Z.^.!.A.A.V.R.0 . . . + O $ $ $ + + + . + + + . + . . . 7 _ r v.KX!.!.!.T.^.G.c _ I @ $ 7 [ K r ^.b.V.v.v.` r 7 x.U r $ 7 r + $ , r ] 7 7 m.FX!.Z.T.E.Y.T.U.q ` U.V.m.x.x.x.v.x.v.x.x.H c H -.c.] _ C.. $ V.] v.K H r I ] ` ] _ ` ] ] -.] ] _ [ / r x.x.v.x.x.] H 7 _ r                                           ",
"                                        x.r 7 $ _ b.v.x.x.-.+ I _ [ x.x.x.-.-.x.] c.] [ H ! ! I r _ _ x.. r [ [ x.r H ] _ f x.v.-.-.v.m.C.m.m.Z.C.r x.E.T.Y.Y.T.~.VXAXV.c U K 7 , @ 7 c + , 7 U _ $ r ] b.v.v.b.T.7 H ] r $ + H I 7 b.VX!.!.^.T.GXv.r b.7 . . . . . . . . . . . . . . . . . + . $ H VXU.U.U.CXv.C.                                                                                                                                                                                                                                                                                                                                                                                                    C.ZX!.U.C.V.T.r . $ . + . . . . . . . . . . . . . . . . 7 _ r V.KX^.T.T.T.!.c.c c H $ . 7 -.U r ~.x.v.b.v.` r 7 ] H q $ q r . + , r ] 7 7 v.GXY.~.E.!.T.E.Z.7 _ Y.C.b.v.x.v.v.-.x.-.K U _ -.I I ] ] A.. $ m.K U I I ! I ] [ ] _ ` ] ] ] ] _ _ ! _ r C.v.v.x.x.| H 7 _ r                                           ",
"                                        x.q 7 $ x.m.b.v.v.c., _ ` ] x.c.x.x.-.x.-.x.` -.U I ! _ r [ ] b.. 7 _ [ ] r U x._ r x.x.v.x.C.V.C.v.v.G.v.c ` G.E.Y.G.!.~.:XCXm.r ! U 7 7 + 7 r $ $ 7 U _ $ 7 [ x.v.v.b.Y.r H x.7 + + U b.r Y.VX!.^.^.^.KXV.r ] 7 $ . . . . . . . + + . . . . . . . 7 $ 7 H ^.C.A.T.ZXx.C.                                                                                                                                                                                                                                                                                                                                                                                                    C.!.T.Z.V.b.U.H + $ $ . . . . . . . . . + . . . . . . . 7 [ r V.LX^.^.!.!.:XA.r K ! $ $ 7 ] H r !.c.b.v.v.` r 7 -.H q + 7 c + $ 7 r -.r r v.CXT.T.T.T.Y.T.U.7 _ G.V.x.b.] V.v.x.] c.7 I ] x.K I -.-.G.+ $ A.[ ] x.K U K [ x.x._ _ [ [ -.x.U _ I [ r C.v.b.b.v.x.H 7 I y                                           ",
"                                        x.q 7 $ ` x.] x.-.x.$ ! [ ] x.c.x.x.] ] ] x.x.v.] _ I I ] b.x.b.. 7 _ _ x.U U H H U b.V.C.v.V.V.V.C.V.U.V.7 VXY.C.!.U.VX^.ZXCXx.r _ U q 7 + 7 r $ $ q I [ 7 r [ x.v.V.b.U.r H x.7 . + _ x.r Z.VX!.^.^.^.GXb.$ b.7 + . . . . + + @ $ $ . + $ . . . . r H 7 H VXA.A.U.^.b.C.                                                                                                                                                                                                                                                                                                                                                                                                    A.Y.T.A.v.v.U.0 r r 7 + . . + $ + . + + @ + . . . . . . 7 _ U b.^.U.!.!.!.ZXC.H H H $ . 7 ] H r !.v.v.v.v._ r q x.K q + 7 c + $ q r x.r r v.AXG.!.T.!.!.!.!.7 [ A.C.V.A.V.v.v.b.x.m.I I ! I I -.x.] U.+ $ Y._ b._ _ K x.x.] ] _ [ ] ` ` _ I _ _ _ r b.v.v.v.V.x.r 7 H H                                           ",
"                                        x.q 7 $ U x.x.b.] x., ! ] ] ] -.-.] ` _ _ x.I x.[ !.!.E.b.V.S.C.+ 7 ] ] x.U I H W b.x.v.m.m.V.V.v.A.V.U.x.7 :XZ.U.T.~.!.^.AXAX[ r I I U 7 + 7 r $ $ r ! _ 7 r ] b.V.V.b.T.r H x.r + . U _ H Z.CXVX!.1XVXVXx.r C.$ + + . . . + + + $ $ . 7 , . . . $ x.K.x.r !.A.C.Y.ZXv.C.                                                                                                                                                                                                                                                                                                                                                                                                    A.^.!.T.x.V.R.0 Y.).H . . . + 7 $ . . + + + + . . . + . r [ r C.FX!.^.^.^.:XA.r K H $ + 7 -.K r ^.c.V.v.V.] r q x.H 7 + 7 r . $ q r -.r r A.AXU.G.T.~.T.^.^.$ _ x.-.x.v.V.-.m.x.c.m.A._ H H _ x.c.-.Z.. 7 VX] -.Y.T.E.V.x.x.x.` ` [ _ ` [ _ / _ / H x.C.C.v.V.x.r 7 r J                                           ",
"                                        x.r 7 $ _ x.] x.x.x.+ _ c.] ] x.] x.` ! _ ] [ c._ c.b.b.] b.v.).$ H b.x.b.v.A.b.Y.b.x.] v.v.V.V.Z.V.V.V.] q T.T.T.!.!.:X!.:XCXU r ! H I q + 7 H $ , q ^ [ $ r [ x.b.v.x.!.7 U ] 7 + . H _ r [ T.!.VXCX^.LXv.7 A.$ + . . + . . + . + . + $ 7 + . . + [ ` U r ^.A.v.A.VXb.C.                                                                                                                                                                                                                                                                                                                                                                                                    A.^.!.Y.b.v.Z.0 ] [ H . . . $ 7 + . . . . . . . . + + + r _ H x.KX!.^.!.T.ZXA.r H H $ + 7 ] H 7 ^.b.b.m.v.[ r 7 v.c 7 + 7 r $ $ H q -.r r V.SX!.T.T.T.T.Y.^.$ I b.b.] x.b.v.x.v.x.c.v.m.v.C.b.x.x.] Z.+ q C.[ x.x.-.x.b._ -.x.[ _ ] ! x.] _ ! [ / H V.b.V.x.] ] r 7 H H                                           ",
"                                        x.r 7 $ ! b.x.c.x.v., _ V.x.x.x.] ] _ _ 8.x._ V.-.c.b.c.x.v.V.Z.$ H v.x.x.x.x._ b.] ] x.V.v.m.m.m.b.v.m.` 7 T.!.E.!.:X~.!.ZXVX` 7 _ K _ q + 7 c $ , r _ [ $ r [ b.b.v.v.!.7 U ] 7 + . U ] H Z.VX!.!.^.^.KXS.r C.7 $ . . . + + + + $ . 7 , 7 . . $ . -.x.H 7 ^.A.Z.Z.ZXv.C.                                                                                                                                                                                                                                                                                                                                                                                                    Z.VX!.Y.V.b.).0 x.v.I $ . + . 7 7 $ . $ $ + . . . . . + q [ r x.^.!.^.^.U.^.V.r K U $ + 7 ` r 7 ^.C.v.V.v.[ c 7 m.H 7 + 7 H $ . H r ] r q U.HXT.T.T.!.!.E.~.$ _ v.x.] x.m.c.x.v.c.c.x.x.-.] -.-.x.` ^.$ q T.v.v.c.x.x.x.] ` x.] _ ] _ [ ] ] [ ] ] H v.b.x.b.] ] r r U H                                           ",
"                                        x.r 7 $ _ ] I _ ] x.$ _ b.[ x.x.x.x._ _ x.] [ x.x.] x.x.x.x.b.A.$ H V.x.v.b.x.] x.x.x.b.x.x.c.v.b.c.v.V.V., ^.!.~.!.^.^.^.CXCX-.7 _ _ K r $ q r $ , r ! _ $ r _ x.x.b.x.T.7 I x.7 . . I x.H ).ZX^.^.!.!.GXC.r b.$ . . . + c H ! x.-.H ` m.r + $ $ . -.b.U 7 ^.V.U.U.ZXb.C.                                                                                                                                                                                                                                                                                                                                                                                                    Z.VX!.U.v.v.A.0 x.v.I $ o + $ U ] ` r x.I H r r $ - O $ 7 ] H x.GX!.T.^.T.ZXG.K I I $ + 7 -.H r :XC.v.m.V.[ c 7 v.H q + q U + + r r ] $ 7 A.CXY.Y.T.Y.U.T.!.$ _ C.c.v.b.v.V.c.v.x.x.x.x.c.x.] x.v.] ^.. r T.v.x.-.x.x.x.x.[ x.-.] x.[ ` -._ ] x.o.r x.v._ x.] x.r 7 J H                                           ",
"                                        x.r 7 $ K ] _ _ [ c.7 _ V.b.b.x.x.[ _ _ ] x.b.x.v.x.x.x.b.x.b.U.$ U A.v.v.b.x.x.x.x.x.b.c.-.x.x.c.x.m.C.!.q ^.!.~.Z.T.^.U.E.ZXv.7 I _ ! r $ q r $ $ r I H $ 9 _ x.b.v.x.E.7 I ] 7 + . U x.H Y.CX^.^.!.!.GXv.r b.7 $ 8 r U C.ZXGXGXZX!.GXKX7 $ r $ . -.x.H r !.v.A.T.AXZ.C.                                                                                                                                                                                                                                                                                                                                                                                                    U.ZX!.Y.V.x.S.7 [ x.H $ 7 $ r _ HXFXv.KXKXHXVXv.r r $ $ $ U r x.HX!.!.T.^.:XA.H K K $ + q x.! c CXV.V.v.C.] c 7 c.H 7 $ r q , $ H 7 H 7 r U.KXT.T.G.Y.U.E.T.$ H A.x.v.c.c.v.v.C.V.V.m.v.b.x.-.x.-.-.VX$ 7 U.x.] -.x.-.-.x.-.-.-.] x.x.-.x.x.o.[ b.0 V.b._ [ [ x.r 7 H H                                           ",
"                                        x.r 7 $ U -.] ] _ _ $ ] x.x.] x.b.] ] _ b.] x.] _ x.x.x.x.] x.Z.$ U A.b.x.x.x.x.x.x.x.x.v.-.x.-.v.b.C.Z.ZX, Z.T.!.C.!.!.^.~.ZXG.r ! H U q + q r $ $ r I I $ r _ x.b.v.v.^.r H _ 7 + . H [ H A.ZX^.^.^.^.GXv.H A.7 $ $ $ $ I ` ] -.] I x.m.$ 7 + $ $ _ -.H r !.Z.V.T.1XA.C.                                                                                                                                                                                                                                                                                                                                                                                                    Z.^.!.U.C.v.S.r _ ] H + 7 7 $ I Z.b.I m.-.[ W U 7 $ . + 7 _ I v.FX!.!.Y.Y.~.V.r U I , + 7 ` I c ZXV.A.b.V.` r 7 x.H q $ r H . + 7 q -.7 7 Y.SX!.^.E.Y.T.U.C.$ U !.V.V.m.m.c.b.C.m.m.m.v.x.] [ x.[ -.C.$ 7 U.x.] x.[ [ ] -.] ` ] -.[ -.x.x.x.P [ _ r [ ] [ [ _ [ 7 7 I J                                           ",
"                                        x.r 7 $ ] b.] ] ] [ , I _ ] [ ] x._ _ H ] r I I U _ ] _ _ [ ] x.7 U b._ [ _ [ [ ] [ ] _ ` _ _ _ x.-.x.b.VX7 T.E.T.U.!.^.!.^.AXb.q _ U H 7 + 7 r $ , r I ] 7 r _ x.x.x.v.!.7 H [ 7 + . U [ r C.^.!.^.ZX^.FX] 7 V.$ O + + 7 q r H U K r H ! $ . + $ . ] x.U r ^.!.A.U.T.x.C.                                                                                                                                                                                                                                                                                                                                                                                                    V.!.Y.Z.C.A.A.r [ x.U . $ . $ H _ H r ` H H r r O $ . . $ _ U x.KX!.!.^.^.ZXZ.H ! ! , + 7 [ H r !.V.V.b.v._ r 7 x.I q + r r $ + r q ! r 7 Y.LXY.T.T.T.Y.U.C.$ H Z.c.c.x.-.x.x.b.] ] ] -.] _ I ` ` ] H . q v._ _ [ I _ ` ` H c I _ I ! ] -.] ] _ ] $ v._ ] [ [ x.r 7 U J                                           ",
"                                        v.r 7 $ I b.-._ [ v.r 7 8 r r r r H 7 7 $ 0 $ 7 r 7 8 7 7 7 $ 7 7 $ r 7 7 7 r r r r 7 7 , r 7 r r c r H K 7 !.^.~.C.c.U.T.CXGXx.7 H H r 7 + 7 H $ , q I _ $ 7 _ b.x.b.v.T.7 U ] 7 . . U x.U T.CX!.^.^.^.GXb.r b.- . . + + $ $ $ $ 7 + , $ 7 + . + . x.x.U 7 VXT.Z.Y.^.v.C.                                                                                                                                                                                                                                                                                                                                                                                                    A.^.!.Y.C.V.U.0 +.x.H + . + + 7 7 7 $ q 2 $ $ $ . . . + r _ H x.SX!.!.Z.!.VXZ.H I I , $ q -.H r T.v.v.c.m._ r 7 x.I q + q H + $ q 7 _ , 7 Y.KXT.Y.G.v.U.T.U.+ c U K K K H U H ! I U H c c r r 7 7 r r q r r 7 7 r , q q r r c r r H 7 r r r r 7 s r A.] _ [ x.b.r $ M H                                           ",
"                                        x.r 7 $ _ x.-.-.[ ` I Z.b.A.!.T.U.Y.[ _ V.DX_ x._ V.[ T.T.U.v.C.CXZ.Z.T.Y.Y.U.U.U.U.U.Y.v.Y.A.U.U.~.!.DX~.VXU.A.!.H H x.Y.^.FX-.r I r 7 q $ q K $ , 7 I H 7 r _ b.V.S.v.ZXr H [ 7 $ + H x.H T.CX^.CX^.T.HXv.r ] 7 + . + . + # * 7 7 . $ q $ . + . $ c.x.! 7 VXv.V.U.CXC.C.                                                                                                                                                                                                                                                                                                                                                                                                    A.ZX^.T.V.v.R.7 x.-.r + . . $ 7 $ 7 . 7 2 $ $ + . + . . 7 _ U x.GX!.!.!.T.^.A.K _ ! , + 7 ` H r !.v.v.x.C._ c 7 x.I q + q r + $ r q U 7 r U.KXU.U.r 7 Z.Z.:X_ !.T.^.!.T.T.~.T.E.T.T.U.Y.E.U.U.Z.U.C.V.E.SXv.C.C.C.V.C.v.V.H _ I _ G.A.T.!.R.Z.Z.A.C.v.] ] ] x.b.r $ M y                                           ",
"                                        x.7 7 $ ! x.b.U.-._ r H y U _ _ U I T J I I _ _ T ^ _ _ ` ` _ ! ] _ _ ] _ ] ] ` ] [ _ ] ] [ _ _ x.b.x.x.I r x.v.T.H CXx.A.E.AXx.7 K r 7 q + r H $ $ r U H $ r W x.x.x.b.T.0 H ] 7 $ . U o.H V.^.!.!.!.!.HXb.7 [ 7 + . . . . . o $ + @ O 2 q . . . X ! ~ H r VXA.Y.R.^.b.V.                                                                                                                                                                                                                                                                                                                                                                                                    Z.^.!.T.S.x.P.c K c q . . . , 7 * O o $ $ + + . + . . . 7 _ H x.GX!.!.U.Y.~.C.H I U $ + 7 ] r q :Xv.v.c.v._ r 7 b.K q $ r r + $ r 7 _ r q Z.KXU.v.Z.H C.U.v.H _ -.x.] ` ] [ _ _ ] ] ! ! ^ _ ! _ ` J J _ _ _ _ _ _ U _ [ _ [ _ _ I _ ! _ _ ! I _ I H v.] x.T.x.b.r $ H M                                           ",
"                                        x.7 7 $ I x.U _ _ ] r c y M J J H H I I U I _ _ _ _ _ ^ _ _ ! _ ] ` _ _ ^ [ ] [ [ _ _ ] ] [ _ _ ] x.x.x.H b.b.v.T.H C.x.U.!.AX] r _ H q 7 + r K $ 7 r ! U $ r _ x.x.b.b.!.7 H _ 7 + + I ] H !.CX!.Y.^.^.LXv.7 b.7 . . . . . . . . . . . . + . + . . q 5 , r ^.A.Z.Y.~.x.A.                                                                                                                                                                                                                                                                                                                                                                                                    U.^.!.U.V.S.Z.q , , $ . . . + + . . . . . . . . . . . . 7 I H x.KXT.^.T.^.^.C.c U U $ + 7 ] r r ^.v.x.b.b._ c r v.U r $ r H + $ r r ` r r Z.GXG.V.V.q Z.Z.T.] I ] c.] ] ] _ _ _ ] ` ! _ _ ` ` _ ! J I [ ] _ _ I I I _ _ I [ _ I _ I _ I U H _ _ I H A.+.I _ [ V.H $ U H                                           ",
"                                        x.7 q $ H -.] x.-.V.` K U J I ^ I I _ _ 3.] [ _ _ _ _ I [ ` ` [ _ [ [ ] I ^ ` [ ` _ _ ] x.x.x.] [ x.b.x.U T.x.b.T.v.!.Z.T.ZXSX-.q I r 7 r $ r H $ 7 r _ I $ r _ x.b.v.x.^.r I [ 7 + + U x.r Y.VXVX^.VX!.KXv.r x.7 + . . . . . . . . . . . . + O . . , 5 + H !.Y.U.Y.^.v.U.                                                                                                                                                                                                                                                                                                                                                                                                    U.^.T.C.C.S.V.c . - O . . > > : . . . . . . . . . . . . 7 ! r x.GXT.T.T.^.VXA.H U U $ + 7 ` H c CXm.C.c.c.! r 7 b.H q + q H . $ r r [ r c Z.GXU.G.C._ U.Z.G.A.c.] x.x.x._ [ [ _ _ ` _ ` _ ` ` [ ` _ _ [ [ ] _ ! I _ ` ` I [ [ [ / I I ! _ I _ I _ I Z.x.] v.x.b.J 2 T J                                           ",
"                                        x.r q $ I x.x.x._ v.C.V.c.x.c.v.x.c.v.b.b.x.x.x.v.C.C.N.C.A.Z.Z.b.m.C.C.V.V.A.Z.A.A.K.R.A.U.T.T.Y.U.Y.U.C.v.v.v.T.T.!.!.~.SXAXb.r H r c r $ r H $ $ r _ _ $ r _ x.x.v.x.!.7 H [ $ $ + I [ U Z.VX^.!.T.^.HXb.7 [ $ $ . . . . . . . . . . + . $ . . . + q # H !.T.Y.T.VXZ.Y.                                                                                                                                                                                                                                                                                                                                                                                                    C.^.T.C.Z.N.N.H . O X . . 4 > + . . X . . . . . . . + . 7 [ U +.HXT.!.Y.!.VXZ.H I I $ + 7 x.c r ~.v.v.m.b._ c q b.H r $ q H . , r q ` r H C.GXT.U.Z.A.Z.Y.Z.Y.T.T.!.T.Y.Y.U.Z.V.V.V.C.A.V.V.V.A.U.U.C.N.V.G.A.C.v.V.V.Z.C.m.C.V.Z.c.v.b.C.C.v.b.Z.C.Z.] [ x.b.x.H $ T H                                           ",
"                                        x.r r $ q ! ! _ ` x.] x.x.[ [ _ I _ ] [ ] [ [ ] ] x.[ I _ [ x.b._ _ _ _ I U ^ ` _ _ [ ] x.x.v.A.A.C.v.x.+.b.Z.A.T.T.T.T.!.:XA._ r c q q 7 + q r $ $ q ! _ $ r _ x.x.V.v.U.7 _ x.$ . . H ] H v.1X^.1XY.!.KXx.7 b.$ $ + . . . . . . . X X . . . . . X . . + H ^.Z.U.T.VXK.R.                                                                                                                                                                                                                                                                                                                                                                                                    V.^.!.A.Z.S.N.J . X X . . O . . . . . . . . . . . . + . $ I H ] FX!.!.Z.Y.^.C.H ! I $ + 7 x.c r ~.b.v.v.b._ c r b.H r $ 7 H + , r q [ c H ! ^.T.Y.Y.T.V.Y.!.!.!.E.E.Y.v.v.x.x._ _ _ [ ;.` ` ` _ [ -._ ! ` ] [ [ _ ` ` ] ] _ I [ ` c._ [ _ _ [ [ x.b.v.] _ I U I U q H q                                           ",
"                                        x.r r , , , $ 7 7 q q r r 7 7 $ + $ 7 7 7 7 7 7 7 q 7 $ , $ q r 7 7 7 $ 7 7 7 q r q r r 7 7 r U U H r r 8 H r x.] H _ ] [ x.r r r H r q 7 + q c $ $ 7 I I $ r _ x.b.V.V.AXH H I $ $ $ H ] r ).CX!.!.T.^.KXx.7 V.7 O . . . . . . . . . . . . + . o O . . + C VXA.Z.T.ZXA.U.                                                                                                                                                                                                                                                                                                                                                                                                    V.^.!.C.S.V.V.J @ . + . . . . . . . . . . . . . . . O + 7 _ H ] CXT.U.Y.^.!.V.H ! ! $ + q [ H H CXv.V.b.b.I r q b.H q + 7 H @ + r r ` r r 7 H x.] x.x.! [ _ _ ] ! I _ r 7 7 r 7 7 2 7 q 7 2 w q 7 7 q q r q q 7 7 r r r q , $ $ 7 q 7 7 q e r 9 7 r r r 7 7 7 7 $ 7 [ H                                           ",
"                                        x.r r , . . $ 7 + $ 7 , , + $ $ + + $ . + . + $ $ $ $ $ $ . $ , $ $ $ $ $ $ $ + $ $ $ 7 7 7 $ $ - $ $ 7 7 $ + $ + $ O . , r , $ $ 7 r c 7 $ 7 r $ , 7 I I $ r [ v.v.V.V.^.7 I x.7 . + U b.r Y.CXT.T.T.!.HXx.7 b.7 $ . + . . . . . . . . . : + . # # . + + C ^.Z.Z.).VXN.A.                                                                                                                                                                                                                                                                                                                                                                                                    Z.VXT.A.S.U.).H . . + > > . . . . . . . . . . . . . $ + 7 I U x.GXT.!.Z.!.^.V.c I I $ + q x.c H ^.m.c.m.m._ H r v.K r $ 7 H @ + c r U 7 7 7 . + . $ 7 7 $ , . $ r 7 7 + + $ $ + + + $ , $ $ 7 q , $ , $ $ $ $ + + $ , + $ $ $ , $ $ + , 7 , 7 $ q c 7 , $ $ + $ 7 r I H                                           ",
"                                        x.r r , $ r ! _ ` _ [ ] [ I K I U I I I H K ! _ _ _ _ _ _ ! ] x.x.` [ [ ] x.] _ ` ] 3.N.v.b.[ _ x.v.b.v.x.] _ [ C.Z.v.x.v.V.v.r $ , r K 7 + 7 r $ 7 r _ I - r [ V.V.S.v.CXr H x.7 + + I b.r C.^.!.VX!.^.LXx.$ v.$ $ o . . . . o # + + + , 3 1 + > # . . $ r !.Y.Z.v.^.v.C.                                                                                                                                                                                                                                                                                                                                                                                                    Y.CX!.R.U.).Z.H . + + > + + @ @ + . . # # + + . . . $ + $ [ H b.KXT.Y.Z.!.VXA.H I ! , + q x.c 7 :Xm.V.m.V._ H q x.H q $ 7 r + + H q q + $ H ` I [ v.C.V.c.] ] ] x.` x.c._ b.x.] ] x.b.v.b.c.v.m.c.8.] [ ] ] x.` [ ` ] _ ] ` ] ` ] _ ] _ I ! ` I ` -.] [ _ [ I r r r I H                                           ",
"                                        x.r r $ K v.x.b.x.] C.c.x.` [ v.[ _ G.m.] x.c.v.x.C.V.Z.V.E.T.!.E.R.Y.Z.U.T.U.Y.Y.Y.R.Y.!.!.^.U.T.T.Y.T.AXT.T.!.!.1XCXT.^.CX^.v.$ r , 7 q $ , q $ , r ! _ 7 7 _ x.v.b.b.^.r H ] $ . + I x.r U.CX^.VX^.T.GXb.$ ] 7 7 $ . . . # # = # . # 2 8 @ . + . . . @ s R.A.Y.Z.^.v.C.                                                                                                                                                                                                                                                                                                                                                                                                    Z.CXT.Z.U.V.V.s . . . + . . . 8 7 . . = o $ $ . . . $ + - [ U x.SXY.T.Y.Y.~.V.H I K $ + 7 ] c r SXv.b.m.V.] H r x._ 7 + q r + $ 7 7 $ , H Z.SXT.!.^.CXVXSXZXVX!.Y.T.^.^.^.~./.Y.Y.U.Y.R.R.T.T.!.T.!.P.T.Z.V.C.C.G.T.G.-.b.V.v.v.m.V.C.c.c.v.;.-.-.c.Z.Z.C.V.c.x.r 7 H H                                           ",
"                                        x.r r $ r [ ] _ ` [ _ ` _ ! ! ] _ _ -.` _ _ _ ] ] b.b.] x.x.-.x.b.x.x.x.-.x.] c.b.x.3.x.v.b.b.b.b.b.v.b.b.v.V.A.Y.!.Y.Z.!.VXAX_ [ r 7 $ $ + 7 r $ , r I I $ r ] b.b.v.v.!.r U x.7 $ + H _ H x.^.!.!.U.T.GXb.7 ] - $ + . . + # = 4 + . $ % 8 . . # # X X X r VXU.A.T.(.b.C.                                                                                                                                                                                                                                                                                                                                                                                                    A.!.T.Y.A.A.A.0 . . O $ O X X q 7 + . $ $ $ $ . . . + . $ x.H x.KXT.!.T.R.E.b.r U K , + 7 ] c r VXb.Z.v.C.` c r b._ r $ c H $ $ 7 $ $ H C.V.FXA.U.G.Z.T.!.T.Z.C.m.b.b.c.b.v.x.] b.c.v.x.V.v.v.c.v.c.8.v.c.' ] [ x.] x._ _ ] x.] ` ` [ _ ! ` ` / ! / ` -.-.] U H 7 $ H H                                           ",
"                                        x.r r $ r _ [ Z._ I ` _ _ _ ! _ ` c.` x.x._ ! ] ] ` x.c.x.8.` x.] x.` x.-.] _ c.b.c.] x.b.x.x.b.v.b.v.b.x.C.V.b.!.A.Y.C.G.!.ZX-.r I r . . . 7 c $ $ r I U $ r x.v.v.v.V.ZXr H ] 7 + + I b.r b.^.^.!.!.Y.AXx.r x.7 $ + + . @ # 4 7 . @ % u & . . 6 > $ . O 9 ^.A.G.Y.CXA.A.                                                                                                                                                                                                                                                                                                                                                                                                    v.!.!.T.P.A.A.r X . $ O 8 . . y s $ + . 2 $ $ + . . + . $ 7 U v.KXU.!.E.!.CXG.I ! U , + 7 x.H r U.v.m.m.C._ H q v.I q + c c 7 . + , _ H 7 C.FXZ.T.U.G.G.T.U.V.V.C.V.v.b.v.c.m.A.x.x.| x.x.x.-.c.v.b.=.8.=.-.-.-.m.-.v.c.-.x.c.-.=.-.] ` _ ` ] ! _ ` _ _ I ` ! U r 7 I H                                           ",
"                                        x.r r $ H _ -.K I ] ] ! _ ` ! ! ! [ K [ ] ] [ _ I [ ] [ _ ] x.] _ x.` ` ` _ ! x.c.b.-.x.] x.b.v.V.v.x.v.b.v.Z.V.V.x.] _ Z.!.ZXx.+ I ! + . . q c $ $ r U I 7 r [ b.V.V.V.!.r H x.7 $ + H _ r Z.T.!.!.T.T.KXC.7 _ 7 7 + . . @ $ q q . 7 7 T O # > V V > + . r ^.U.V.^.DXV.Z.                                                                                                                                                                                                                                                                                                                                                                                                    V.^.!.Y.A.C.A.8 @ > z S 6 6 . 0 I 4 $ . 8 % $ + . . + . $ _ H x.GXU.!.!.T.VXA.K I K , $ 7 -.! q :XC.V.b.v.` H 7 v.H 7 . r H 7 + $ $ I r r V.GXZ.C.v.Z.Y.Y.G.Z.A.V.V.v.x.x.x.b.x.b.[ _ [ 3.x.] -.c.8.=.=.8./ ! ` x.8._ ] _ b.c.8.c.8.-.! / / ` Q _ ' _ I U _ U H r $ _ H                                           ",
"                                        x.r r $ r U ] H H _ [ _ I _ / ! K q 7 c c.K q 7 r ] q q H H c.r ` I ` P r H c ` / I C 7 $ H [ H V._ v.v.b.V.U.Z.)._ v._ m.ZXDX] 7 H _ r $ $ r c $ , r I I 7 7 _ x.v.v.v.U.r _ x.7 + $ H _ 7 v.!.T.^.T.Y.HXv.r x.r $ . @ . $ 2 q q # x v ! + 1 &.y.-X&.S 6 7 T.Y.Y.v.CXA.Z.                                                                                                                                                                                                                                                                                                                                                                                                    Z.!.T.U.v.D.D.i 1 S u.*X4.:.1 5 Q 6 6 + 8 7 $ $ . . + + $ I H b.FXA.T.Z.U.T.b.c U K , + 7 x.U q VXV.v.v.x._ c 7 v.H r $ r H + . H H [ q r C.KXC.Y.x.c x.G.Y.Y.C.C.U.v.H r c ` _ r H H 3.q 7 c c c.K 8.A ` C c c e ] 7 K r e H P ! K ` K ` ' ' ' ` ` ` _ -.m._ H r 7 I r                                           ",
"                                        x.r r $ c c r c._ x.] I ! _ ` ] ` H ` [ x.I _ b.-.8., ` ` I b.7 8.I _ U [ ] K [ I [ b.] U v.v.U v.H Z.v.A.C.b.V.v.T.U.^.x.AXZX] 7 H H r 7 $ r H $ , r _ H $ r _ x.v.v.V.^.H H x.8 . + U x.7 A.CXT.Y.^.!.FXb.7 x.$ 7 . . . $ , q , = A A ^ + 1 &.oXeXt.@.> e ^.v.b.T.VXA.Z.                                                                                                                                                                                                                                                                                                                                                                                                    U./.!.U.Z.T.).M z @.p.eXt.:.1 : Q 6 6 + % 7 7 $ . . + $ - _ r ] T.U.Y.Y.Y.!.V.H I U , + 7 v.r c Y.v.b.C.v.` r 7 v.H r $ r H 7 7 c r _ q r Z.KXG.Y.U.G.Y.U.A.U.Z.C.C.-._ V.v.v.U _ b.v.V.q x.x.` b.e ' v ' x ` ] C =.$ -.v.c ] x.` c _ Q ] =.` ' / / ! K _ I H C r 7 _ H                                           ",
"                                        x.r r $ 7 c U H _ ] I -.-.] ` _ I 7 C e x.P r H ! -.7 _ c.8.x.r ] I I K 7 C 7 ] I [ V.] r V.[ _ r ] C.C.V.C.S.V.A.A.] [ Z.CXAX] r c I 7 7 $ q H $ , r _ U $ r ] v.v.v.V.ZXr r b.r . . H ] r V.!.VXU.T.T.CX] 7 V.7 7 $ + . , 6 e $ r C H T @ @ < @.t.b z # s ^.v.U.T.CXv.Z.                                                                                                                                                                                                                                                                                                                                                                                                    Z.^.^.T.T.U.C.r , h S :.b z . . K 6 5 O 0 r 0 8 . . + $ - I r x.GXU.T.A.T.~.V.H U H , $ 7 b.c r :Xv.C.v.m.` r 7 m.H 7 + r U , , c H _ q H U.GX!.A.m.C.C.T.U.Z.C.A.G.c.U I H ] [ H _ I v.7 ] x.x.c.Z =.Z ' e K q 7 ` , ` ' r ] -.` K K ` -.8.` ` ' ` ! K H c K K c $ _ r                                           ",
"                                        x.r r $ r r r _ ` ^ ] 3.` ` ] ` ] ! I c ] I U ` x.] 7 ] x.x.v.q -.I ! H H ! M v.^ ` A.` K c.m.-.9 V.V.V.C.S.Z.v.b.V.x.v.~.AXDX] 7 H I q 7 $ 7 H $ $ q ! _ $ 0 ] v.b.x.x.T.r r x.7 . $ H ] r Z.^.!.!.T.!.KXb.$ V.7 $ . $ o 4 V D e I I T i X + < S &.z + . H !.v.U.T.CXG.Z.                                                                                                                                                                                                                                                                                                                                                                                                    ).T.!.T.U.H.B.q + : v D z + . . H e C 7 H U H r + + . O $ U H S.GXT.T.U.T.~.V.H U K , + , x.H q ZXV.x.x.m._ r r m.H 7 $ r U 7 7 q r _ r r U.KX!.K.Z.C.G.T.Y.G.Z.C.N.v.x.x./ ` ^ U ] ] v.r ] x.x.c.x 8.Z ' c / C ` -., / ' x ` ` ] ` x ] 8.' ` ( ' ` I _ / _ P e H 7 x.H                                           ",
"                                        x.y 0 O r r c / ` ^ | [ ^ ] -.-.! K K r ` I H [ [ b.2 ^ ] r b.y _ M ! K K ] % b._ _ C.' K V.V.c.r C.c.V.C.V.Z.c.Z.C.v.V.Y.SXZX' 4 H ! 7 7 + q H $ 7 c / _ 7 r [ v.V.m.v.T.r H ] 7 + $ U x.r U.ZX!.Y.U.T.SX[ r r 8 $ $ O * 9 A Q 5 _ W ] H o + h b V 3 . . 7 !.Y.Z.U.AXZ.U.                                                                                                                                                                                                                                                                                                                                                                                                    Y.VX!.Z.A.P.V.2 . + A V V # . X _ c ' v ~ Q K C . # + + $ M U N.HX!.T.P.Y.^.G.r ! K 7 + 7 -.K q U.v.m.G.V.` c r m.U 7 + 7 r $ $ r r _ r q Z.GXU.Z.Z.v.Z.R.P.P.C.V.A.v.[ ' P ' ` ^ ] ^ v.w [ ^ r b.c ' A 7.C =./ C 8.q ` ;.c ` =.' / e =.8.o.' ( =.` ;./ I I P C q q P C                                           ",
"                                        x.r 0 O 7 r K ( ` ^ [ ] ] ` ] x._ c e 4 ] H 7 $ 2 ] N w 0 _ v.J q c ' Q ` x.L b._ ] M.' ` K.H.c.K m.V.C.b.v.G.m.T.V.Z.G.Z.CX^./ 4 K I r 7 + q r $ 7 c / U $ r -.v.V.V.m.VXr r x.H $ $ H [ U V.^.!.!.Y.T.GXv.r [ 7 $ + r 8 x.M.W.Z G.v.).I + z S %.5.6 q . e ^.Y.A.Y.AXT.U.                                                                                                                                                                                                                                                                                                                                                                                                    U.^.!.Y.U.Z.S.w $ z #.t.&.6 4 . Z.8.B.;.B.W.C.b.4 7 . + @ H r x.FX!.T.T.E.^.Z.H ! K 7 + 7 -.c q :Xv.m.V.v.` H 7 V.H r + r H $ $ y r _ 7 2 Z.HXU.C.] ] C.Q.T.T.P.V.N.] U K P ` ^ N M J ] I $ r I x.c e A w.D ' 8.e c.4 -.c.r ` =.' / C 8.8.' ( ( =.;.=.` E I I C e q ! C                                           ",
"                                        o.e 9 O q r Q ' ' ( ) ( / E / ` [ -.3.x.[ I ] 8.=.=.=.8.b.b.b.m.=.9.q.M.M.m.x.m.3.b.M.m.v.K.H.H.V.v.C.c.Z.V.V.N./.P.P.M.P.AXQ.P , P P c 7 + 7 r $ 7 c ` I , r x.v.V.V.v.ZXc H x.r $ + U ] U U.^.E.T.^.T.GXv.7 x.7 * . r q B.M.>XD >XP.^._ > #.%.%X8X&.z , e !.U.A.T.CXR.Y.                                                                                                                                                                                                                                                                                                                                                                                                    Y.VXT.U.C.U.V.8 5 b oX8X%Xb Q . E.M.H.x.V.E.B.b.# 7 . $ $ ] H c.FX!.U.T.T.~.Z.K ! K 7 $ 7 v.H q VXb.V.v.C.` H q C.H r + r H $ $ H r ] 7 q W.GXP.G._ ] v.G.E.E.Y.Z.V.m.m.B.B.m.V.N.x.m.C.C.x.] ] ] 3.x.9.B.B.Z.c.8.c.' =.8.' 8.8.8.=.' 8.' ' _ ` ` ;.` ' _ _ I r c 7 ^ M                                           ",
"                                        o.9 9 $ r r ! ' ' =.) ) ) / ' ` =.c.-.x.c.b.8.( =.=.=.9.M.=.M.q.9.q.9.M.B.M.m.v.v.m.M.C.T.G.m.M.B.8.H.H.v.N.C.G.C.V.C.H.W.AXQ.Q $ Q P c 7 + 7 r $ 7 H ` ` 7 r ] v.V.m.x.U.7 U v.r $ @ r ] r Y.^.T.U.^.T.SXx.H b.$ . . r r M.B.>XD P.H.VXU z f.oXjXjX*Xb A r ^.Z.U.Y.VXY.Y.                                                                                                                                                                                                                                                                                                                                                                                                    Y.^.T.U.A.).Z.r D @.8XnXiX$.;.: Y.8.B.o.o.P.M.c., 7 . $ $ _ I | KXZ.!.U.!.^.C.H I H 7 + 7 ] H q T.C.V.x.v.` c r m.U 7 $ r H $ $ H r x.q e I.KXQ.Z.[ V.G.m.R.U.P.H.C.C.H.P.B.m.m.N.b.B.8.M.' 8.c.-.3.c.;.q.M.m.b.c.;.=.' 9.;.8.9.9.9.q.7.=.' ` =.( ;.` ] _ [ I H r 7 ^ H                                           ",
"                                        +.e e $ e q ! ` ` ` ` ` ' ( ;.;.9.9.=.q.9.9.=.' 9.q.9.;.;.;.M.9.7.q.q.q.B.B.m.M.m.m.m.m.B.B.H.B.B.M.F.H.G.Z.H.G.C.T.G.G.W.ZXQ./ + Q _ H 7 + q r $ 7 c ` _ $ 7 ` b.V.m.c.T.r H [ $ $ $ r U 7 V.!.T.T.U.T.HXx.r ] 7 $ + . * U ~ ;.5 ( Z o.s < 1.-XnXjX%X@.A H ZXU.Y.Y.CXY.U.                                                                                                                                                                                                                                                                                                                                                                                                    T.VXT.Y.U.U.U.K D @.8XjXiX@.D . -.! / C C / P K . $ . $ 7 I r v.HXT.U.T.T./.C.r U r 7 . q x.H q Z.v.v.b.V.] c q v.H 7 $ r H $ $ r r [ 7 q Q.KXE.T.V.x.C.H.P.H.U.W.P.H.H.C.C.m.V.m.M.=.9.M.9.8.8.M.M.M.;.B.M.x.M.8.8.;.9.M.9.9.9.9.9.9.*.=.) ) 9.*.*.~ ` _ [ f U 7 q _ C                                           ",
"                                        x.r e # q r ! ` ` [ [ ;.;.-.-.;.;.;.;.q.P.q.9.M.9.=.;.9.M.M.;.w.q.q.q.9.M.C.B.M.B.B.H.M.M.q.B.B.B.B.F.H.P.H.G.H.N.K.N.m.Q.ZX^.` + Q _ C 7 + q r @ 7 c ! K $ r [ v.m.v.m.~.r U x.7 + . 7 U r Z.!.!.T.U.T.HXb.r v.7 . . * o I ` 3.9 E C o.9 . l r.=X6X,.n 5 H ZXZ.U.Y.CXV.Z.                                                                                                                                                                                                                                                                                                                                                                                                    Y.VXT.Z.Z.Y.G.K < n p.6XXXS 6 + _ ! K C Z Q Z C + + . $ r [ J b.HXY.T.T.T.!.Z.K U r 7 . 7 x.c c ^.V.V.V.m.] K q C.H r + r H $ $ r c _ q q W.KX:XK.N.c.Z.M.H.H.W.Q.Q.W.Y.H.M.M.c.x.9.Q 9.q.B.M.M.M.9.9.q.F.M.8.;.c.=.9.=.;.B.q.q.M.9.9.*.=.*.*.7.:.*.( ` _ W 0 K 7 e / H                                           ",
"                                        x.r q + 5 c ! [ [ [ ;.;.N [ -.' =.=.9.' B.9.9.M.9.M.M.;.;.B.q.w.q.q.q.9.M.B.M.M.B.F.P.B.F.q.q.B.B.B.B.H.P.G.P.H.H.H.B.B.Q.AXZX` # Q _ r 7 + q r + 7 c ! K 7 r [ m.m.v.V.VXq H ] 7 . 7 I [ _ !.!.T.T.T.!.HXx.7 b.7 O + O O s H ! 8 _ f [ - . z b @.t.S h 4 s ^.U.Z.T.ZXb.A.                                                                                                                                                                                                                                                                                                                                                                                                    V.T.T.Z.Z.G.C.c > < S &.@.z # # / K c w H K c e . + . + 0 ] H x.FX!.!.~.!.T.T.x.! K 7 . 7 x.c q ^.v.v.V.m.` K r Z.U r + r H $ $ H H ` q 5 L.JXQ.G.C.V.H.M.F.L.I.W.W.W.G.B.B.M.M.3.M.;.c.m.M.c.M.q.q.w.w.q.9.;.9.9.9.;.9.q.M.q.7.q.q.q.9.:.;.7.9.q.:.*.( ` E r c q q I I                                           ",
"                                        x.y q + e c K _ ` ' 7.7.) 9.7.7.7.7.0.9.9.9.M.M.M.M.;.M.B.M.F.w.F.w.q.B.B.B.B.F.L.d.L.L.B.B.B.q.M.B.F.L.I.I.I.L.H.C.B.B.W.CXVXQ # P I c 7 + 7 r + 7 c _ U 7 q _ V.V.v.V.DXr H _ 7 + r _ ] A.T.Y.U.!.T.!.GXv.r x.7 . @ + $ 7 7 c @ 8 & f 8 . x v D V z : # r ^.!.U.R.ZXV.V.                                                                                                                                                                                                                                                                                                                                                                                                    b.T.!.U.A.W.G.q @ + 3 k v 5 # # P 4 , @ 2 w 4 4 . $ + + 7 _ H x.FX(.T.T.T.T.~.U.` _ 7 + 7 [ H q ~.A.V.V.b.] M r v.H 7 $ r r $ + U c ` q 6 d.wXI.P.m.A.C.B.d.I.I.I.I.I.I.B.F.F.B.q.M.q.q.B.B.M.M.B.7.q.e.d.q.;.=.=.q.9.q.q.w.d.q.q.0.0.0.7.0.0.0.e.5.7.=.' ( P w q 7 K T                                           ",
"                                        b.r q @ q q r ` ( 7.qXqX4.3XqXeXqXz.qXe.7.I.q.w.I.w.9.L.M.B.B.w.L.w.q.M.B.B.B.I.qXd.I.;XL.w.wXw.I.I.l.l.qXqXrXl.L.B.H.C.H.CXZX/ # P ! r 7 + q r $ 7 c ` I , r _ v.m.m.m./.7 I I $ r _ _ Z.!.T.!.T.v.Y.T.GXx.r x.7 . + + + q x c 7 7 8 f q . : h b S v > + r E.C.U.T.ZXC.A.                                                                                                                                                                                                                                                                                                                                                                                                    v.Z.T.Y.Z.P.b.r . . 6 l l > 6 + Z 5 * + 7 r q 7 + + + . 7 ] r c.FXT.~.C.Y.Y.U.T.U.-.I 7 , ` H r E.V.m.V.V.] c r c._ 7 $ r r $ $ H r ] q 5 d.rXI.P.M.H.H.L.*XeXeXqXqXl.wXz.qX;Xz.L.I.d.w.w.q.L.B.q.q.w.e.0.q.9.9.q.q.q.q.w.I.I.l.5.I.l.5.qXz.l.qXu.l.l.*.=./ K c 7 q ! J                                           ",
"                                        b.r w , 3 M q / ) 6.qXy.j.3Xj.3Xj.k.s.5.0.d.0.7.q.7.q.q.q.q.w.w.d.7.q.M.M.B.w.L.l.d.z.I.d.d.L.e.s.s.z.qXl.qXqXl.F.M.B.m.P.CXwX/ # P ! c 7 + q c $ 7 C ` ] r r _ v.m.C.C.AXr H H 7 U _ _ !.T.Y.T.T.!.T.!.GXS.r ] r . . . . , q q , 4 4 r q @ z b @.4.S v + 7 T.C.U.Y.^.v.A.                                                                                                                                                                                                                                                                                                                                                                                                    A.Y.Y.Z.Z.S.S.8 . 6 G %.@.l > + e 5 # . $ 7 7 , . . + . 7 _ H c.KXT.Y.Y.Y.C.Y.T.^.b.x.K 7 K r r ZXb.A.V.b.` c 7 v.H 7 + r r + + H H x.r 5 w.wXF.F.B.H.H.L.3X3X3XqXqXl.d.d.l.z.z.I.l.d.L.L.B.w.q.B.F.d.w.w.q.q.q.q.q.9.0.w.d.e.5.e.e.l.e.e.k.y.&Xu.k.qX0.9.' P c e 5 / H                                           ",
"                                        b.y c , v K r I ) O.eX4.6.z.e.s.e.e.d.#.0.q.q.q.9.q.w.9.B.q.B.w.q.9.q.q.q.M.B.F.d.d.d.I.d.L.d.d.w.e.l.;X;X;XqXl.I.P.H.B.P.VX:XP # K I C 7 $ r H $ 7 c ` _ $ r ` v.V.C.m.^.e 0 r H [ x.T.(.T.A.T.T.!.!.VXV.x.H v.7 $ . o . $ $ , O = 4 e c + h @.$XiX1.n > $ Y.C.U.T.1Xv.A.                                                                                                                                                                                                                                                                                                                                                                                                    A.T.T.Z.V.b.n.4 # S oX8Xa.S > + q q o o o $ $ $ . . . . 7 x.H V.[ DXE.E.E.C.K.U.!.^.x.] q 7 r H VXV.C.V.m.` c q C.H 7 + r y + + H H x.c e M.DXM.M.B.H.H.L.3X3X*X;XI.J.d.L.l.d.J.I.J.d.L.B.B.q.q.q.B.F.d.e.q.q.q.q.q.9.q.w.F.0.w.e.0.s.e.s.d.5.s.u.u.qX*.*.=.Q Z x x ( K                                           ",
"                                        b.r c 1 x 4 H _ ( F qXy.6.e.s.e.e.e.e.0.0.7.7.9.q.q.q.q.q.q.0.d.d.0.w.q.B.M.F.F.d.d.d.d.d.d.l.d.d.l.l.;X>XI.qXz.L.P.F.H.P.wX/.P # C I H q $ r c $ 7 c _ ] 7 r ` b.m.C.m.ZXH $ f [ b.A.!.^.Y.Y.!.!.^.!.U.r _ H U 7 $ . . . . + $ o o # 4 9 . 1 @.-XkXt.n > $ Z.v.A.T.VXv.A.                                                                                                                                                                                                                                                                                                                                                                                                    A.!.!.Y.V.v.m.e > S *XiXa.b + . 4 , + . . O + + . . + . $ r H H 2 G.~.!.Y.!.] U.T.T.T.] _ 7 7 H ^.A.V.V.C.] c r G.H 0 + r H + + r r ] r w 3.DXM.q.B.H.H.L.qXeX*Xl.I.J.L.d.z.d.d.I.J.I.L.F.B.F.P.F.B.d.d.0.q.q.q.q.q.7.q.w.d.w.d.e.f.z.5.s.s.k.p.u.p.qX7.*.7.Q K x x ( K                                           ",
"                                        x.r v 1 A x U U I *.l.u.5.qX;XqX*X*X*Xs.I.L.w.7.q.q.:.w.e.d.d.s.d.d.e.e.d.q.w.w.F.F.L.L.>Xl.;XqX;X;X;X>X>XI.qXl.L.P.H.Y.P.:X/.P # c I H 7 $ r c $ , c _ -.7 r ] v.V.C.v.~.7 $ H [ x.CX!.T.T.T.!./.^.^.I H I 7 7 7 $ . . . . # # O X @ 7 9 . @ k $.,.b z # e Y.v.V.U.^.v.A.                                                                                                                                                                                                                                                                                                                                                                                                    U.T.T.U.N.M.B.5 + l 2.$.2.h . . q @ @ . O $ @ + . . + . + r + c H _ CX~.E.T.Z.T.Y.T.ZX-._ H 7 c VXv.N.C.V.-.c r A.U 7 @ r H + + r r ] r w m.SXH.B.B.L.P.I.qXqX*X;XqXqXqXqXqX;Xl.;Xl.;XF.F.F.B.F.F.q.w.f.l.q.q.9.9.7.7.7.w.e.e.;Xs.*X*X3X3X3XqX3X3X&Xl.0.*.' / K w x ( K                                           ",
"                                        x.r x < z A H [ [ ;.5.4.5.5.u.u.6.6.6.s.0.0.0.7.*.0.0.0.s.s.s.s.k.u.u.l.s.f.d.d.B.q.w.w.L.d.z.k.k.&X*X*XI.L.l.l.F.H.G.H.H.^./.K # r U H 7 $ r c $ 7 c ` _ $ r -.V.V.V.b.VX7 r _ _ AX!.T.T.^.T.!.!.VX_ r r U 7 7 + $ . + . # > # $ X @ 7 U o @ @ j j z , # H !.C.V.Z.!.v.A.                                                                                                                                                                                                                                                                                                                                                                                                    Y.!.Y.C.c.C.C.C > 1 k j j : . $ r @ @ . $ $ @ . . . + + . + r 7 U q x././.T.!.E.Y.!.U.!._ _ r r !.v.c.V.C.-.c r m.H $ @ r H + + r r [ x x F.JXP.B.B.B.P.L.z.k.l.*X*X*Xk.k.k.s.s.d.d.L.d.F.d.F.w.d.s.f.u.u.w.q.9.9.9.*.*.7.0.s.s.s.u.j.j.j.j.j.j.j.y.4.7.( ( P L v x ' U                                           ",
"                                        8.e v 6 z A r _ / F k.y.5.d.0.s.5.e.0.5.#.0.0.0.#.5.5.u.u.3X3XeXeX8XeX&Xh.s.s.e.w.w.w.d.d.l.qX&X3X3X+X*Xl.I.qXl.d.B.P.P.G.^.~.K # c I H q $ r c $ 7 c ` ] q c ] V.m.m.m.U.7 r H Z.Y.T.Y.U.^.b.!.VXU.7 H U r $ . . $ $ . X . # o $ . + , 5 # + . + # o . o H T.V.C.Z.T.c.A.                                                                                                                                                                                                                                                                                                                                                                                                    T.^.T.A.c.V.n.0 . . # 5 : . . $ = o . . $ $ @ . . . + + . + 7 $ H I q E.!.!.!.T.C.U.Y.!.Y.! c c Y.V.c.V.C.-.H r v.H 7 + r H + + r r _ w e F.JXP.M.B.B.H.d.k.&Xk.*X*X*X*Xl.l.s.d.q.d.d.d.d.d.d.5.s.k.&X3X3Xs.q.7.;.=.*.*.7.q.w.0.s.l.k.p.h.s.s.k.y.u.5.7.=./ P K e x ) P                                           ",
"                                        8.e v 6 A x U _ / 7.rXy.5.d.0.d.0.d.0.#.7.w.0.6.6.6.z.qXrXu.j.y.y.h.y.eXeXqXqX5.s.e.w.F.w.d.rX3XrX8XoXeXqX;XrXk.d.F.H.H.P.:X>XD > C Q C q $ r c @ , x ` ! 7 r ] C.V.v.v.^., r H T.T.Y.!.!.^.!.!.^.r 7 r H $ . $ . 7 . X X X o . $ . + , 5 4 # . . o . . * H T.V.Z.Y.T.b.A.                                                                                                                                                                                                                                                                                                                                                                                                    U.T.Y.Z.b.n.A.f o . . . . X . - o = . . $ + @ . . . + $ . $ . $ r H r K SX~.!.!.E.G.T.G.C.H 7 r ^.v.C.V.b.` K r m.U 7 + r I $ + 7 4 ! q 5 L.JXL.M.L.B.H.d.&X8Xk.rX*X*Xl.z.l.d.d.F.q.J.d.s.s.z.u.qXqX3X2X3Xs.q.7.*.:.*.7.0.e.e.e.0.5.z.s.l.s.z.;Xu.&Xl.*.;.Q H H e z ) P                                           ",
"                                        x.e A 6 A e K / ( 7.rXy.6.5.0.e.7.0.:.:.0.5.t.4.j.3Xk.s.f.f.e.e.&Xj.s.f.s.l.k.qXj.h.e.d.J.d.d.z.s.z.l.;X;X*XrX&Xd.F.M.B.C.wX;X#.5 K P C 7 + q c @ 7 H _ _ , r ] b.v.v.V.T.7 r H T.U.C.T.~.E.^.ZXI 7 c U 7 . . $ . r + . . . . . + + + . , 4 . . . o . . $ r T.Z.A.Y.Y._ V.                                                                                                                                                                                                                                                                                                                                                                                                    U.U.Y.Z.V.V.S.r . . . $ . . + $ $ . . . + + + . . . + $ . + + + 7 H r H [ DXE.!.T.Z.T.Z.C.r q r !.m.C.b.m.] c c G.P 7 + r J % + e 5 / q 5 L.JXF.F.B.L.F.l.&X8Xh.;Xl.l.d.;Xl.d.d.w.w.d.u.k.*XqXe.e.0.s.k.u.0.9.q.0.7.7.l.k.u.s.5.#.5.e.0.5.5.6.u.4.+Xk.0.=.K K e 5 V ) K                                           ",
"                                        x.c A 6 x C Q ( =.#.rX4.4.qXl.e.0.7.:.#.5.s.u.&XeXj.4.u.t.0.s.k.rXy.u.f.s.s.u.p.eX3Xs.d.w.d.e.w.0.l.z.l.l.*X9X+Xd.F.M.C.H.wXqX5.z ! ~ C 7 + q r @ 7 H ` [ 7 c ` c.V.v.v.!.7 r H !.G.C.Z.Y.~.^.v.7 H c 7 + . + 7 . r + . . . . + + + . . $ $ + . + O + . + 7 U.A.U.Y.Y.x.V.                                                                                                                                                                                                                                                                                                                                                                                                    Z.U.Y.Z.C.v.C.9 + . o 7 + . + $ $ . . + + + + . . . + $ . $ + . $ r r H H U.~.!.!.Z.T.T.m.H + q !.m.V.V.c.] r r C.P 7 # r y @ + C e / q z I.JXL.F.L.F.J.l.&X8XoX*Xf.d.d.d.d.d.w.w.d.s.qX*Xu.s.e.e.e.l.u.eX7.q.:.0.0.e.6.k.*Xt.5.#.:.0.*.7.e.6.qX4.2X&X0.;.! I s 5 V ) K                                           ",
"                                        c.c A z e Z Q ~ =.#.rXy.4.qXe.5.7.:.:.&.6.e.*X*Xs.t.t.u.k.3X3X3X$X3X8X3X&X+Xs.s.u.*X*Xl.f.e.d.w.e.;Xz.*X*X*XrX&Xd.B.M.B.H.wXqXt.A ! ( Z 7 + 7 r @ 7 H ` ] 7 r _ x.V.m.v.!.r H K !.C.U.T.T.T.VXr H r r 7 . . $ 7 + r + . . . . + + . . . $ $ + . . . . . + r T.A.T.R.G.| v.                                                                                                                                                                                                                                                                                                                                                                                                    A.U.U.Z.V.C.V.7 . + . . . . + $ + . . . . . . . . . O $ . $ + . . $ y H H U ^.!.Y.!.T.C.C.q $ 7 E.V.v.m.A.[ r r m.P 7 $ c J % + C A ( e x l.rXd.B.F.B.d.l.&X9X+XqXs.d.d.d.J.w.d.s.k.rXs.s.e.f.e.e.w.e.qXrXd.q.7.0.e.5.e.t.k.l.5.#.:.7.*.7.5.z.qX4.+X&X#.( ! I s 6 V ) K                                           ",
"                                        c.c A z v C Z ' =.#.u.4.%.6.e.0.F 0.0.6.u.*Xh.u.t.5.u.qX3X+Xg.g.XXi.i.+X3X3Xu.z.k.p.*X*Xf.d.w.d.e.z.;Xl.I.*XeX&Xd.F.B.C.C.I.*X5.A ! ( C 7 + 7 c @ 2 c _ c.7 r ] m.V.m.C.^.r r H !.Y.T.T.T.!.$ r r I $ . + + , 7 . c + . . . . . . . . . . . . . . . . . + r Y.x.A.U.(.b.v.                                                                                                                                                                                                                                                                                                                                                                                                    A.Y.Y.Z.V.C.v.r . . . . . . . . . . . . . . . . . . O - . $ + + . + 0 J H r _ ^.E.T.Z.U.c.7 q 7 T.m.Y.C.v.[ c r v.I q $ M T 2 + e A ) x z ;XrXI.H.L.F.F.l.+X8XoXqXz.d.e.w.q.q.s.z.qXj.s.s.f.f.f.;Xs.s.y.y.6.7.7.d.;Xs.s.0.5.u.k.&.#.7.F 7.e.5.s.4.3X&Xe.~ ! I s 6 V F K                                           ",
"                                        c.c v z C C P / ' 7.rXj.6.l.5.0.:.*.e.6.&X&Xy.4.r.*X*Xk.u.u.g.XX$Xg.i.y.u.k.eXh.h.h.h.*Xk.s.0.d.w.e.;XI.;X;XeXk.d.B.M.M.C.I.l.5.A ~ ( C 7 + q c $ 2 r / x.7 r ] m.m.v.m.~.7 r K !.T.U.T.T.!.q H , r . + , $ 7 7 + H @ . . . . . . . . . . . . . . . + . + r !.Z.G.U.^.v.v.                                                                                                                                                                                                                                                                                                                                                                                                    A.T.Y.A.V.C.C.H . . . O + . . . . . . . . . . . . . $ 7 . 7 O O + . $ r r H U ^.U.!.Z.Z.m.r + r ZXm.v.v.C.[ M r m.I e $ c H % + C A ' v z l.eXL.F.B.F.J.z.3X8Xh.l.l.d.d.d.0.w.s.qXl.s.s.s.k.qXz.z.u.h.2X+Xh.6.e.s.j.3Xu.6.5.5.k.*X7.:.#.0.0.z.l.4.h.&X7.=.( / s 6 V F K                                           ",
"                                        b.r V z A e c ' ~ *.u.4.6.5.0.0.:.0.5.j.8Xy.4.4.p.&Xr.y.y.y.oX$X9X+X8Xy.u.y.y.8Xh.h.p.k.qXs.l.d.w.d.d.d.L.l.qXk.F.B.B.H.H.>X*X5.z ~ ' A 7 + e C $ 2 r ! ! , r [ v.V.v.c.E., r H T.T.G.!.Y.:Xr c + . + + 7 $ q q $ U $ . . . . . . . . . . . . . + . . + 7 y Z.C.S.x.T.x.S.                                                                                                                                                                                                                                                                                                                                                                                                    A.T.Z.V.v.A.A.7 $ . . $ . . . . . . . . . . . . . . $ 7 + r $ + $ + . $ $ I -.!.G.Y.Z.Z.V.r 7 r T.b.V.C.v.[ M r V.I e $ r y % # A A ) v z k.eXd.F.F.L.L.l.k.3Xp.s.s.d.w.w.0.s.*X3Xs.u.u.3X*Xh.s.k.3X&X2X3XqX6.l.6.j.y.3Xt.5.s.4.3Xs.6.0.7.7.#.6.6.j.k.7.( / P e 6 V *.K                                           ",
"                                        v.r V z v e C / / 7.l.4.6.z.s.e.*.6.y.3Xj.4.y.oX3X4.r.y.8XlX8X8X8X3X3X&X+Xi.p.g.8X+X&Xp.k.k.s.f.d.d.z.l.l.z.qXs.d.B.B.H.H.>Xl.&.z Z Q A e # e C $ 2 r / _ 7 c ] v.Z.C.m.^.7 7 r !.T.Y.!.!.VXH c $ + . $ r $ r r $ K + . . . . . . . . . . . . . + . . $ U I V.A.V.[ Z.x.V.                                                                                                                                                                                                                                                                                                                                                                                                    A.T.V.v.V.v.b._ r $ . + $ . . . . . . . . . . . . . $ 7 + r $ $ $ $ + $ $ ! b.~.U.V.C.Z.v.r q r U.c.b.v.Z.] r r A.P 7 $ r J 2 # Z A F A V l.rXF.F.B.L.d.d.l.*Xk.I.s.d.w.d.e.z.*Xy.t.k.&X3Xy.k.3X*Xk.s.u.u.5.7.e.s.j.y.u.;Xk.4.u.4.&X6.&.#.#.e.e.6.u.u.0.~ Q P 9 6 V *.P                                           ",
"                                        b.c V z v v K ! ( *.qX4.6.l.t.e.5.6.g.2X4.4.y.8X4.4.y.8X8XoXi.i.y.j.y.i.8X8Xy.y.g.3Xp.k.k.qXk.f.d.d.e.z.z.d.;Xd.F.B.H.P.P.>Xl.5.A x D Q e # q C $ 2 r _ -.7 r ` b.C.V.V.E.q q r !.Z.U.T.E.AXr K $ . . $ c 7 r r $ H + . . . . . . . . . . . . . + . + 7 V.S.V.V.V._ Z.v.V.                                                                                                                                                                                                                                                                                                                                                                                                    Z.T.V.v.A.] C.ZXU + . + $ . . . . . . . . . . . . . $ 7 $ H 7 $ $ . . $ 7 _ m.ZXT.C.Z.G.V.H 7 r /.b.V.v.v.] r r Z.P 9 $ r U $ + Q ) ) A z l.rXd.F.B.L.d.l.;Xz.s.I.d.d.d.s.z.l.*Xp.u.u.3Xy.u.3Xk.u.s.s.f.f.:.:.#.5.t.*X4.u.*Xu.t.u.&Xh.5.:.7.#.d.6.6.z.*./ ~ Q c e V *.K                                           ",
"                                        b.c D z A v v K / *.5.6.6.s.s.s.6.6.3X+X%.4.3XOX4.y.8X2Xy.u.u.u.6.u.6.t.p.+X$Xg.j.&X+XoXh.3Xk.k.d.F.w.d.d.d.d.d.q.M.q.H.P.wXqX5.z Z D D e # 4 c $ , r I x.7 r _ x.C.V.V.~.7 7 r !.U.Z.A.~.ZXc U 7 . . 7 H , r r + H + . . . . . . . . . + . . . . . . r C.b.x.x.v.b.T.V.V.                                                                                                                                                                                                                                                                                                                                                                                                    Z.Y.C.A.] _ A.Z.U + $ . $ . . . . . . . . . . . . . $ r $ 7 $ $ 7 + . $ r _ m.!.Z.Y.Z.Z.m.c 7 c T.V.c.b.v.-.c 7 V._ 7 $ r U , # A F F A b l.rXd.B.F.F.d.l.f.f.f.s.d.d.w.f.k.eXs.t.p.*Xy.y.*Xu.s.t.5.s.u.k.5.0.5.5.5.5.k.y.j.*Xu.y.y.3X5.:.7.7.#.&.6.6.*.K Q Q c 5 S F P                                           ",
"                                        b.c D V z x v Q ( 7.s.t.6.s.5.5.u.k.3X4.%.%.eXy.r.h.2Xy.6.5.u.y.u.6.e.5.p.h.8Xg.j.h.9Xg.h.&X3Xp.d.B.q.w.d.d.F.d.q.M.q.F.P.wXqX5.z Q Q A e # 4 x $ 2 c _ ` 7 r ] c.V.m.v.!.7 q c ^.!.G.C.VXAX_ _ r $ . 7 _ $ r , $ r $ . . . + $ $ $ $ $ $ . + . 7 $ , 7 v.x.x.Z.V.c.G.| V.                                                                                                                                                                                                                                                                                                                                                                                                    U.A.V.A.A._ V.U.I $ 7 7 $ + . $ 7 , . , . + + . . . + r . $ + 7 7 + . $ 7 ` C.^.Z.T.U.Z.] r 7 q Z.-.b.V.V.` c r V._ 9 $ 7 J $ # A F F A V *XrXd.B.B.F.d.d.l.z.d.d.d.d.e.s.&X8Xs.s.l.j.y.eXk.t.6.e.u.y.p.eXs.s.t.5.#.5.h.3Xp.*Xu.j.y.eX6.#.:.7.7.5.6.5.*.P Q / Z x D F K                                           ",
"                                        c.e V V V A ~ ~ ( *.wXu.u.*Xs.6.4.h.3X4.r.,X*X4.4.3X4.5.5.5.r.i.eXy.6.s.u.j.h.3Xh.y.$X3Xh.p.8Xg.d.w.L.I.z.s.I.d.9.M.9.H.P.wXqX5.z Q ) A 5 # 4 x $ 2 H _ x.r q ` x.v.V.V.^.7 7 c !.U.G.T.T.CX! U 7 + . q K + $ K , ! + . . + $ $ + + $ 7 $ $ . + . + , H v.x.b.U.v.A.R.x.V.                                                                                                                                                                                                                                                                                                                                                                                                    A.T.V.Z.Z._ x.Y.I $ 7 r $ . # + $ e + $ , @ + + . . $ H $ 7 $ $ 8 O . $ 7 U A.CXT.T.Y.T.v.7 $ 7 E.v.V.m.V.` c q v.P 4 $ r N , > A *.F D S *XrXd.M.M.F.F.d.I.l.z.z.d.d.e.s.eXg.s.z.z.u.p.&Xu.t.6.6.y.3X2X8X3X&X+Xy.5.5.4.3Xy.h.&X4.u.t.*X6.#.7.7.5.e.0.) ~ Q ~ K x D F K                                           ",
"                                        b.e V S V A ~ ~ ) 7.e.5.u.u.5.4.y.eXk.4.%.eX&.4.+X2Xu.0.5.4.&X8X$X&X*Xy.u.y.j.3Xp.i.2X$Xh.h.9X3Xf.w.w.d.z.s.l.d.9.M.q.F.B.I.*X5.z Q ) F 6 # 5 c $ 2 r ! _ 7 r x.m.v.V.v.U.q H H ~.T.E.Y.U.ZX! H q $ $ r ` , $ r $ H + . + $ 7 r c H _ ] 7 + + + q . 7 7 v.] V.Z.S.T.(.b.N.                                                                                                                                                                                                                                                                                                                                                                                                    A.^.A.Z.Z._ x.Y.I $ $ r 7 + . 7 7 x.H H q 7 $ $ + + $ r . H $ $ 7 $ . $ r I V.VXY.T.U.Y.x.7 $ q ~.v.V.m.C.` c q Y._ r # r M , > A *.#.F S *XrXd.q.M.F.J.l.I.l.z.l.d.d.d.z.&Xh.k.s.l.k.3Xp.u.s.6.j.3Xr.y.OXy.y.3Xh.6.6.4.u.3Xr.h.u.t.5.k.6.#.*.#.5.5.5.) ( D Q K z D D K                                           ",
"                                        v.x S S V A K Q F 7.5.6.4.u.e.s.4.&X4.4.r.3X4.4.9Xi.5.5.6.j.3Xy.y.j.3X+Xu.u.u.h.3Xi.XX3Xh.j.OX3Xs.F.J.d.d.d.d.w.w.B.q.M.H.>XqXu.z D A z 6 # 5 c $ 2 r I K , r x.c.x.V.C.T.7 q K ZXU.!.!.Y.CX] U H 7 $ q ! 7 $ c + H . . $ $ , 7 7 7 7 7 U 7 . q c + 7 r C.x.v.A.V.K.(.x.S.                                                                                                                                                                                                                                                                                                                                                                                                    A.T.A.A.R.T x.U.I $ $ r U # . U I , , $ 4 $ $ $ . . $ q . 7 $ $ r $ . $ U _ C.VXU.Y.U.Y.x.7 7 r !.x.C.C.V.-.r , V.P 4 o r H $ # A 7.F D V l.rXd.q.B.F.d.L.z.l.z.l.d.l.f.l.qXp.u.u.3Xp.j.u.5.s.j.3Xu.r.p.p.u.4.4.3Xt.5.4.4.u.y.k.4.t.t.k.p.#.#.#.&.5.5.F ) ) ) P z D S K                                           ",
"                                        c.v G S S A ~ P D 7.qX6.6.u.0.5.4.3X4.4.r.8X4.y.dXi.4.f.r.&X4.y.j.y.g.3Xu.s.6.y.8X|.i.3Xj.j.XX8Xd.F.d.e.d.J.d.d.w.q.q.M.B.I.;X5.z ) ) D 6 # 5 x @ , r ! I , r x.v.V.V.b.G.q H H :XU.E.Z.U.VX` K U 2 . 7 I , 7 7 $ r $ + . . . + $ + . . $ q 7 v.H $ + H A.v.b.C.A.v.T.b.S.                                                                                                                                                                                                                                                                                                                                                                                                    A.T.A.C.Y.T b.U.I # $ 7 [ _ + _ + # . + . . . . . . O r + r $ $ H $ . $ _ I Z.CXU.U.U.T.v.q 7 H ^.b.C.V.m.` q r V.E 4 $ $ H , > A 7.F D b s.rXd.q.F.F.d.l.z.z.z.l.z.l.d.l.*Xh.u.h.h.r.3X4.s.5.*Xu.u.u.p.oXr.r.4.u.4.4.5.6.*Xh.p.y.r.4.h.j.5.#.5.6.5.0.F ) ) ) Z z F D K                                           ",
"                                        3.v G G V v Z ~ F 0.e.6.6.z.7.e.4.&X5.4.OX9Xy.2X9Xy.u.4.i.3Xr.p.h.i.i.3Xu.t.p.p.eXi.g.3Xh.h.XX3Xs.w.f.l.d.J.z.d.w.w.M.B.B.I.*X%.< D D D 6 # 5 C @ , r I x.7 r _ x.C.C.m.!.q r r T.A.U.T.T.VX_ H U , . 7 K q 7 I + c . . . + + $ 7 q 7 $ $ $ , ] I . 7 H C.v.v.V.Z.V.U.3.v.                                                                                                                                                                                                                                                                                                                                                                                                    C.T.A.C.C.T b.Y._ @ % 7 _ r + c . $ $ # 4 $ $ + + . . 7 + H 7 $ H $ + 7 I I Z.ZXA.Z.Z.U.x.H 7 c ^.v.m.m.m.` w 7 v.C 4 O 7 K , > A 7.F F l s.qXe.w.F.F.d.z.l.z.z.z.d.l.z.k.3Xh.p.&X2Xg.3X4.5.s.k.u.t.u.8X$XoXr.4.4.*Xr.t.4.3Xg.3XoXr.u.h.p.5.5.5.5.u.s.7.) F D v z G F K                                           ",
"                                        c.A G G D A P ~ ) q.5.6.6.5.#.#.4.3X6.u.2X9Xg.+X9Xy.4.5.i.&Xi.i.g.i.y.3Xu.t.p.i.8Xi.g.3Xh.j.XX3Xs.d.0.d.J.d.d.d.w.L.M.B.B.I.*X5.z Q D F 6 > x C $ , r U I $ H ] c.C.V.V.!.q c H T.!.U.T.^.CX] H K $ . q U $ , , + $ $ + $ , q r H U H 7 . . $ _ I . r H U.v.v._ x.G.C.] v.                                                                                                                                                                                                                                                                                                                                                                                                    C.Z.Z.v.V.I x.(.[ $ $ 7 H r . . $ . P r q q - $ $ . . 7 + $ $ 7 H $ + $ H _ Y.AXT.Y.G.T.Y.H q H ~.c.V.m.-.` r 7 Y.P e + e H , > D 0.F D z s.qXe.F.w.F.d.z.l.s.s.s.d.z.z.k.&Xh.p.eX8Xg.3Xy.t.f.u.u.k.p.8XXX3X4.t.4.3Xy.5.u.3Xg.2X+Xu.4.u.u.5.#.e.5.s.f.7.) ) D x z G #.Z                                           ",
"                                        c.z D S D Z v Q Z F 5.&.5.&.7.&.4.*X6.4.y.8Xy.y.9Xy.4.5.r.&Xi.i.g.y.g.+Xu.5.u.j.9Xg.g.3XoXh.g.2Xs.d.0.d.w.w.e.d.d.B.B.B.q.I.;X6.z A F F z + 6 C o * c ! ` 7 r ` x.v.V.V.^.7 H H Z.^.!.Y.T.CX[ U H $ + 7 H . 7 $ + $ . . , q q I c H 8.4 + . + _ $ O 7 H Z.b.v._ G.U.C.[ v.                                                                                                                                                                                                                                                                                                                                                                                                    U.C.x.C.v.W S.^._ + 7 8 H 7 . + + r H $ r c , , $ . . + . , . , H 4 . $ H ^ U.CXU.T.A.U.x.c q q ^.b.m.V.v.[ c e A.I r . 9 r # > D 0.F D 6 l.qXd.w.q.P.L.d.s.s.z.f.d.f.s.k.h.h.h.k.eXy.3Xy.s.t.k.p.p.p.oX3Xt.5.t.r.&Xy.6.6.3Xg.+Xr.4.6.5.6.&.#.5.0.e.e.7.*.) ) A V &.S v                                           ",
"                                        m.z S V A D C e Z *.&.5.5.5.&.6.4.3Xu.u.r.8Xy.4.g.h.t.5.t.u.eX3Xi.oX8Xy.5.s.y.+Xg.g.g.8XoXoX8X2Xs.w.0.0.e.d.d.d.J.q.L.w.B.>X;X6.6 D F D x > 5 e # $ r ! ! 7 H x.v.V.C.V.E.r H r E.E.v.U.Z.!._ H _ + + $ r + $ 7 + H + . $ e c ` H c x.H $ . $ _ % + 7 U A.] r H 3.K.T._ v.                                                                                                                                                                                                                                                                                                                                                                                                    A.T.C.V.I 7 ! U.[ $ $ $ r r $ . q c [ 7 r K e 7 $ . @ , + + . 7 c o . e x._ U.ZXT.Y.Z.Y.V.c q 7 T.] m.V.C.[ r r A.^ r + 9 7 # > D 7.S A 6 s.rXd.F.F.F.d.l.k.s.z.d.f.d.s.u.eXj.h.h.k.p.3Xy.u.s.qXh.j.p.oXp.t.4.r.*Xh.4.u.4.+Xy.4.4.6.6.z.5.5.5.e.0.0.e.*.*.( =.D V G S v                                           ",
"                                        m.x S V D x e Q A #.l.6.6.s.&.5.&.k.k.4.r.8Xi.y.y.&X4.s.s.5.p.p.8Xh.r.5.f.s.y.3Xh.i.g.8XoXi.9Xy.t.d.d.w.e.s.f.d.d.F.w.w.B.I.l.&.z D F D z > 5 4 o O M _ ` q H x.m.A.C.v.T.7 r H T.E.A.E.T.^.] U ] $ + $ U 7 $ r $ _ $ . , q q 4 $ r I q $ . + _ $ + 7 I v.$ 7 2 r Y.Y.] v.                                                                                                                                                                                                                                                                                                                                                                                                    A.T.Y.] H 7 7 _ _ $ + $ H 7 . . q r r $ 7 7 , $ + . 7 q + 7 $ q c o . * [ ! G.~.Y.U.U.U.c.r 7 7 U.-.V.V.A.] r r C._ r # 9 7 # > D 7.G A 6 s.rXd.F.F.B.w.l.s.k.s.f.s.s.s.s.eXg.h.h.eXy.3Xj.k.k.u.3X+Xg.h.p.y.y.i.3Xh.y.t.4.&X4.&X4.%.5.*Xt.5.5.5.5.f.f.#.F *.*.A z G G Z                                           ",
"                                        m.x D V z A z A D 7.6.5.6.5.&.5.6.z.h.4.4.y.8Xr.y.*Xp.t.t.s.5.4.p.r.t.s.t.y.2X8Xp.h.OX8Xi.i.8Xy.s.0.d.d.d.s.l.f.q.F.q.B.q.I.l.6.z A D S 5 1 5 4 $ $ H ` -.q r ] V.Z.C.b.!.$ c H C.Y.T.U.T.VX_ H U $ . 7 U 7 7 7 $ H 7 . # . $ $ + + + r $ . + _ 7 + 7 I H U b.V.I J T.x.v.                                                                                                                                                                                                                                                                                                                                                                                                    Z.U.Z.H _ !.] H H + $ 7 7 c . . 7 r + + + # + + . . 7 q . 7 $ 7 r $ . O U / U.E.V.m.Z.K.c.r 7 r G.c.C.V.C.] r e V._ w # 7 r # > V 7.#.D 6 s.qXd.F.q.B.w.f.s.k.s.s.s.z.s.u.eXXXh.h.k.y.3Xh.p.s.h.r.8Xg.y.g.y.+X3X+Xy.u.r.u.&Xy.y.4.r.k.p.4.5.s.6.t.u.5.0.*.) ) A z &.G Z                                           ",
"                                        v.x D V D z z A D 7.6.4.5.5.5.&.#.6.3Xg.4.4.9Xi.y.y.3Xg.u.5.5.s.f.t.t.t.j.+XdXXXi.i.dXXXi.+X&Xy.s.0.s.f.s.s.l.s.w.q.B.F.q.>X;X6.z A F V z > 5 4 $ $ c ! ` 7 c x.V.C.C.v.T.7 c r G.T.T.A.U.CX[ H r $ + 7 H $ 7 7 % r $ . + $ 7 r K $ $ $ $ . . I 7 + 7 ! _ I b.v._ H G.[ b.                                                                                                                                                                                                                                                                                                                                                                                                    A.Y.x.7 [ x.I U ] $ + $ 7 $ . . r , + 7 r C e 7 + . $ 7 + $ $ 7 r $ + * [ P Z.^.U.U.Z.G.-.r 7 r U.b.A.V.V.] r r V._ c $ e r $ > z #.G A z s.rXq.B.q.w.w.s.s.k.s.z.k.k.s.u.3X2XoXp.h.h.y.3Xk.k.t.u.p.g.9X8X9X+Xh.y.p.y.y.3Xp.y.h.4.4.&Xp.4.4.t.6.5.u.u.6.F F *.D A #.G Z                                           ",
"                                        c.x S b z A 6 F F 5.u.4.4.t.5.#.7.&.3Xi.4.4.XX2Xy.y.g.8X&Xy.y.i.p.p.p.y.8X8Xg.i.XX%XOXg.g.&Xy.6.e.d.f.f.u.s.s.s.w.w.F.B.q.I.l.6.z A F F z > e e = $ c ! ] 7 r ] m.C.V.m.T.q r H E.!.!.U.T.SXv.U I 7 $ 7 H $ $ r 7 H 7 . . $ 7 r , V., H $ + + I q $ q ! _ U J _ U y Z.] b.                                                                                                                                                                                                                                                                                                                                                                                                    A.A.] $ _ _ U H [ $ $ $ 7 $ . . , r H U q c 7 4 $ . , 7 + 7 $ 7 r $ . $ [ _ T.AXE.U.v.T.T.r 7 r !.v.Z.V.V._ 7 4 b.I q + 7 r # > z #.F A 6 s.rXq.B.F.q.w.f.s.k.u.k.s.s.s.u.+X8Xh.h.h.eXy.u.*Xs.u.u.t.i.g.2Xg.g.y.y.r.y.oXoXr.*Xr.r.y.8Xy.4.u.u.t.e.k.*X6.F D ~ A z G G Z                                           ",
"                                        c.5 S b z z A D #.5.p.y.y.6.5.5.#.&.r.3X4.r.4.8Xi.i.XX+X8XOX#XXX#XOX2X8X3XoXh.y.g.2Xg.g.oX3Xh.s.e.w.f.f.s.k.k.s.w.B.F.B.B.I.z.6.z A D F 5 > e C = 4 c ^ x.7 7 ] v.V.V.v.!.r r H T.Y.T.Z.Y.AXb.H _ $ + $ r $ $ r $ H $ . . $ . . $ $ # $ , + + H q $ r I I ^ ^ x._ J C.[ b.                                                                                                                                                                                                                                                                                                                                                                                                    A.V.x.7 _ _ _ _ ] + $ $ 7 + . + . $ , 4 . $ + + + + 7 r + 7 $ $ r 7 . $ [ ^ C.!.Z.U.C.Z.x.q 7 r ^.m.V.V.V.] r r C.^ M $ e r # > D :.#.A 6 f.rXw.B.F.w.0.d.k.k.p.k.u.s.s.s.h.3X&Xp.u.u.k.u.&Xk.s.t.u.p.XXOXg.p.t.t.u.p.*XoXp.4.r.r.+X3X4.u.r.u.t.4.4.s.#.*.D D z z G G K                                           ",
"                                        c.5 S V V v z D #.5.rX&X4.*X6.5.&.&.4.h.y.r.y.oX3XXXi.i.g.OX8X9XdXdX0Xg.g.g.y.i.9Xg.y.h.3X&Xs.s.e.d.f.*X*Xk.eXu.z.q.w.F.B.I.l.6.z A F D 5 > e P $ $ c ^ ` , r x.m.v.v.m.Y.r r r !.T.T.Z.T.CX] H _ $ . 7 0 $ $ r $ r 7 + . . $ . q _ 7 q , $ + H 7 $ r I I M _ _ I _ V.[ b.                                                                                                                                                                                                                                                                                                                                                                                                    A.Z.x.H _ x.[ _ _ + $ 7 q $ + . 7 $ H 7 r 7 $ # . . q r + r 7 $ r $ . $ x.I Y.CXY.U.G.Y.c.r $ r T.v.] V.V.[ H r A.! c + 7 r # > D #.#.A A z.qXd.B.B.L.0.d.&X&Xk.*Xk.s.s.s.p.h.3Xy.p.p.k.h.y.&X*Xu.p.oXXX8XoXy.f.s.*Xp.p.r.h.y.4.r.8Xg.r.4.u.*X5.5.4.5.#.F D F D V &.G K                                           ",
"                                        x.z V V z z v D #.&.y.r.5.&.5.5.5.t.4.j.8Xy.r.y.XX9XOXg.y.y.r.g.2XOXg.y.y.i.h.8Xh.y.g.+X&Xh.s.e.w.d.f.l.k.k.+Xh.e.w.w.F.F.I.l.t.D D F D x , e C $ $ r ! K 7 c -.V.m.V.V.ZX7 q r E.C.Y.Y.!.CX[ H H 7 . $ $ 7 $ $ $ $ $ + . # # # 7 P e r 7 . . H 7 $ , 7 $ @ 7 7 7 c.Z.[ v.                                                                                                                                                                                                                                                                                                                                                                                                    Z.Z.x.I $ 7 7 $ 7 + + 7 7 $ . . $ $ H r 7 O # o . + $ $ + 7 7 $ $ O . $ I _ x.T.G.U.T.E.V.r $ r :Xb.m.m.C.[ H r Z.^ r # 7 r # > D #.G A z z.eXd.w.w.d.d.s.+XOXh.k.u.k.s.s.k.k.&Xg.p.u.p.&X+Xy.h.8XOXXX#XdXXXg.h.;Xh.y.g.oXy.r.4.8X8Xg.4.y.r.u.5.4.r.4.#.#.*.F A S G S Z                                           ",
"                                        8.z V V z v D F #.5.3X4.4.5.6.6.s.5.6.4.h.3Xr.r.g.2X8X2Xy.y.r.a.7Xg.i.i.y.+X8Xi.i.g.g.8Xh.u.s.d.d.d.f.k.k.h.8Xh.s.w.q.F.F.>X;X6.z D F D 5 > e K 4 4 c ! ! q H x.V.v.C.C.T.q r H T.E.T.G.!.SX[ U H + . + $ $ + + 7 7 $ 7 . $ . O 7 ! 7 r $ + . . $ $ _ r _ Y.U.!.Z.[ Z.[ V.                                                                                                                                                                                                                                                                                                                                                                                                    V.Z.] $ !.!.U.!.I + H $ $ . . + 7 7 H 7 e + $ . . $ $ 7 7 + . $ + . . 7 U ! U.CXZ.Y.U.T.m.q $ r ^.b.m.m.V.[ M e A.I q # q H $ > A *.F Z z s.eXw.w.q.w.e.s.2X2XoXp.k.s.s.s.s.p.h.eXp.p.p.j.3Xh.y.y.2XdX9X2X9XeXy.4.r.h.3Xy.r.y.h.2Xg.i.y.u.r.t.5.5.p.u.#.F F F D S G S Z                                           ",
"                                        8.x V V D A A D G 6.eXy.4.*X4.4.u.t.#.5.r.3X3XoXr.a.i.$X3X$XXX#X7X#X#X7X7X2X$Xi.i.OXdX$Xh.u.s.e.f.f.f.f.k.k.rX+Xs.w.q.d.F.I.l.6.z D F D x > q C $ 4 H ` _ 7 H x.m.x.v.v.!.q c r T.Y.!.U.T.AX[ I H + + $ $ 7 r 7 _ [ x.V.. . . $ # r 7 r U , , 7 -., V.c c.T.T.!.U.I T.b.V.                                                                                                                                                                                                                                                                                                                                                                                                    Z.T.] r ^.T.T.Y.H f x.x.I , , 4 r 7 q $ # $ . + . v.b._ _ $ H H $ $ . $ U ! A.!.Y.Y.Y.C.x.r $ q !.c.V.m.v.` c q C.L e # q H # > A *.F A 6 s.qX0.w.q.d.e.s.2X9X+X*Xk.t.k.s.p.k.h.oX3Xi.i.p.t.k.&Xy.p.g.XXOXoXy.y.y.j.h.y.y.r.r.3Xy.r.p.y.y.t.t.t.5.&Xk.5.#.F D A A G S Z                                           ",
"                                        c.z S V V v A F #.5.&Xy.r.p.u.k.u.6.5.5.t.4.+X3Xi.i.i.y.y.OX2X6XsX0X7XOXg.i.XXi.$X8X$XoXp.s.5.d.s.*Xf.k.k.&X8XoXu.w.w.q.F.>X;X5.z Z F A x > q r # $ H ` _ $ r x.m.v.C.A.VXr r H Y.Y.T.T.!.AXv._ r $ + $ 7 r U 8 ).T.^.U.$ . . $ $ , r K c $ H ! U.r T.K T.FXSXKXV.^ T.v.C.                                                                                                                                                                                                                                                                                                                                                                                                    Y.^._ x.!.HXHXKXv.r C.V.x.7 7 H I K e 7 # $ o o 7 !.Y.U.A.r I H $ 9 + $ U I C.CXE.Y.Z.G.` q $ 7 T.x.m.v.b.` c e A.I w # 7 r + > D #.F Z z 5.;X7.9.q.w.q.s.2X0XOX3Xp.p.k.k.k.h.p.oX+X3Xp.p.u.u.u.j.p.h.OX9Xy.r.t.u.p.y.t.y.j.eXr.y.t.t.4.r.t.t.5.4.+XoX5.#.F D v v G G A                                           ",
"                                        c.z S V D v A F G 4.i.r.y.r.u.u.u.6.s.5.5.r.y.+X3X+Xy.y.y.y.g.XX7XOXXXi.g.g.g.2X8X$XoXh.p.s.s.s.p.k.f.f.k.h.8X+Xu.w.w.q.w.d.s.6.V Z D D 5 $ q C $ 4 c ! x.7 H -.b.x.v.V.^.7 H H E.T.E.T.!.AX] U 7 + + $ 7 7 _ [ GXLXKXC.H $ , H ` x.r A._ I U x.GX7 KX_ AXKXKXLX| b.G.] A.                                                                                                                                                                                                                                                                                                                                                                                                    U.T._ V.!.HXSXLXV.I KXKX^.H U [ ! 8.H C H e . 9 H 1XKXKXKXI I r 7 e O 7 c _ Z.CX!.Y.A.Y.x.q $ 7 Y.x.v.b.x.` c r A.! w @ 7 r + > A #.F Z z s.;X7.7.w.w.w.s.7X0XOX+XoXh.h.k.k.p.*Xk.p.*XoXk.y.y.u.h.p.oXXX$Xp.u.f.u.y.p.u.y.&Xh.y.y.y.u.4.4.t.u.4.4.+Xh.6.#.#.D v z S D A                                           ",
"                                        c.z V V V D D D &.u.8XXXr.*Xu.4.6.u.t.5.4.r.u.y.oX8X3X+Xr.g.XXXX7XOXi.i.y.2X8X2X+XoXh.u.s.s.z.u.h.h.k.l.k.h.dX$Xu.w.q.F.w.>X;X5.z Z F V e , e C O 4 c ^ ` $ r [ v.m.V.C.VX, H r !.Z.E.!.!.SX_ I 7 $ H 7 I _ A._ ZXZXAX` W.# , ! P U._ wX_ x.v.Z.SX+ AXx.AXV.H KX| 3.T.V.C.                                                                                                                                                                                                                                                                                                                                                                                                    A.!.x.b.^.VXy ZXV._ SXU.^.] b.m.] W.v.K E H $ 8 !.T.SXAXSX[ b.I r r O $ K -.Z.T.U.T.Y.Z.c.r 7 r T.c.v.v.x.` H e C.U w @ q H $ > A *.F Z 6 z.qX0.7.d.d.d.k.7X0XOXoXg.&Xk.k.k.k.f.u.u.p.u.*Xj.j.p.h.h.XX#X#Xg.p.u.k.h.j.&X&Xp.y.y.y.y.y.4.t.y.oXt.r.+X+X6.#.F D D v S S Z                                           ",
"                                        c.z V V z v D D &.4.9Xi.y.&Xy.&X5.5.5.5.4.y.y.p.y.y.+X8X3X2X4X4X5X#XOX$X8X2X2X+Xh.p.u.u.u.s.u.h.h.+Xk.;Xk.h.dX#Xu.w.q.B.F.I.*X5.V A D V x , q r o * H ` ` 7 H [ v.V.m.v.VX7 r c U.G.U.E.!.SX_ I $ + r $ H U C.H A.Z.T._ ' , , K v.^._ CXW C.A.v.U.$ T.H ^.SXDXFX3.T V.[ V.                                                                                                                                                                                                                                                                                                                                                                                                    Z.Z._ ] R.FXCXAX| H T.C.Z.x.m.Z.S.wXR./ ! s . W I Z.E.!.A.H v.I r r $ . I ` Y.VXV.Y.G.Y.[ c q c T.c.b.v.v.` H q V.K q $ q H $ > A *.#.P 6 f.;X7.*.w.d.d.k.7XsXOX$XOX3XoXk.s.s.s.s.u.t.u.u.j.u.s.p.$X#X4X7XOXg.h.i.p.&Xy.y.p.p.t.r.4.r.t.t.y.&Xy.y.+X+X6.F F F A z S D Z                                           ",
"                                        c.A S S A z z F 5.4.9X$Xi.g.g.y.r.4.5.4.4.y.y.i.y.y.h.i.i.OXdXdXdXdXdXOXi.XXXXg.h.oXh.p.p.u.k.j.3XoXoXk.k.oXdX#Xk.d.F.w.w.;XqXu.V Z D A 5 $ q r o * H ` ] q r U x.v.v.v.R., H r U.Y.Y.Z.Y.CX_ U + $ 7 O r s C.H x.x.x.K 7 $ $ $ q H $ U 7 H H U [ . v.r Z.Y.T.T._ M A.[ V.                                                                                                                                                                                                                                                                                                                                                                                                    A.!.[ 9 C.Z.C.Z._ r v._ b.K C I q H C . 4 . . s r V.v.+.x.7 _ r 7 $ $ + r I Z.:XT.G.G.Y.[ H q r U.-.x.c.m.` H r C.K q $ 7 r $ > A *.F Z z e.;X0.7.w.d.d.k.7XsX#XOXdX2Xg.j.j.u.u.k.u.k.u.u.u.j.u.p.8XdXdXsX8X8Xh.j.j.j.y.y.p.p.p.y.y.h.t.y.i.2Xy.i.$X+X6.#.F D A z S F K                                           ",
"                                        8.v S V A z v D :.5.8Xi.i.dX#XOXg.g.g.p.r.h.g.i.h.i.h.p.p.i.XXXX#Xi.a.i.i.g.oXoXoXoXg.g.%Xi.3XOXOXOXOXOXoXXXdXOXs.d.q.*.B.I.z.G z P D v 7 + e C o * r _ _ 7 r ` x.v.v.c.VX7 r r E.T.U.U.U.AXH H $ . 7 $ r 0 _ 0 W U U r $ + $ 7 r H $ H $ - H r [ . [ 7 ] _ _ C.I H C.[ V.                                                                                                                                                                                                                                                                                                                                                                                                    V.!._ 7 v.x.U [ H r v._ x.q q H e H c + , + . $ 7 _ _ _ U $ H r 7 $ + $ r _ U.^.U.U.U.Y.x.K r r T.x.c.c.v.[ H r V.U 7 $ 7 c , # v ( ) Q z s.;X*.q.q.0.d.k.2X0X4X4X7X#X2Xg.3XoXj.h.oXp.h.p.p.u.u.u.p.XX4X#Xg.y.y.p.p.p.i.i.i.h.g.y.g.oXi.g.OX2Xg.i.OXOX6.F F V A V V *.C (.                                        ",
"                                        c.v D V V z v D #.5.9Xg.XX7XdX9X9X9XoXoXy.+X+XoXg.i.p.p.p.p.p.XX$Xi.i.y.p.oXoXoXoXoXg.oX9XXX2X9X8X8X9X9XeX$X9Xg.k.d.q.q.q.>XqX5.z v v P 7 + e c o * r _ I 7 c _ ] m.C.v.Y.$ c K E.E.E.T.^.SXH H 7 $ 7 + 7 $ r + r r r 7 $ + + $ 7 7 + 7 O - $ 7 7 . H $ b.A.b.x.H r V.] V.                                                                                                                                                                                                                                                                                                                                                                                                    C.T._ 7 x.v.x.b.U 7 _ U U $ 7 7 $ 4 7 . . . . O $ H f H H $ r $ $ $ + $ r [ U.^.U.U.Y.T.c.H c r Y.` V.v.v.` H r V.U 7 $ 7 C , # A ( =.~ z 0.I.*.9.q.0.e.k.2X9X7X7X9X9X9X9X9X8X&XoX*XoXoXoXp.u.u.u.p.XX4X4Xg.y.y.t.u.p.p.g.g.$Xg.g.XX8X$XOX9X9X3Xi.OXOX%.#.A 6 5 V V *.A T.                                        ",
"                                        x.v D z A A D F #.4.9Xi.XX#XXXXXi.g.i.p.p.oXoXXXg.i.p.p.p.p.oXXX#XXXXXi.i.oXoXoXoXh.g.oXoXXXXXOXg.oXg.g.oXh.9Xg.s.q.M.M.q.I.I.5.A ~ Z v 7 + e C o * r I _ 7 e ` -.c.v.v.^.7 K r Z.Z.Y.U.T.CXH H 7 + $ $ $ $ $ + 7 r 7 7 $ $ + + $ + + $ . $ + $ $ . r 7 H _ U U r r V.x.V.                                                                                                                                                                                                                                                                                                                                                                                                    A.T.[ 7 +.y H U q $ H H 7 . + $ + + $ $ # . . $ $ 0 7 7 7 + 7 $ $ $ + $ r ` Z.VXG.Y.U.~.C.H r q T.-.m.v.v.` H r C.I 7 $ q K $ > C Q =.Q z e.;X7.q.q.q.0.s.+X+X%X%X|.XXoXXX$XoXoXoXoXoXoXi.h.p.p.p.g.XX4X7Xg.y.y.r.p.p.i.g.XX+Xg.g.i.i.i.XXXXXXp.i.$XoX&.D P e e V S *.A R.                                        ",
"                                        3.w A z z z D F G 4.9Xg.9X#X9Xg.g.g.i.i.p.i.oXg.g.g.oXoXh.XXoXOX4XOXOXXXXX$X+XoXoXoXi.h.XXg.$XOXg.$XXX$XoXoX9Xj.e.q.q.=.M.I.I.7.x ~ A 5 q # w C o * r ^ x.7 e ] b.v.v.v.ZX+ c U !.ZX!.Y.U.VXI U r + + $ 7 $ 7 $ $ $ $ $ + + . . $ $ . $ + $ + . $ . $ + U I U _ r r V.[ V.                                                                                                                                                                                                                                                                                                                                                                                                    Z.T.] 7 _ I U U r $ 7 r + . + + $ + . # . . + $ $ 0 7 7 7 . 7 $ 7 $ + $ f -.U.^.Z.A.A.T.x.H , q G.x.c.m.m.` H r A.U 7 # e P + # x A 9.Q z e.qXq.9.9.9.q.s.h.oXXXXXOXOX%XoX+XoXoXoX$X+XoXg.h.p.g.i.XX@X5XuXXXh.p.p.p.h.XXXX+X$Xg.i.g.i.g.XXXXXXa.y.$Xh.5.D ( H x z S #.Z W.                                        ",
"                                        x.e D z V z D D G 6.9X2X4XOX9X2X7X#X3XoXy.g.3XXXXXXX%XXXXXXX#X4X0X4X#XOX$X2X$XOX$X+XXXoX8XOX9X#X7X9XOX8X$X$X8Xh.s.w.w.w.M.Q.I.7.6 Q D v q # e C o * r ^ _ 7 r ` x.m.m.x.:Xr H I m.Y.G.Y.v.T.r H r $ + $ $ + $ . + $ 7 7 $ + . . . $ . + + + . . . . + . r U H H 7 r V.x.V.                                                                                                                                                                                                                                                                                                                                                                                                    U.!._ $ r H r r 7 + $ 7 $ + . . + . . $ + . . . . $ $ $ + . $ $ $ $ + $ r ! m.U.Z.V.Y.T.x.c 7 q C.] b.V.v._ H r A.K 7 + r K . # c Z 9.Q z e.;X9.c.9.9.q.e.3X9Xg.9XOXdX2XOX3X+XoX+XoXoX$XXXg.g.g.g.OX=XsXdX#X+XoXXXXXoXOX$X+X2Xg.g.XX3X$XOX7X2X2X2X8X3X6.D ~ K x z S D D (.                                        ",
"                                        x.x D V V z D ) D &.3X2X8X2X7X7XOXOXXXoXy.i.$Xg.g.g.XXXXOXXX#X4X0X4X#XOX#X#XOXXXOXXXg.g.OXOX2XXX8X7XOX2X3X3X3Xk.s.w.q.B.M.Q.I.7.6 Q Q A 5 # e c # * r ^ ! , r ] x.c.c.x.U.r H K T.U.T.Z.U.^.H I f $ . . . . . . O $ 8 7 + + $ $ 7 I 7 I r 7 $ . + . $ + . $ $ $ 7 7 v.v.v.                                                                                                                                                                                                                                                                                                                                                                                                    Y.^._ $ 7 $ + $ $ + $ + + . . , K H 7 q 4 7 $ O + $ - $ $ . $ . . . + $ r _ m.!.G.U.U.!.b.r 7 7 T.x.V.m.m._ H r Z.K 7 + r K + > C Q 8.Q z s.I.9.M.9.9.9.0.k.+Xg.8X2X7X7XXX2Xg.XX$Xg.oX$XXXXXoXXXOX#X4XsXjX#XXXXXXXXXXXXXOXOXXXi.i.i.g.g.XXOXXXg.g.g.j.&.) P K x z G G P (.                                        ",
"                                        x.A G S 6 6 Z Q D F 6.y.i.i.XXg.g.i.i.i.p.y.i.g.XXg.XXXXXXXX@X=X0X#XOXOXOXXXXXXXXXXXg.g.OXg.g.+X$XXX%XoX&Xs.t.0.7.B.q.q.M.W.I.*.5 v D A e # e c # * r _ ] q C x.b.c.c.c.m.$ I H ^.U.T.Y.Z.^.H I r $ + $ $ $ + + . + . . . + + + $ 7 $ 0 $ . . . 7 + W H H H H r H 7 b.x.v.                                                                                                                                                                                                                                                                                                                                                                                                    Y.^._ $ r % r y M r U r 7 $ . + $ $ + $ $ + + . . . . . . + $ + + . O $ 8 I b.^.G.T.U.^.m.r , 7 ^.V.V.c.V._ H r G.U q + r K # # C / =.Z z d.>X9.9.9.9.=.7.5.u.p.oX$XOXXXoXXXoXg.oXoXXX|..XoXoXXXXX#X=XtXsX@XXXXXXXXXXXXXXXXXi.|.a.i.i.i.i.i.p.r.u.4.@.F Q L L r z G G P E.                                        ",
"                                        x.V S S V A P ~ ! ) @.%.p.h.i.g.XXXXi.i.i.p.i.oXXXXXXXOXOX#X=X6XsX4X#XXXXXXXXXXXXXXXXXOX+XoXXXoXXX+XoXp.s.s.e.w.q.M.9.M.M.P.L.Q q P ) A e # e c # - y _ ] r c ` x.m.v.] !.7 H H T.Y.x.U.Y.ZXH _ r $ O $ $ r $ $ . + . + . + . . $ $ $ 7 $ . . + $ . H 0 H r [ H r 7 U.x.v.                                                                                                                                                                                                                                                                                                                                                                                                    U.T.I + H q [ T y $ 7 $ + . . + $ $ + + + . + . . . . . . $ r r 7 $ $ $ 7 _ b.U.G.C.Y.Y._ r 7 r !.v.m.v.m._ c q U.I q + r P # # e / ( Z z F.wXq.*.7.9.9.9.0.0.s.k.g.$X$X%XXXoXoXoXg.XXoXoX|.oXXXOX4X4XtXsX=X#XOXXXOXXXOXOXXXXXoXoXi.i.y.i.i.p.t.5.1.#.D P K K q z G G ~                                           ",
"                                        9.V S V V x ( ! ! ( F &.u.i.i.g.XXXXi.i.oXoXoXoX$X#X#X#XOX#X=X4XsX4X#X@XXX$XOX#XOXXXOX3X+Xg.XXoXOXXXh.h.u.e.e.9.9.b.m.8.8.H.W.) 4 / D A e # e c + $ y _ x.q c ` x.v.v.8.Y.7 H H E.T.A.U.Y.^.U U 7 + + $ $ $ 7 + + + + . . . . . . $ . + . . . . $ + 7 7 H r _ H r 7 Y.C.V.                                                                                                                                                                                                                                                                                                                                                                                                    Z.!._ + I r _ _ r $ + $ + . . . , . + $ . + . . . . + + . $ 7 8 7 $ . $ 7 K v.!.G.Z.Y.!.A.c , r U.x.v.V.c._ r 7 G.K 7 $ q H . , e / ' C x w.I.9.9.=.=.9.9.;.7.e.f.h.oXoXoXoXXXoX$X$XOXOXOXXXOX#XOX#X4XtXtX4X#XOX#XOXOXOX2XOXXXXXXXi.i.g.i.i.y.t.5.:.*.F D Z Z e v G #.K                                           ",
"                                        x.A V V z x ~ L ^ ! ~ #.5.y.p.i.g.XXoXXXXXXXXXXX$X#X#X#X#X#X#X=XtX=X#X@XXXOX#X#XOX#X$X$X+XXXoXOXOXXXoXh.s.e.0.q.M.9.m.c.B.A.P.( 7 / D A e # e e + $ r _ _ 7 r _ 4 7 c v.~.c H r ZXT.G.T.U.^.I U 7 + . . . . . $ . 7 + . . . . . . + . + . . . . $ + $ $ H U U U H r C.v.V.                                                                                                                                                                                                                                                                                                                                                                                                    U.!._ $ _ _ [ x.U + $ + . . . . + . . . . . . . . . $ $ . . + + + + . $ 7 U b.^.Z.T.G.Y.x.7 , c U.v.7 7 U ` c q U.U 7 $ q r $ # e C 8.Z A B.I.9.9.=.' 8.=.;.;.q.f.h.h.oXoX$X%X+X+XOXOXOX@X#XOXOX#X#X=XtXtX4X4X#X#XOXOX#XOXOXXXXXXXi.XXg.g.i.y.6.#.*.*.D A A A v v G #.K                                           ",
"                                        x.x V z v x K K I K ~ D &.5.u.y.i.oX$XOXXXoXXXOX#X#X#X@X#X#X=X4XsX5X=XOXOX#X4X#X#X$X2X$X#XOX$XXXoXoXk.f.e.0.9.q.M.9.M.M.M.c.m.~ , Q F A e # e e # $ r _ c.e 7 -.7 S.c c.T.r c H v.Z.T.U.Y.VX_ H $ . . . . . . $ + r + . . . . . . O . . . . . . $ . + . r r r r 7 H A.x.V.                                                                                                                                                                                                                                                                                                                                                                                                    Y.T.] r I I H H r . . . . . . + . $ . $ + . . . . . $ $ . @ + . . . . $ 7 I v.!.G.G.U.Z.x.K 7 r T.v.r v.H ] H r U.U 7 $ 7 e , + e C =.K x q.I.=.=.=.9.M.8.9.*.7.e.s.h.h.oX$X$XoX+XOX#XOX@X@X#X#X#X#X#XtXjX5X=X=X#X#XOXOXOXOXXXXX|.i.oXoXg.y.4.&.F ~ ~ D A Z 5 v v S D K                                           ",
"                                        b.c D z v x c K P Z Q D D #.t.p.g.OX$XXXXXXX#X#X=X4X=X=X=X4X6XyXnXsXtX4X4X4X4X=X#X#X#XOX#X#X2XOXoXp.k.f.:.q.q.9.M.9.B.q.9.M.Z.` 7 P D A e + x e $ O C _ ] 7 7 ] 7 c C C.!.r H c U.A.U.T.T.ZXI r $ . . + $ $ $ - $ 7 . . . . . O $ $ . + + . . . $ . O + . . . $ 7 _ CXv.V.                                                                                                                                                                                                                                                                                                                                                                                                    Y.^.Y._ O @ $ % @ . $ O + . . $ $ # . $ . + + . . . $ 7 + 7 $ + O + . $ 7 K v.VXY.T.Z.Z.x.q 7 r v.x.r H K ] H r U.K 7 $ 7 r + + e Q Q Z x M.W.( =.=.' 8.8.9.=.*.*.e.p.h.+X$XOXoXOX#X#X#X#X#X=X#X@X#X#XtXpXtX4X=X=X#XOX#XOX@X#XXXXXXXXXXXg.u.6.F D ~ ~ A A C e v v S D P                                           ",
"                                        b.c A z Z v v Z P Z ) D D #.5.p.oX$X$X#X#XOX#X$X4X=X=X6X4X5X5XtXfXpXsX0X4X7X4X=X=X=X@XOX#X#X2X+XoXp.s.0.9.M.9.9.9.9.v.c.9.P.P.! q P A A 5 + c e $ $ s _ -.7 r ! c x._ v.T.7 H r U.Z.v.E.Y.VXU H 7 . . $ 7 $ 7 7 $ r . . . . . + $ $ . + $ + . . $ + $ $ 7 $ 7 7 U Y.ZXx.v.                                                                                                                                                                                                                                                                                                                                                                                                    Z.^.^.A.I M 7 % r . . 7 . . . $ 7 + . , . . . . . . $ r . 7 $ $ $ + . $ r ! V.!.T.U.G.V._ 7 7 7 G._ H ] _ ` c q U.K 7 $ 7 r . $ e ` P Z c m.W.~ =.=.) 7.7.=.=.;.*.0.s.h.$X2X2X$X2X4X4X4X4X=X4X=X=X4X5XgXgXpXtX5X4X=X#X4XOXXX=X@X@XOXXXXXp.u.7.D Q ~ ~ A A Z v v A S *.P                                           ",
"                                        x.x D z D x A Z P P ( ~ ~ F 5.p.oX#X#X#X#X#X#XOX@X#X@X#X#X=XtXpXxXpXtX4X4X7X4X4X4X7X=X#X#X#X$XOXh.u.s.0.q.9.9.o.9.' 8.c.9.P.Z.H , P A A q + x c $ O r ! ] $ 7 _ Z.x.V.x.x.7 H r Y.Y.! Z.T.VXU H r + . $ r - $ r 7 U + . . . . . + $ + 7 $ $ + + $ . $ + V.7 r U !.U.Y.[ v.                                                                                                                                                                                                                                                                                                                                                                                                    Z.T.T.T.T.r $ M [ . 7 r $ + . $ 7 # . + . . . . . . $ r $ 7 - $ 7 $ . $ H ! m.CXG.U._ Z.-.r $ r G.] Z.v.V._ r 7 Z.H 7 $ 7 r + + q K / K c m.Q.Q ' 9.=.7.7.( =.;.=.q.f.h.+X#X#X#X#X#X#X4X4X4X4X5X5X5XtXcXvXgXtXtX6X4X=X4X#X#X4X#X#X#XXXXXp.5.*.D P Q Q A A K M v v V *.P                                           ",
"                                        x.A V V A 5 D Q Z P ! ~ ~ ~ &.r.g.#X#X#X4X4X4X#X#X7X4X5X0XtXtXpXcXpXpX5X5X0X5X5X5X5X4X=X4X=X#XOXh.u.e.0.9.=.q.9.7.7.9.9.B.P.G.L , P A z q $ r C O * s _ [ 7 c _ x.b.c.-.Y.+ r r T.U.V.T.T.VXU H r + + 7 r 7 7 r 7 U + . + + $ 7 r U U [ $ + . . $ + O . x.CXA.!.C.x.U.[ v.                                                                                                                                                                                                                                                                                                                                                                                                    Y.!.Z.V.V.!.b.DX7 . 7 r + . . $ 7 K H H c 7 $ + $ . $ H 8 r 7 $ 7 $ . $ H ` V.^.T.T.x.Y._ r 7 r !.N.c.] b.! e 7 Z.H 7 $ 7 r $ + 7 e ` C C m.wX( ' =.=.( Q ) ' =.;.q.e.u.+X#X=X=X$X4X4X5X0X5X4X5X=X5XtXpXgXaXtX5XuX5X=X#X=X7X4X4X=X#X#XOXh.5.F A Z D D A A K M v z V F Z                                           ",
"                                        x.A S V A 5 Q Q P Q ! I ~ ~ #.4.h.$X#X4X7X4X4X#X4X4X=X5XsXpXpXgXcXaXpX5XsX5X5X5XtX5X5X4X5X4X#X$Xk.s.0.9.9.8.F.q.7.q.9.9.9.P.P.` q P D z q $ e C O - C ' x.7 q ` x.x.8.-._ , r c T.U.x.U.T.ZXU H r $ + 7 H 7 r 7 $ r . . . + $ 7 7 r 0 H 7 $ . . $ O $ + [ Y.x.b.] v.Z._ v.                                                                                                                                                                                                                                                                                                                                                                                                    U.!.C.x.x.[ x.C.7 $ $ H $ . + $ + I r e 7 $ $ + $ . + r + r - $ 7 , + 7 H ! m.:XY.Z.I Y.] r 7 H Y.-.x.x.-.! q 7 Z.H 7 $ q r $ $ 7 c ` c c 9.wX( ~ ( =.' Q ' ( ` =.9.0.e.oX$X4X4X4X4X7X0XtX5X5XsX5X5XtXgXcXgXtX5X5X4X=X=X=X7X#X5X5X#X$XoXu.&.D Z A D A A A L M v 5 D D Z                                           ",
"                                        8.x A z 5 v ~ ~ Q Q I ! ^ ( F 6.4.+X=X5XtX0X4X=X4X5X4X5XpXpXpXgXcXaXtX5X0X5X5X0XtXtXtX5X5X4X$Xh.e.7.*.9.) 7.q.9.q.M.9.M.M.P.R.Q , P P e 4 # e H $ 4 H _ ` r r ! x.x.c.-.7 + r r Y.U.Z.T.!.CXU c r , $ $ H , 7 q . 7 + + @ $ $ $ 7 $ $ H $ $ + . 7 + $ O ] U.v._ b.v.T.| V.                                                                                                                                                                                                                                                                                                                                                                                                    Y.^.A.] [ ] x.T.r + 7 H $ . $ $ , r 7 7 7 $ + + + + $ 7 $ 7 $ . , $ . 7 H _ -.!.G.Y.x.A.x.c q c T.x.x.] x.I q 7 m.H r $ 7 H $ . r c _ c x b.CX/ =.` -.' =.( ( =.9.;.*.0.s.$X4X7X5X5X4XtXsXtX5XtXtXtXpXgXcXgXpXtXtXtX5X4X5X4X=X4X4X#X#Xy.&.#.D Q Z Q / Z D ! 7 x z D V P                                           ",
"                                        9.x A z x v Q ~ Q Q P P ~ ~ D G &.h.$X4X5X0X4X4X5X5XtXtXgXgXgXgXcXgXpXpXpXtXtXtXtXtXtXsX5X4X$Xp.0.;.=.9.) 7.9.9.M.M.M.M.M.B.C./ 4 C c c q # e K $ 4 H _ x.7 r ` _ ] c.c.x.$ r H U.Y.Y.Y.T.DX_ ] c.7 $ + q , r q . 7 + . . . . . + . . 7 $ + . . 7 + 7 $ ] ).x.[ v.v.R.[ V.                                                                                                                                                                                                                                                                                                                                                                                                    Z.T.v._ ] | S.!.J @ $ r $ . , $ + $ + . . + . . . . $ 7 $ r $ 7 $ $ $ r A.x.Z.^.T.U.U.Y.v.H 7 r v.m.v._ I ! r 7 V.H r $ 7 r @ $ H c ` w e M.CX` ' ' =.' =.=.=.=.9.*.*.*.5.XX4X7X0XtXtXtXpXpXtXtXpXpXgXcXcXcXaXpXtXtXtXtXtX5X5X5X=X#XXX5.#.#.D Q P I / Q ( / c v v V A Z                                           ",
"                                        9.x A 5 x 5 Z Q P Q Q P Q ) F F #.s.XX7X5XtX5X5X5X5XpXpXaXgXcXcXMXgXgXaXpXaXpXpXtXtXtXtX5X4XoXt.:.=.=.8.) 7.9.9.M.M.q.M.9.B.B.Q 6 Z c e q # e C $ 4 H _ m.q r U r ! -.c.T., H c Y.V.E.T.Y.T.SXY.V.I 7 + $ $ r r $ r $ . O $ $ + $ $ + 7 O + . . 0 O 7 $ [ A.] ] b.S.T.x.A.                                                                                                                                                                                                                                                                                                                                                                                                    Z.E.S.] x.x.b.Y.H $ 7 r $ . $ $ $ , , + $ + + + + . $ 7 + r $ . . . 7 _ V.T.VXZ.Z.U.V.V.v.H 7 c m.x.x.-.H _ r , C.H r $ r H $ $ H r -.q 7 ;.wX` ` 8.8.8.8.9.9.9.9.;.) *.5.oX6X5XtXtXpXtXpXpXpXpXaXNXcXxXmXcXgXpXpXpXpXpXtX5X5X5X#XXXr.&.D F D Q Z K Q Q ( Q C v v V D Z                                           ",
"                                        8.x A 5 x 5 A Q K Q / Q D ) F F F #.y.=X5XtX5X5X5XtXaXgXgXcXcXcXMXxXcXcXgXgXgXgXpXpXtXtX7X$Xp.5.:.;.=.( ) ' 9.9.M.M.9.9.M.C.B./ 5 Q C e q # q C $ , c ! ] r r I _ ] x.x.T.$ K H T.U.T.G.T.U.DXHXZ.c.7 $ $ $ 7 q $ H $ . $ $ $ + $ $ + $ + + . . r + 7 $ ] ).+.| | S.T.x.A.                                                                                                                                                                                                                                                                                                                                                                                                    Z./.A.| ] v.V.Y.J . $ r $ . + , $ $ $ . $ $ $ $ + . , 7 $ r $ , $ $ r V.U.CXU.Z.Z.A.Z.A.v.H 7 7 U.x.b.m.! _ r $ V.H r $ r U $ + c r c.q , ' :X' ' x.8.=.8.8.=.9.*.9.) ;.0.p.$X4X0XtXtXtXtXpXpXaXgXcXcXmXMXcXcXcXgXgXgXpXtX5X7X4XOXp.&.D D A A Z C K ! Z / P K e z z D C                                           ",
"                                        8.x A 5 x 5 A Q K Q Q P P D D F ) #.5.%X5X5XtXtXpXpXgXgXgXcXcXcXmXmXmXcXcXcXgXgXgXpXpX5X2XoXu.0.7.=.( ( ) ) 9.;.M.M.9.9.M.B.M.~ 5 Z e q e # q H $ , r I _ 7 7 ! x.` x.] Z., c H c Z.G.Y.Z.T.!.VXCXv.] $ r $ , 7 , H @ . . . . . . . . . + . . . r + $ $ [ U.b.+.[ n.T.x.A.                                                                                                                                                                                                                                                                                                                                                                                                    A.~.A.| [ V.V.G.H . $ r $ . . $ + . . . . . . . . . $ 7 + 7 7 , K 7 c.v.AXE.Z.V.V.V.v.x.c r 7 $ Z.x.v.x.b.` r $ V.H 7 $ r ! $ + r r c.q , ' :X' 8.;.-.` 8.8.=.=.=.;.*.*.7.#.t.#X5XtXpXpXtXaXgXgXcXcXcXmXmXmXcXcXcXgXgXgXpXtXtX4X$Xu.&.F D D D Z P ! / ~ Q P P q 5 z F v                                           ",
"                                        9.C A 5 5 5 Z P K P I P Q D D Q ( *.#.p.6XtXpXpXaXgXgXgXcXcXcXcXmXmXmXcXcXcXcXgXgXpXpX6XoXu.e.0.9.' / 9.' ( =.=.M.M.q.9.9.H.M.Z 6 Z x 4 q # r H $ , r I V.r q [ v._ v.] C.7 r H U 7 !.C.G.Y.U.Y.ZXU.v._ K 7 $ , , H + . . . . . . + . . . . . . r + $ + I G.v.x.[ S.E.+.A.                                                                                                                                                                                                                                                                                                                                                                                                    A.~.A.v.v.b.x.V.q + 7 H $ . . + + . + + $ . . . . . $ , + q $ r c [ V.Z.E.m.A.Z.b.Z.Z.H H H $ H Y.c.V.x.Z.` r 7 N.H 7 $ r K $ $ c r -.q , =.^.=.8.;.-.' c.=.=.=.9.*.9.) *.) 5.i.6XtXpXpXpXgXcXcXcXcXmXmXmXmXcXcXcXcXgXgXpXpXtX4X+X5.F F ~ D D Z C Q Q ~ Q P P q 5 V ) C                                           ",
"                                        M.C C 6 4 5 A K K ! P P D A Z Z L ~ *.%.$XuXsXpXgXcXcXcXcXcXmXmXmXmXmXmXmXcXcXgXgXgXpX6Xy.5.0.7.=.( ) ' =.) =.=.M.9.9.9.9.P.B.Z 6 P P e q # r K $ , c ! x.7 7 ` v.[ b.-.E.7 r r r I -.U.U.!.Z.G.Y.:X^.x.! H q , $ c + . . . . + + $ + + + . . . r . $ $ _ G.b.x.| v.T.W V.                                                                                                                                                                                                                                                                                                                                                                                                    V.!.V.v.n.b.v.G.r + + H $ . . . + + . # + + . + . . $ $ + , r I [ m.E.E.m.Z.U.U.U.v.` r q c $ c Y.c.V.x.x._ r q m.U 7 $ q H $ $ c r ` e , -.~.8.8.;.=.' =.=.=.' 9.*.*.) ) =.7.u.$X5XtXpXgXgXcXcXmXmXmXmXmXmXcXcXcXcXcXcXgXpXtX#Xi.&.#.F ~ D D Z C L I Q Q P H q 5 A F K                                           ",
"                                        c.x x > 5 e Z K P Q K Z Z A Q K N ^ *.#.y.6XyXgXcXcXcXcXcXcXmXmXMXmXmXmXmXmXcXgXgXgXpX6Xt.7.7.9.=.' ) ) ' =.9.=.8.=.8.9.8.B.9.x 6 e C c 4 # r K $ , c ! ] c 7 H x.x.x.c.x.r r , c r r V.T.G.Y.T.Y.!.ZXY.[ _ H 7 $ r + . . . . O $ $ + + $ + . . 0 . $ $ _ A.x.x.x.S.(.[ V.                                                                                                                                                                                                                                                                                                                                                                                                    V.~.V.b.+.b.b.A.7 + $ H + . . . $ $ + $ + + . . . . + $ + 7 H _ b.Y.SXT.Z.Z.U.Y.G.x.H 7 r 7 I U !.V.v.b.c.! r r m.I 7 $ 7 H $ . r c ` c , / P.' =.8.;.;.' ;.' =.( =.) *.) Q F 5.y.7XtXpXgXcXcXmXmXmXmXmXmXmXcXcXcXmXcXgXgXpXuX%X%.#.*.) ~ D Q P P I I Q Q P C e 5 v D H                                           ",
"                                        8.c e , e e c K K I Z C Z C Z K L ^ ~ #.&.XXuXgXgXcXcXmXmXmXmXmXMXMXMXMXmXmXcXcXcXpXdX$X5.q.( 9.=.( / ) ' ( ;.=.9.' ) 9.' B.M.Z 4 Z C c q + r c $ $ r H -.q 7 _ x.] x.c.!.r r r q r r H T.U.U.E.E.T.^.:XZ.b.! I , 7 $ . . + $ $ 7 7 - 8 7 + . . r O - $ W A.+.] x.v.U._ v.                                                                                                                                                                                                                                                                                                                                                                                                    A.T.V.] _ C.S.c.q $ $ H O . . + r 4 7 7 7 7 + + . . $ + $ H c C.Z.AX!.Z.U.A.Z.T.Z.H H 7 7 , K H ^.x.V.x.v._ r r v.U 7 $ 7 c @ . c c ] w q P Q.=.=.c.8.;.' ' P ( ' ' Q ( Q ) *.#.u.%X6XaXgXgXmXmXmXmXmXMXMXmXmXcXmXmXcXcXpXuX6Xt.&.*.D ) D ) ~ Z P L K Q C / r C 5 z A K                                           ",
"                                        8.c e , e x c ! K ! K H K P C K M L P A S r.=XpXxXmXcXmXmXcXmXMXBXBXMXMXMXMXzXcXcXaX=Xr.0.*.=.~ Q / ' ( ' =.;.~ ( ' =.' 8.H.B.Q 6 P Z c e # r c $ , r I x.r 7 _ -.x.] x.T.r H r $ r r r U Z.T.T.Y.T.!.AX!.G.I v., , $ . . . + $ 7 r r U 7 $ . . r + - $ [ v.v.I +.v.U.] S.                                                                                                                                                                                                                                                                                                                                                                                                    A.T.S.| ] c.C.V.H . @ H O . + $ 7 r q c r 7 $ + . . + $ , _ 7 A.CXAX!.Y.Y.Z.A.A.H H r r + r r H Y.b.c.b.c.I 7 7 b.K 7 $ q c @ . c c ] c e / W.8.8.c.' ` ] =.-./ ~ ' Z A Q D D #.&.p.6XaXcXcXcXmXmXmXmXBXBXmXmXmXMXmXcXcXaX6X|.@.#.F Q A D ) Q P _ L I v / I C c e 5 ) K                                           ",
"                                        8.c e , q r c Q P Q P K I U e 4 1 x x 6 V %.i.aXxXxXbXaXaXaXNXNXMXNXxXNXNXcXxXcXNX0Xh.5.7.( Q P x Z x / =.=.;.=.;.;.9.' 9.H.B.Q 4 Q C q e # e c # 4 r I _ 7 7 H I [ _ [ U.r H H . 7 7 7 q ] T.Y.!.!.T.Y.AXm.H x., , . . $ $ r H I _ _ ] $ $ + . r + $ $ ] D.| _ [ b.T.+.V.                                                                                                                                                                                                                                                                                                                                                                                                    Z.E.S.[ _ b.v.T.q . + H 8 . . 7 q ! H ! U c q 7 + . + $ , _ $ ] SXT.Y.U.Y.G.V._ 7 H r , + H r H Y._ [ x.c._ r 7 x.K q $ q c $ + r r -.H r ' W.8.8.=.' ` ] ` / / =.Q 5 5 A D D D #.t.%XjXxXcXcXaXaXNXNXxXxXxXNXaXxXcXcXNXaX4Xr.S z A A 5 x v Q P s _ x x ~ P H r x 5 =.H (.                                        ",
"                                        8.C e $ q e x ! I P K K H 7 # + 5 A Q =.7.s.%.dXNXNX4XOXOX4X0X0XaXaXaXtX4XpX5XpX0Xg.@.d.I.B.B.9.B.=.P x Q ' ' ' 8.8.=.=.' B.M.Q q ( c 5 q + e c $ , r K H $ r _ _ ] b._ U.7 r I . $ 7 r c 7 x.!.E.E.U.T.FX] r ] , , + + $ O $ $ 7 r H ] O 4 + . r $ $ 7 [ Y.] +._ x.R.] V.                                                                                                                                                                                                                                                                                                                                                                                                    Z.E.A.+.x.v.v.v.7 + 8 U $ . + 7 7 I r c r 7 $ $ . . + + $ U q _ AXU.E.Y.U.U.V.q H r r . , H q 7 ~.` V.x.] ] r $ _ U r , q c , + w r ] H r =.P.=.=.' ' ` ] ' ` ` Z e Q =.B.w.F.B.w.d.%.4XaXpXpX#Xi.4XtXpXgXaXtX5XgXpXtXaXsXi.4.e.q.q.) Z A > x c C ! ! A ~ P H r c 5 ' J T.                                        ",
"                                        x.C e # 7 w r I K K K C C # x v D Z Q 9.) V @.%.7X0X4XtXNXcXcXmXMXMXxXcXcXaX0X#X$XS h D A *.q.B.B.W.C.# e ' ( / =.=.' =.' M.b.Q e ` v e q + e x # 4 r P s + H x.x.c.Y.H U.$ r [ + . $ 7 r r U.A.T.T.!.T.FXc.7 b.$ + + . . . $ 7 r 7 7 H $ % + . r $ $ $ _ S.x.[ ] b.U._ N.                                                                                                                                                                                                                                                                                                                                                                                                    C.U.S.b.v.x.[ T.7 + $ r 7 . $ , 7 c 7 7 7 2 $ + . . + + $ H r ] SXT.T.U.U.R.C.r r $ r + , I , 7 T.-.A.C.x.[ r $ I K r $ 7 c , $ e r ] H r c.W.8.' ` ' ` _ ] Q ` # . C.P.B.H.q.) 6 6 z 4.8X@X0XpXaXcXmXMXMXzXcXcXcXpXtXsXXXb b ) H.9.' ~ Z A > e H K ! v Z P r r r x / H                                           ",
"                                        8.C e # 7 x x L K K C 5 . # ~ Q *.=.7.=.Q z h b i.9XdXsXNXcXmXMXBXMXvXcXcXNXNX9X@.l : z 6 F q.B.W.=.P q e ' ( ' =.' ` =.8.B.B.K e ~ C e e + q e # 4 C I e . r _ _ _ Y.r Z.7 r [ $ + $ $ I c U.^.T.Y.E.T.FXx.r [ + + + . + + $ $ 7 $ $ H $ $ . . r O $ $ _ S.] | x.b.U.I v.                                                                                                                                                                                                                                                                                                                                                                                                    v.U.V.+.[ b.b.V.r + $ r + . + $ 7 7 , 7 q q , $ . . + + $ U 7 [ FXU.U.C.Y.T.Z.c c + H $ $ ` 7 r Z.I x.b.[ I 0 $ I U q $ q c , $ e c [ H r c.T.=.' ` =.] _ ` / / . + Z Q >XF.F.F 6 # 6 l i.iXsXgXNXcXmXMXMXzXxXcXxXxXjX9X%.l z 6 Z *.w.q.9.=.( , $ I K ~ Q P q c e x Q H                                           ",
"                                        o.C r # 7 c c L K C c # , ( M.L.P.W.I.q.5 v z G k.8X9X7XsXNXxXcXbXNXNXgXsXdXdX8X5.#.l V 0.w.I.B.) ~ ` . e _ ( =.' / ` ` b.H.P.K 4 P c e e + q e # 4 C I 7 $ r I H I Z.H Z.7 f [ $ $ $ $ I r U.!.Y.Y.VXE.FX[ M ! $ 7 . + . . O $ $ $ . 7 $ + . . r + $ $ [ Z._ b.x.| Y.I c.                                                                                                                                                                                                                                                                                                                                                                                                    V.(.).b.[ b.c.U.r + $ r $ . + + $ # . + + + . . . . + + $ U r -.HXY.T.C.T.T.G.c I $ _ . , _ q q U.I x.! 7 I r $ U I r $ w M $ $ r c ` H r 8.W.' ' ' ' ] _ _ ` / . , Q Z *.L.>Xd.F 6 V b p.3XdXyXsXjXxXxXMXNXaXpXsXsXdX9X*XS V A D L.I.I.I.H.Y.4 $ 7 K K Z P r c q 5 Q J                                           ",
"                                        ] s r $ , c c K H C e . + v Z I.>XQ.Q.L.wXD z V S %.%.%.XX=X4X4X4X#X@XXXi.r.@.@.l b 7.F.I.I.I.A A Z P , c ' ' ( P ( x./ m.Y.Q.K 4 P C e e # e e # 4 x P 7 $ r _ U ] C.U U.0 r _ $ + $ 7 _ I V.~.~.!.U.v.DXx.7 x.+ $ . . . . + . . . . $ $ . . . r . - $ [ b.x.] x._ ).W c.                                                                                                                                                                                                                                                                                                                                                                                                    N.).S.x.| ] v.Z.H + 7 H + . . + $ $ . + . . . + . . + + $ I q ] !.G.U.U.T.Y.G.K H $ _ . 7 I q H U.H -._ U _ r + H I r # q K $ $ r M _ r q 8.R.( =.] / _ _ ` ] Q . 4 Q P A *.d.wXwXI.d.< h n a.,.a.7X7X4X2XOXOX@X.Xa.r.S S e.V 0.I.L.L.I.>XF.K e $ . _ K Q I H M q 4 Q J                                           ",
"                                        x.H r + 7 r H P c C H . . v x A Q.W.I.I.>XL.z < > z < h l S S S S b b b b l b h #.d.wX>XI.9.Z A 5 c H + c =.` ' ' ( ' Q c.C.P.P 5 P v 5 5 # 5 e 5 > Z K 7 $ c _ c I C.c T.7 r [ $ $ 7 7 x.H v.!.!.Y.!.T.GXx.r _ $ $ . . . + $ 7 7 7 0 r $ . . . r + $ $ ] U.x.o._ [ T.[ b.                                                                                                                                                                                                                                                                                                                                                                                                    C.T.A.b.U x.v.Z.H + $ r $ . . + , r r 4 7 7 $ # . . @ $ , ! 7 _ SXA.Y.T.U.Z.C.H I 8 _ $ $ _ 7 r U.H [ ] r W 0 $ $ H q # e v , , e c ` H q -.W./ ] ] ] ' ` ` ' ] . , / C C D *.I.wXwXwXd.5.l l b b b b S z V b b S S b b b G G wXL.L.L.L.D x c 7 , + ` P P U c r 7 7 _ f                                           ",
"                                        x.H c $ 7 r H K r c H . + 5 5 x 6 I.I.I.I.I.d.F.F.w.F.L.I.I.;XI.L.L.I.I.I.I.I.I.I.;XwXwXD Z Z Z e e e # C x.` ' ` =.;.' ` v.V.K e / v 5 x > 5 5 5 > v C w $ q _ r r m.H U., r [ $ $ 7 7 v.I C.^.T.Z.T.!.CX_ H [ $ O . + . + $ $ $ $ 8 0 + . . . r + $ $ x.U.+.[ H ] T.[ b.                                                                                                                                                                                                                                                                                                                                                                                                    v.^.A.b.[ x.V.U.H + $ H 7 . . # , 7 7 $ $ + . + . . $ $ , I , U GXZ.T.V.T.VXT.U U + I + $ _ 7 r U.U [ _ H T q $ , K e > x Z > > e c ] H 7 8.T.! ;.8.-.] ] _ ` ` + , Q C K Q Z 7.D wXwXqXI.I.;XqXwX>XwX;X>XI.I.>X>X>X>XI.I.d.d.I.I.I.wXZ 5 q r q , $ _ I I I H H r 7 ^ f                                           ",
"                                        x.H r $ 7 c H H c c H . . 4 5 5 6 z F.>XwXwX>X>XW.I.wXwXwXwXJXwXwXwXwXJXJXJXwXwXJXwXI.*.A P P K C e 4 . 4 ' / ' 8.8.8.8.` v.V.P C / v 5 z > x x e , v C r $ H _ K ] A.c U., r ` $ + 7 , ] H C.^.T.Z.R.T.SXx.r _ $ 7 + . . . . + + + $ $ . $ . . H $ $ $ ] Z.v.b._ v.T._ v.                                                                                                                                                                                                                                                                                                                                                                                                    V.!.Z.b.x.x.b.C.r $ 7 H $ . . + + # + . . . . + . . $ $ 2 c 7 x.CXZ.Y.C.V.T.A.H I $ _ $ $ _ 7 7 A.r [ v.I T 7 @ $ K e , x Z 6 , e C ' c 7 ' G.I ] -.] ] ;.] ] ] # , K c K K ( D D q.wXwXwXwXwXrXJXwXJXwXJXJXJXJXJXJXJX>X>X>XwX>XI.I.A 6 e 7 7 q # $ I K K U H H r 7 I f                                           ",
"                                        x.r q $ 7 C H H C H c . . 7 r 4 Z x z 9.B.F.q.q.) 9.M.q.9.q.F.w.F.w.) B.F.B.B.F.B.wXA A Z K Z v e q 4 . q ` ` ' m.=.=.=.] m.S.C x / x 5 x > x x e , Z K r , 7 _ r 7 m.H Y.7 q ` $ $ , $ _ H A.^.!.Y.T.U.!._ U x.7 $ + + . . + $ $ $ O + . $ + . r $ $ $ [ V.+.x.[ b.A._ v.                                                                                                                                                                                                                                                                                                                                                                                                    A.A.C.v.b.x.b.A.r + 7 H 7 . . + + + $ $ , + . + . . + $ 7 ] H _ FXZ.T.m.Y.VXY.U H . U + 7 ] 7 7 A.U _ 7 7 I 7 + $ K e > x A 5 5 c c / r 7 ' Y.' x.-.] -.x.=.;.` + + r q c K Z P A A D >XF.F.w.q.F.F.w.9.L.B.B.L.F.I.I.w.w.w.7.L.L.F x 5 q q 7 7 . + H K K P H c r 7 I H                                           ",
"                                        x.r 7 $ 7 H H K H H c . . % 7 r 4 5 5 B.Z Q A Z v Q ~ Q ( ) 7.) ) ( Q ( 9.9.Q ( Q H.z A A c c c q q q . e ] ` ' c.8.=.8.x.m.m.c e ~ v v 5 # x x e , K K 2 + c I H x.G.r U.7 q -.$ 7 , $ x.U C.^.T.Z.Z.U.AX] r [ $ $ . . . . + O $ $ + . O 7 + . r $ $ $ [ V.x._ x.x.V._ v.                                                                                                                                                                                                                                                                                                                                                                                                    V.v.S.b.c.x.v.A.r . - H $ . . $ + . # $ $ + . . . . + $ 7 ! c -.AXC.U.U.Z.!.A.U _ $ _ $ 7 [ r 7 Z.H ] v.U I 7 + $ C e > x x > 5 c e I q q _ G.] ] ` ` ' ` ] =._ . + c c K H H x C A x H.) *.*.Z A Q Q ( =.( 7.=.' ;.( Z A A V 6 D 9.5 e 7 7 , 7 . $ K K I I K r q 7 I H                                           ",
"                                        x.r q $ 7 H H K K H c . . 7 % 7 7 e C Z Z Z A x c e Z ! Q / ( / / / ~ / ( Q =.K ( ' v Q P e q x e e e . 7 =./ ' ' m.8.x.x.m.m.C e ~ v A 5 > x x e , K K q $ 7 I q r V.r Z.7 r x.$ 7 , $ b.H V.^.Y.V.v.Z.SX] r x.7 $ + . . . . . . . . . $ 7 . . 0 $ $ $ _ A.x._ x.v.U._ v.                                                                                                                                                                                                                                                                                                                                                                                                    V.R.S.] 3.x.v.C.r O 7 H $ . . , $ . . . . . . . . . + + , I H x.FXA.Z.G.G.!.C.U I + _ + $ [ q r Z.U U 7 r I 7 + # C e > x A > , x x / r q _ G.] ] ;.8.x.=.] -.` + $ C C K q 7 c c C K B.' P ( C C Q P ` ' ( ' / Q Q K Z C A A 5 A C 7 s $ 7 $ , . $ K K P / P q 7 7 I H                                           ",
"                                        x.r r $ 7 H H H K K c . . O 7 r 7 c + ' C C P K e q q M K / / K ! P c H P / C I / ` K P Z q $ 4 q q q $ H -.] ] ' c.' ` -.c.v.C q P v v x > x x e , K K q $ r _ H ` C.r Z., H -.$ $ 7 $ b.H V.VXT.U.A.U.SX[ r b.7 $ + . . . . . + + + . 7 - . . 7 $ 7 $ _ V.] U [ v.!.x.v.                                                                                                                                                                                                                                                                                                                                                                                                    A.!.V.[ _ [ v.U.H . $ H 7 . . 4 $ . # $ $ + . . . . + + $ ! H x.FXG.G.V.U.!.C.I _ $ _ $ 7 _ r r U.H I _ H I 7 $ , C q > x Z , 6 x c ` c q ! C.` ` ] =.-.] ] -.` $ + 4 , 7 r 7 r J c _ b.' Z Q C P I C c K I P K c c r r c Z P Z E K $ $ 7 7 $ , . $ K K Q / U q 7 7 I J                                           ",
"                                        x.H r + 7 H H H K H c + . $ $ $ $ 7 , e C K C C . @ + $ , + 7 , + , , , $ q P P ! 8.K P C K e q q + + , _ ] -.] x.' ' ] ] x.v.H q P Z Z x > x x 5 , Z K r $ 7 _ r c c.q A.+ r _ 2 $ q $ x.H v.^.!.!.Y.U.SX[ r v.7 $ $ . . . . + $ + . . 7 $ . + 7 7 7 $ _ b.] x.x.C.^.x.v.                                                                                                                                                                                                                                                                                                                                                                                                    A.Z.N.3._ ] v.Z.H + $ r . . . 7 $ . . $ $ , + . . . + + , ! c x.AXU.Y.V.U.T.v.I _ $ _ $ 7 _ 7 r Z.U U r 7 I q , , K q # x Z 6 5 c x ! r q ' Z.-.-.] ` ' ' ] -.] 7 $ + . $ r y y J K r ' / / / q $ . 4 $ 2 $ . $ + . + . . H _ P _ H O - 7 7 , $ . $ I ! ` I K 7 7 7 I U                                           ",
"                                        x.r 7 $ , K C H H K c $ + + 7 O , 4 # P P P K K q -.! ! _ ` ` / / ` =.8.8.c K P I =.K H c H K $ + # . _ !._ / -.] ` -.` ` -.C.H q Q C x C > v x , , x K q $ 7 ] x.x.G.r G.$ H ] $ 7 7 7 b.H b.T.Y.Z.A.U.FX[ 7 b.7 $ . . . . $ $ $ 7 . . 7 7 . . O $ r $ _ ] r ] b.C.^.x.V.                                                                                                                                                                                                                                                                                                                                                                                                    Z.T.A.N.^ _ x.A.r $ r + . . + q $ . . e 7 , $ . . . + . 7 K c ] GXY.Y.U.Z.U.A.H _ $ ] + 7 _ 7 7 U.r v.] _ [ q $ , C q + e C > # c c ! c e ] !.` ] ] -.! _ ] ` ` m.H . . . $ U H H c C =./ P _ r x.V.] x.[ ` _ x.I _ ! x.$ K Q _ _ H 7 7 7 7 , . + r H Q ! I H 7 7 7 I f                                           ",
"                                        x.r 7 $ , H H P H K K c + . $ # 4 4 + C K K ! c r ! ^ I I I K H C K P / K e Q Q c I e c H C q + + . H -.] K / -.=.-.-.] ` x.G.K q ! C c x # x c q 5 c ! I . r ] ! -.G.H U.$ H ] 7 q r 7 C.H ] Z.U.T.U.).FXx.r _ + + . . + . $ $ O 8 . . r 7 . . . + 7 7 _ x.H _ v.V.E.o.b.                                                                                                                                                                                                                                                                                                                                                                                                    V.^.V.x.v._ H ^.H $ 7 . + . . e $ . . 7 # $ + . + . + + r H ! x.T.T.T.U.Z.A.C.U _ 7 ] $ r H 7 7 U.H ] x._ _ q $ 7 c 7 # c C > # x x ! c q x.SX` _ ] ] x._ _ ` I ] I , . . + 7 H Q K H ' x.` ` 7 H _ I _ _ ! K U H U c ! $ P ! ! I r 7 7 7 $ + . $ c H I I K H r 7 2 _ U                                           ",
"                                        x.r 7 $ , H c K H H H H 4 . . . 4 4 + C K Q P K , e x x 7 4 , # # # # 4 e e Q P P / c c C e $ + + 7 ] =.Q / ! ! Q ] ] x./ ] C.H q / C e e + e e , , r K w 7 7 r c c c ! Y.$ r _ $ 7 r 7 C.H b.U.Y.T.T.U.SX] 8 _ r 7 + . . . $ $ $ 7 . . 7 7 . . . . $ $ I _ I [ ] +.Y.x.x.                                                                                                                                                                                                                                                                                                                                                                                                    V.^.b.| I U _ H H $ $ + . . . r $ . + r $ , $ . + . + + r U r I HXY.G.Z.A.V.b.H I $ _ $ 7 H 7 7 Y._ U I H H 7 $ P C 7 $ e C , , c c _ C q ] Y._ x._ [ _ K I ] _ ` _ r $ . . + e Q K K / 8.` ` e e r r q , $ $ + 7 7 4 e $ H I U H r 7 7 7 $ . + r H H P K U I H 7 $ ^ H                                           ",
"                                        x.r 7 $ q H r U U K H c q + . . # , 4 Q K K K C # . , , # # + + + + + # , c / P P ` C K 7 $ + # , ` =.Q _ / ! I ! ' _ _ _ -.m.c r ` K e C > e x , , r I I $ $ H I ` _ c.E., c _ + 7 r r V.H V.Y.U.Y.T.Y.GXv.7 _ $ . . . . . $ 7 7 r . . 7 7 . . . . + + $ 7 $ 7 $ . 7 $ x.                                                                                                                                                                                                                                                                                                                                                                                                    ] 7 + 7 $ 7 $ 7 $ 7 $ . . . . c , + + C 4 , @ . + . . . q I 7 _ FXV.!.G.v.T.A.U _ 7 ] $ r H 7 7 U.V.x.x._ H q , -.K 7 $ q c $ , c C =.K q ] Y._ ` [ ] U K K [ _ _ _ H q , + . , e c Q ' / ` Q e # . # . . . $ + $ + $ $ . P I U U H 7 , $ + + , H P K I K H H q 7 7 ^ J                                           ",
"                                        x.r 7 + 7 r r U I P H r q $ + . + + 7 _ C Q H ' q c c c C c C K K K C C C P Q K ! ] H c + . . 4 K c.' / ` Z K I _ _ _ / _ x.v.r r _ H e c # q r $ , c / ] $ , ] [ x.V.V.T.7 H ` + $ r c Z.H v.Y.Y.T.!.T.FXx.r x.$ O . . + . $ $ 7 r + $ H 7 . . . . . O v._ x.v.[ _ v.H _                                                                                                                                                                                                                                                                                                                                                                                                     [ Z.b.x.x.+.] [ x.. . . . . . H 7 $ + c $ , + . + . + + r I H _ SXA.m.U.Y.!.A.H I $ ] $ 7 I 7 7 C.C.C.V.x.T r $ x.H 4 $ e r $ + r c c.K q x.Y._ _ _ [ ! ! _ _ ! _ _ I H q + . . $ 7 / x.I ! K C 4 , 7 e H r H H c H H K C _ _ I ! H , + . + $ q H H K ! I H c 7 7 7 _ U                                           ",
"                                        x.r 7 $ $ c c U K H H r r 7 $ # . . + r c C ! ! ] K ` Q Q ! _ ` ` ` / / ` Q C c K _ q + + . $ r =._ ' ' =.C K I / U _ _ _ v.C.H r I C e e . 4 e # , e ! _ 7 7 [ [ ! ] c.Y.$ H ] $ , r c A.H b.U.Z.U.Y.U.GXv.r x.$ $ . . + . $ 7 7 r $ $ H 7 . . . . + $ [ _ x.[ x._ v.I I                                                                                                                                                                                                                                                                                                                                                                                                   !.^ V.] _ ] ] ] _ [ + . . . . . P q $ + K 7 7 $ . + + + + r ` r ` FXZ.Y.G.U.!.A.r _ 7 ] $ r _ 7 7 Z.V.x._ _ T q $ b.H 7 $ q H $ + q c v.K q x.Z.! ` ! _ _ K _ ! _ [ _ _ ! K 4 $ . . $ r _ H H H ! I Q Q Q ` I P ! I _ _ ] ] _ I K U r + . . $ 7 r H H H I P K H r 7 7 _ U                                           ",
"                                        x.r 7 $ , P P I H H K H f 7 7 $ + . . + $ 7 7 r H c e r r c H H H H C r r r e 7 , 7 . . $ $ e K 8.K ' ( ' P Q ` / P P / ] A.).U r I H s e # q c $ , r ! -., 7 [ ] [ x.] T., K x.7 7 r c V.I V.T.U.T.Y.Y.GXv.8 [ 7 $ . . + . 7 r H U $ $ H 7 . . + + + $ U H I U H r _ 7 U                                                                                                                                                                                                                                                                                                                                                                                                   !.H I q M J 0 H _ H 7 . . . . . I q $ $ _ C r , + + + + + r K H ` AXA.v.Z.Y.T.C.H U $ _ $ r W 7 7 T.v.[ U _ U 7 2 b.H 7 + 7 H $ $ r r v.H q -.CXI K _ I ] K I ! _ ] ! _ I I r 4 $ + . + % $ r 7 c r C C K K C r r r r e r C H r q q $ . . # 7 r r H H H K I K H r 7 7 _ I                                           ",
"                                        x.r 7 $ , P H H r H P H H 7 $ $ $ $ . . $ $ + + $ $ . # $ $ $ $ $ $ $ $ $ + $ $ + $ . $ $ $ C I ` P ' P / Q Q / I I U _ [ A.Z.H r I H r 7 + 7 r $ , r _ [ $ 7 ! _ _ ] ] T., H ] 7 7 q q +.r ] C.V.Y.Y.Y.CXx.r I 7 + . . # . , r C U , $ _ r + . . . + 7 [ _ r I H H r r r                                                                                                                                                                                                                                                                                                                                                                                                   ~.y r r r H _ H x.I $ . + . . + / r , $ _ c r , . + . + + c K c ] AXx.m.G.G.T.V.H H $ U + r H r 7 Z.] ] _ _ U 7 7 x.H 7 $ 7 r # # c c b.H 7 x.U.U K U K I I _ ` ` x.] ] I U r 7 7 + . $ . $ $ + $ + , , 4 # $ # $ $ . # $ o $ $ $ $ + . $ 7 r r r H I K I _ / H r r 7 I H                                           ",
"                                        x.r r $ 7 P H 7 + H U K H 7 7 $ $ $ o o . . . . . . . + + . . . . . . . . . . . . . + $ 4 7 P / _ P I ( ` / I _ Q r $ H ] x.A.I r H r r 7 O 7 H $ $ r I ] $ 7 7 7 r r [ U.7 H ] 7 7 r 7 ] r v.T.!.U.Y.Z.ZXx.r x.$ $ . . # . q r c H , , ! 7 $ . + . + 7 ] H ` I _ [ A._ I                                                                                                                                                                                                                                                                                                                                                                                                   !._ C.x._ _ -.` U _ $ . $ . . + / e , , =.v c , . # . + . r I r ] ^.x.A.A.U.!.A.H H $ _ . 7 I $ 7 !.U _ r 7 7 , , x.r 7 + q H 7 . K r ! H , x.U.I I $ 7 K _ _ ] ` _ _ ! ! I H e 9 $ $ . . . . . . . . . . . . . . . . . . . . . . . . + , e c H r I H I H H I H r r , I H                                           ",
"                                        x.7 q $ 7 I r H !.r P C H 7 7 $ $ * $ o . . . . . . . . . . . . . . . . . . . + . @ $ $ 7 e P / / P P / P P _ / I c ^.H [ b.A.U r I H r 0 $ $ r $ 7 r U -.+ 7 ` c.C.T._ Z.$ H -.7 7 q 7 [ r V.Y.Z.T.C.T.CXU $ v.7 $ . . , . e c K P 4 , -.q . . + + O 0 [ 7 r P _ I [ r H                                                                                                                                                                                                                                                                                                                                                                                                   !.U U U I I Q C ! / 7 . . + . $ ] r , + 8.P ! q . $ . . . r I r H SXZ.A.A.Y.Y.v.H I $ _ . $ I r 7 V.H T.V.x.] r $ -.H 7 + 7 c , $ H r I H $ _ U.I _ x.7 ! _ I ] ] [ _ ! ! U U r 9 7 4 + $ + . . . . . . . + . . . . . . . . + + . . $ , 4 7 e C H I H I K U _ H r r 7 U H                                           ",
"                                        x.q q $ 7 r I C , I I r H 9 7 * $ 7 $ # $ $ # # O $ O $ $ $ $ $ $ $ $ + + + $ $ $ % r e r e r P ! Q I ! ` _ ! ] [ I c U _ x.v.H r U r r 7 + 7 r $ 7 r I I . 7 K r I T.c Z., H ] 7 7 r r v.r V.!.T.U.T.] SXx.7 x.7 $ . $ 4 . Q ( 8.=.q , m.x $ . $ $ O 0 ] _ $ 7 O 7 r $ r                                                                                                                                                                                                                                                                                                                                                                                                   T.r H r r O $ q x._ r $ + . . O v.H q , H.c.] r + , . . . q ! , [ SXZ.Z.b.T.!.C.H _ + U $ $ x.r H U.r v.U H _ 7 + x.H q $ r r $ , c r ] c $ _ U.[ [ H I ` I K ` [ ` _ _ ! U I r e e 7 $ # o $ . . # O o o O $ $ $ $ O $ $ $ $ , $ $ 4 7 7 7 C c c H P I H H r q r 7 7 U H                                           ",
"                                        x.r q $ $ H ! I ` K r C H r 9 7 7 7 4 O $ $ $ $ O $ O o $ $ # $ $ $ $ $ $ $ 7 $ 7 7 r r c c c U H U ! ] _ U _ -.] C.x.b.] V.C.H 7 H r 7 7 $ 7 H $ $ r I _ $ r r q ! Z.r C.$ K x.7 7 7 7 [ H V.^.T.T.Y.U.CX] 7 [ 7 $ . o q . Q Q =.( q 5 b.q $ + + + . 8 [ H ] +.x.] A.[ I                                                                                                                                                                                                                                                                                                                                                                                                   ^._ Y.V.x.x.x.8.! ` $ . + + . $ S.H , . C.=.8.c # 7 . + + 7 P c [ SXA.Y.b.V.!.Z.H U . H + $ _ r H C.f b.r U H $ , b.H 7 $ 7 H $ $ r r m.r , I U.[ [ b.V.] [ _ _ _ [ -.] _ ! U r r r r 7 7 7 * $ $ * * $ $ 4 $ $ $ $ $ $ $ $ 7 7 7 7 q e e c K C H H ! I P C r H c q 7 ! K                                           ",
"                                        x.r 7 + , U r H I K I c r r r r 7 7 7 4 7 9 9 7 7 7 7 $ 7 4 , , , 7 7 7 4 , 7 4 e c I I U H r K I _ _ [ x._ ! 3.b.x.x.x.] U.U.U 7 I r $ H $ 7 r $ $ r U [ $ $ r c ] V.c U.7 I -., $ 7 7 ] U v.!.!.T.U.Y.SX_ $ ] 7 $ + . , . / ' 8.` 4 , -.7 $ . . . + 7 _ T._ [ _ _ C.H I                                                                                                                                                                                                                                                                                                                                                                                                   !.U C.b.] x.] _ T.H $ . . . . $ v.H 4 # C.=.' q + 7 . . . , H 7 x.CXZ.U.G.T.T.A.H H + H . 7 _ 7 r v.7 v.[ s U $ $ c.H r $ 7 H $ $ r r v.r $ _ T.[ x.x.] x.[ ] ` _ ] 3.[ _ _ I H r r r r 7 7 7 7 7 7 7 7 7 7 r r 0 r 7 7 9 9 7 7 7 7 r r c H C r H H I K I U H H 7 7 , _ H                                           ",
"                                        x.7 7 + , $ r 7 r q 7 r r r 9 r r 9 r 7 9 r r r r e 9 7 q 7 7 7 7 q q e r e r e r c K K I H r H ! _ _ ! U M U [ [ v.c.3.v.v._ $ + r r 7 7 $ 7 H $ $ r U ] $ $ H 7 H m.c U.7 K -.7 7 r r b.r V.!.T.U.A.A.SX[ 7 [ $ $ $ . , . C K Q K , , ` , + + $ $ $ . $ r H H H r r r I                                                                                                                                                                                                                                                                                                                                                                                                   VXH r r r H I r q 7 O $ . . . + ] c , + 8.K ! 7 + 4 . + . $ K r ] CXS.C.A.C.Y.C.H H $ _ + 7 I 7 $ b.H b._ H K $ + c.K r $ r H $ 7 7 q ! , + 7 b._ x._ ] -.` _ I I _ _ I H ! I U r r r H r r 0 r H r 7 r r r r r r r r r r r c r q r H C r c C r H H P H K K H q + , q ! r                                           ",
"                                        x.7 q $ . . + # + $ + . . + + $ $ + $ . $ $ $ $ $ $ O $ + + + + # $ $ $ # # # # . . + + . . # $ $ + $ 7 $ $ $ $ 7 7 H r 7 7 $ . . 7 $ + . + r H $ $ r U _ + 7 U r H m.r V.+ H x.7 7 q 7 [ H r Z.Y.T.T.Z.^._ $ _ 7 $ . . $ # c P Q K 7 , K , . . + $ 7 . . 7 7 H M H H H x.                                                                                                                                                                                                                                                                                                                                                                                                    x.U 7 r U H r . . . 7 $ . . . I C 4 4 8.P K 7 + , . + . 7 I r x.HXC.SXA.A.U.b.r H $ _ + 7 _ r r Z.0 b.[ H H , $ x.H 7 + r r $ , $ $ q $ $ 7 , $ $ $ $ 7 + $ + + . + + . $ $ $ . . + $ + $ $ $ $ + . + O $ $ $ $ + + + o # $ + . $ $ + # 7 + . . . + . . . + . . . 7 K H                                           ",
"                                        x.r r 7 $ 7 , $ + , 7 q $ 7 $ 7 7 7 7 $ $ O + + + . . . . . . + + + + . + # , e q H P P ` I I ! -.] ] ` x.S.V.V.v.m.c.c.A.T.Z.W + $ $ + + $ r r O 7 r H _ $ 7 r r H b.r U.7 H [ $ 7 r r v.r b.!.Y.T.T.A.SX_ $ ] $ . . . $ + , c c c 7 $ K 7 . . + 7 I r 7 @ r b.v.x.T.] V.                                                                                                                                                                                                                                                                                                                                                                                                    A.^.v.x.b.-.c $ $ r U 7 . . . H c # , / r c 7 . $ . + . 7 K r v.FXV.U.C.V.).] r U $ [ $ 7 I 7 0 T.H v.H r H 7 $ [ r q $ r r $ . $ + 7 , r x.AXG.Z.Z.G.v.V.m.x.] ! _ ] _ [ ] ] _ _ _ U r H $ $ $ + + . . + . . . . . . . . . . # , , $ 7 I U I I I H c H I _ ] [ , 7 r H                                           ",
"                                        x.r r q 7 U r 7 7 C c K H 7 H r U H r r 8 7 r 7 7 7 7 $ 7 q r 7 r q r r 4 e r C H c C K C ' ( / 8.` ' / ] 8.8.x.x.] [ -.x.Z.Z.r $ H _ r 7 + 7 r $ $ r U c.. 7 c K b.C.q G., H ! $ 7 q r x.H ] U.Y.T.U.U.^._ r [ $ $ + . $ . , 7 r c , , H $ . . . + U [ M . 7 [ | ] U.x.v.                                                                                                                                                                                                                                                                                                                                                                                                    Z.Y.b.U [ _ 7 + r x.H . . . + r 7 4 , ! q q $ . + . . + r ! c ` !.C.G.G.V.Y.A.r H $ [ . 7 _ 7 r A.U b.V.I K 7 , v.K 7 $ q r $ + r 7 v.c r m.GXV.x.v.v.-.-.x.] _ _ _ U I ` U I H H U H r U H H M r r r r r H 7 7 7 7 7 r 7 r r r 7 C r r c H K C H c 4 q H I -.` 7 q H H                                           ",
"                                        x.r q 7 4 U H H I ! ! P H H _ _ _ _ _ U H I _ I I U U _ P ] 8./ _ ! I H C K P / _ / / / e C ( ' H / I I ' c.c.8.` ] x.b.x.A.C.r $ r H 7 r $ 7 r $ $ r U ! + 7 r 7 K b.c U., H [ $ 7 q r b.r U.).U.Y.U.A.HXx.7 _ $ + . + # . $ 7 q e , , e $ . . . $ _ ] I 7 $ x.| v.Y.3.v.                                                                                                                                                                                                                                                                                                                                                                                                    Z.T.A._ _ I $ 7 H _ H + . . + r 7 , $ ! 7 7 + . + . . + r _ c ] AXC.U.Z.-.U.C.H U $ I $ 7 _ r 7 !.H _ r $ H $ + x.H , $ 7 H $ $ K U ! q q [ CX-.v.c.-.-.x.] [ I H H H U K I U I _ [ _ I _ _ _ _ I U U U U U _ H H _ U H _ ! ! U K ` _ ! ! I I K H C H K I _ I r $ 7 c H E.                                        ",
"                                        x.r 7 $ # c c I ! U / H r 7 $ r r r r H I x.b.v.v.x.x.b.b.b.C.b.| x.V.x.] ] 8.m.Z.P.T.Y.Z.P.A.Z.Z.C.P.v.e ' =.v.8.C x._ ] Z.C.H $ r r 7 r $ 7 r $ $ 0 H ` 7 7 r r _ v.r A.. r ] $ 7 r q x.U v.Y.Z.A.U.T.CX] 7 _ 7 $ . . + . $ $ 7 7 @ $ r $ . . + $ I I [ q 7 b.| G.K.x.v.                                                                                                                                                                                                                                                                                                                                                                                                    A.T.Z._ [ [ $ T _ U f + . . o r 7 $ + H , 4 # . + . . # C [ K x.SXV.A.V.I Y.C.H U $ H $ 7 I 7 7 T.H ] _ r H $ $ c.H 7 $ q r , , r c ! r , ` G.] x.A.[ x.` ! ! H $ !._ U I _ U [ x.] x.[ _ _ _ _ _ [ x.] _ ] x.[ [ b.x.[ v.b.b.] ` b.x.` _ -.` [ C I / / K _ H r r r K r T.                                        ",
"                                        x.r , + $ H x.x.H / _ $ x.v.v.U.C.V.v.v.b._ ] x.I I [ I _ _ _ _ [ I I K ] ` =.m.V.P.Q.W.B.C.C.Z.V.v.E.8.4 / 8.=.8.K Z.x.x.T.U.U $ U H r 7 + 7 r $ $ 7 H ! . 7 q 7 K x.r G.$ r -., 7 7 7 ] U V.T.] Z.Z.C.AXx.r ] $ $ + . . . $ $ , 7 + $ r , . . + $ U r T r 7 c.b.S.T.c.v.                                                                                                                                                                                                                                                                                                                                                                                                    Z.T.A.] v.[ + [ I H H $ . . o r 4 # + c , 7 $ . + . . $ H _ U -.CXc.v.b.I Y.A.r U $ U $ 7 _ r 7 x.r _ H r c + + b.r 7 + 7 H + + 7 7 x.r r _ CXx.x.U.r x.` _ H r 7 ^.V.C.Z.C.b.Z.Y.U.T.U.C.A.C.V.v.v.V.x.[ x.[ _ T I _ W I _ _ U H _ I H H r H H 7 P x.I _ ` I r 7 $ H r U.                                        ",
"                                        x.r , . $ c r K I H + ] H v.Z.A.I H U U H I H H [ _ _ x.S.[ x.V.v.b.C.v.Z.Z.Z.G.Z.G.R.Y.c.C.V.U.^.VXP.m.Q $ -.] ] H K -.] T.Y._ 7 _ H 7 7 $ 7 7 $ $ 9 H b.$ $ I U I v.q m., c ] 7 , $ 7 H H v.Y.Y.b.A.U.AX_ $ x.7 $ . . + . $ $ $ , . + , $ . . + $ _ J | y T b.b.b.S.] v.                                                                                                                                                                                                                                                                                                                                                                                                    C.Z.b.[ b.+.7 b.U U U $ . . + q $ . . q , $ o . . . . $ H ! c ` CXx.v.v.] Z.Z.r H 7 H O r x.7 7 A.r v.I U I $ + -.H 7 $ r r $ $ r r V.H 7 c.1X! c.H U -.x.! H $ AX_ U U.A.A.b.C.S.| x._ U T [ [ _ _ [ [ _ b.] 3.3.] v.V.x.b.v.x.` -._ I ! S.` ] c.q v.] K H r r r 7 _ H U.                                        ",
"                                        x.r , . $ c I ! H _ . 7 r U U H 7 r r 7 r r H I U H H H J H f 0 r 7 r H P I ! ! K C Q Q / / I / ! P K I $ # c.x.-.m._ _ _ A.Z._ r _ r 7 7 $ 7 7 $ $ 7 H H $ , _ U H V., ] + r _ , $ 7 H I I !.).Z.).A.A.AXx.7 x.7 + . . . . $ O $ $ . + , $ . . . $ _ U _ M y x.b.b.G.| v.                                                                                                                                                                                                                                                                                                                                                                                                    V.Z.v.] [ [ y v.J U f o . . + 7 $ . . 7 $ O + . . . + $ H _ r ` DXv.C.V.b.A.U.x.H H r + r _ 7 $ x.7 x.H U I . . H r $ $ 7 7 7 $ r r c.U , ` ~.` _ G.` x.-.] r $ U r H U _ _ U T J r M r 7 q r y r r y H r q r y q 7 r r 7 7 q r 7 r q r c H q e 7 $ ` ! ! x.! c q $ I r Y.                                        ",
"                                        x.r 7 + 4 c H P K _ + , H H H 7 $ . . . $ + $ $ . . . + . . $ @ . . $ + + $ $ $ + + , 4 $ r q r [ I I ! + 7 x.x.x.c.-.[ _ C.Z._ 7 _ H r 7 $ - - $ $ 7 H r $ , I ` ] Z.c V.7 H I $ $ H I _ C.U.Z.T.U.U.Y.] ] 0 x.7 $ . . . . $ + $ $ . + 7 , . . + $ _ I | M J ^ ] V.K.x.v.                                                                                                                                                                                                                                                                                                                                                                                                    C.U.v.] H y 0 +.U f H O . . . 7 $ . . $ $ # . . . . + # r I H ` U.V.G.Z.V.V.T.Y.[ _ H $ 7 _ 7 r b.7 ] ] _ H + . H r 7 $ r r $ . c H _ c r 3.~._ I ! _ U x.b.H $ H r H I x.r r r % @ @ + . . . . . . @ . . . . + . . + + + + . $ + + + $ $ K c H $ 7 I _ I I c r 7 7 I c                                           ",
"                                        x.r 7 $ , H K K I / $ , H 7 r @ $ + + . + $ $ $ % % $ - 7 - $ + % $ $ 7 7 r 4 # + . $ $ 7 q H 7 7 I c K + $ v.] c.-.] x.x.U.T._ $ I H r 7 $ $ - $ @ 7 H _ + q c c c I U Y.q c H + , _ _ x.^.Z.A.Y.U.T.v.r x.r [ 7 $ + . . . + + + $ . + $ , . . + $ ] ] | J J H [ S.T.x.v.                                                                                                                                                                                                                                                                                                                                                                                                    Z.T.v.] I U I v.] H U $ . . . 7 $ . + $ + o . . . . . . 7 7 H ! r m.G.Z.Z.b.T.!.v.[ _ 7 $ H 7 7 A.r H H H 7 $ + _ q 7 . r c $ 7 r r c.r 7 3.^.L ! K _ x.-.x._ + U H r U r q J i % $ + . @ X X O O $ $ $ $ % @ $ % $ $ 7 $ $ + $ $ $ $ 7 $ 7 c e 7 , _ I P U H K 7 $ H c                                           ",
"                                        x.r 7 $ 7 H K I _ ] + , C Z + @ + r $ $ $ 7 7 2 8 u . 8 C r r r 8 8 r r H $ 4 # 5 # , q r r r r $ _ r U + $ b.] x.x.] ] b.U.A.I $ H H r 7 + $ 7 + $ 8 H [ , 7 r r r H _ v.H H r . U _ _ AXU.v.A.U.U.T.H H H 7 r . r . . . . . . o o + . $ $ . . . $ I U v.r y ] +.v.).] v.                                                                                                                                                                                                                                                                                                                                                                                                    A.!.N.] _ H H v._ _ H $ . . + $ $ . + $ . + . . . . + O . r + r H _ Y.G.Z.V.Y.G.AX-.] r $ r q q Y.! r r r 7 $ + ] r 7 + 7 r $ $ r r ] r 7 -.GX` -.` -.x.x.c.K $ I J H U O f 8 u 8 7 7 w % ; X . H c c y u u u u y r r s 9 7 % q w J M w $ 7 H K , 7 ` ! r H K c 7 , H H                                           ",
"                                        x.r 7 $ 7 P I P H ! . 4 C P , 2 . r 0 0 f H H H J Y & y r e e e 0 i i r 7 7 7 Q P ' ! 3._ I q r $ _ U H $ $ x.x.x.x.x.b.V.!.U.U $ H H r 7 + $ 7 + $ 7 H I $ r I ` _ ` ] U.7 K r H H ! T.U.T.A.C.U.!._ r f 7 7 $ $ 7 + . . . . . + + . . $ $ . . . $ I U _ H W W b.x.U.v.b.                                                                                                                                                                                                                                                                                                                                                                                                    A.U.x.x.c.[ H | I U H $ . . + $ + . + $ # $ . . . . O $ . $ 7 $ r H _ U.C.A.Y.U.Y.U._ ! 7 7 7 c ~.x.` U I r 7 $ ] r 7 $ 7 r $ $ f r ] r $ ` ^.` -._ ` -.] x.K $ _ U U _ @ 2 % | [ W / I | R i O H C r r u u i y r r r r 7 0 7 7 % 3.I q $ q U I q r ] ` H K I c 7 7 H H                                           ",
"                                        x.r 7 + 4 I _ I H I . , ! H $ % X ; ; % % - = = o 8 X y K H C r f y y 0 J $ q q 4 4 r q C ! $ 4 , I [ I $ $ ] x.x.] x.S.v.!.Y.H $ W H 7 7 $ 7 7 + $ 0 H _ 7 r K _ [ -.-.G.r 7 K ! _ V.^.T.T.T.Y.Y.V.7 f r 7 o $ . r + . . . + o o o . . $ $ . . . $ W I [ f U I b.v.G.W b.                                                                                                                                                                                                                                                                                                                                                                                                    V.A.x.x.x.x.r [ _ I H $ . . + $ + . . + + + . . . . + $ . . $ 7 r r r V.U.U.C.Z.U.U.C._ K 7 $ q U.` [ _ ] r 8 $ [ r 7 $ 8 r $ $ H H x.r 7 [ ^.] ] -.[ [ c.x.H $ x._ H U . x + 2 % $ 7 @ 3 t a i L Q Q J y s s H P K H M q q r 8 7 H H r q q K U 7 7 _ I c H K r 7 q I H                                           ",
"                                        x.r 7 + 7 I I K H _ . $ y I O - & Y ; X $ $ O o o e 8 J y M H r f r f y H 7 , $ $ 7 e 7 q + 7 r $ [ _ I 7 7 ] x.] ] x.V.b.U.U.H $ _ H 7 $ $ 7 7 + $ r H U $ q K ` -.-.] v.r $ H _ x.~.U.Z.Z.Y.U.!.I H 7 7 7 . $ . H + . . . . . . . . . + $ . . + $ W I [ 0 H x.x.V.Y.| v.                                                                                                                                                                                                                                                                                                                                                                                                    A.K.A.V.x.v.f _ U U H $ . . + $ + . . . . . . . . . + $ . + . 7 r r H _ Z.U.U.U.Z.C.~.` I r + q v.` _ ] ] H 7 $ [ r 7 $ 7 r O $ H H x.r 7 _ SX` ] x.-.` c.x.H $ x.I I I + v 3 7 % $ % % & i i B T / Z f T f H H K H c w 7 r 8 7 H r H r $ r K K 7 7 ! K r H H q 7 q _ K                                           ",
"                                        x.r 7 $ q K H r c / . $ J f O X J i 8 f H H y y H _ I N y y i % ; O % & 8 i 8 r J T f U H H r $ r _ _ H $ 7 x.x.x.x.S.A.V.A.A.U + U H 7 $ $ 7 r $ - r H H + r I ] x.x.] b.7 q ` _ Y.Y.T.T.Z.T.^.I r r $ $ O $ $ $ r $ . . . . . . . . . . + . . + $ _ I W r f x.] V.Y.x.v.                                                                                                                                                                                                                                                                                                                                                                                                    A.Z.V.N.x.[ f _ H U H $ . . . + . . . . . . . . . . $ $ . $ . + 7 r r H [ U.Z.A.Z.Z.C.T.[ H $ 7 x.` ] x.-.I r $ ] r 7 $ 7 r $ + r r ] r 7 _ AX] V.c.b.v.x.] H $ ] H U H . v Z H H f f Y T R  .| L c s f f y M r q q , $ $ @ + O - r 7 r 7 r H H 7 7 ! I H K H 7 7 q ` H                                           ",
"                                        x.r 7 $ 4 H C c C I . $ H r $ % | y ; 0 0 f M M r c N w y u u ; J J U J Y u J J % r H 9 7 2 q J r U _ U $ 7 V.x.b.v.v.S.V.A.A.U o H H 7 $ $ 7 r $ 7 r H _ 7 r I [ x.x.-.Z.$ r r G.!.Y.Y.Y.Y.U.x.H 7 r $ . + O $ + r + . . . . . . . . . . + . . + $ W I _ r r U +.V.U.] V.                                                                                                                                                                                                                                                                                                                                                                                                    Z.Z.b.3.[ J r [ U _ U $ . . . . . . . . . . . . . . $ $ . + $ . $ 7 H r r V.C.G.U.Z.A.T.b.H 7 $ v._ x.b.x._ r $ x.H 7 + 7 r + + r r ] r 7 _ ^.` x.] x.b.x.b.K $ ] H H 7 7 _ c s 0 0 u ; u u i y y q 8 & ; % 8 y N L J c H r r r 0 0 y I $ q H H $ $ ! I K I H 7 7 q ] K                                           ",
"                                        x.r 7 $ $ c H H H I . , c ! + q I K.C.C.U.T.(.(.K.C.Y.R.R.T.(.D.'.!.~.!.VX(.(.1XS.~.^.!.(.T.DXq H I _ c # 7 Z.x.b.v.b.x.b.U.A.U $ H H 7 $ $ 7 r $ $ 0 H I $ r ! ] -.] ] ] 7 r r N.A.Z.Y.Y.A.FXr H r $ $ . $ + 7 . r . . . . . . . . . . . . . . + $ I I _ r J T v.V.T.v.N.                                                                                                                                                                                                                                                                                                                                                                                                    Z.(.V.x.] W r [ U U U 7 + . . . . + . . . . . . . . $ $ . $ + + . $ r r r r ZXA.Z.G.C.A._ r 7 7 G.x.v.b.-._ r $ ] r 7 + 7 r + . r r x.r 7 x.:X] [ x.x.x.v.C.U + _ r H 7 x.S.n.A.D.).(.).(.(.(.(.Y.K.!.(.R.U.(.(.T.T.Z.V.V.V.V.v.v.b.v.8.# 7 H H 7 7 _ ! H U H 7 7 r x.K                                           ",
"                                        x.r 7 $ 4 r r c H I . 7 P C , q C ! ! I _ _ [ 3._ M I J H Y R p  .R | | | ^ ^ ^ ^ | [ _ I x.] x.I H I H $ $ U.x.v.V.b.b.v.^.U.H $ U H r $ + - r $ $ 7 H I $ c _ ] ] [ _ x.+ c c C.C.U.C.V.T.r r 7 r . . + $ $ - + 8 + . . . # O $ O $ O . . . . . $ I U +.r I x.v.v.R.+.v.                                                                                                                                                                                                                                                                                                                                                                                                    Z.!.v.x.x._ r ] _ I I 8 . . . . + 4 $ + $ + . . . . $ $ . $ $ + . + + r r r _ Y.C.C.C.V.] H q q A.x.-.v.x.I r $ [ r 8 $ - r + . 7 r x.r 7 -.ZX] -.x.c.x.-.x.! 7 _ r H $ _ T | T W T W T U W U U W u ^ R R T T T Y T I U _ I I H H x.U H 7 $ c H , 7 _ ! H U H q q r x.H                                           ",
"                                        x.r 7 + 4 H K r r I . q ! K + x Q K ^ ] f J ^ R f 9 7 f f u R B B } } R f 9 7 8 u R W [ ^ U _ [ I I I y + 7 U.v.v.b.x.-.x.T.Y.I $ _ I r $ $ 7 r + $ r U ! , r _ -.] ] _ ] $ r r Z.Z.C.G.Z.^.r r 7 + + . $ $ $ 7 + 7 $ . . . $ O $ $ 7 + . . $ . . $ _ I _ 0 _ x.v.v.A.] b.                                                                                                                                                                                                                                                                                                                                                                                                    K.V.c.x.x.] r [ _ W U 7 . $ + . + $ , $ $ + + . . . + $ . $ $ + $ . . 7 7 c -.T.C.Z.C.C.] H q K v.x.c.x.x.I 7 $ b.r 7 + 7 r . + $ r x.f 7 x.U.[ ] -.x.-.v.v._ $ _ r U $ _ T S._ _ y J 0 8 8 r y y f R } } R Y f f r H U I I H s K r c H q , c U 7 7 _ I H I K r r r ] U                                           ",
"                                        x.r 7 + 4 H K c c ! . 7 K K + e ! K L T & & t t & & X & t t a { { { { { t & & & a { a i | _ _ _ H U T H $ 7 A.x.b.b.x.x.v.!.!.I $ U H 7 $ + 7 r + $ r H I , r H 7 r r _ x., H U V.v.Z.A.A.^.H r 7 . . . $ 7 7 8 . $ + . o # $ $ O $ 7 . . $ $ + $ $ U _ ] H W v.+.S.Z.] v.                                                                                                                                                                                                                                                                                                                                                                                                    K.G.v.x._ +.f ] I I r O . $ $ . + , 7 + # . + . . . $ 7 . $ $ $ $ + . $ $ K x.T.C.G.C.m.I c 7 H v.c.H H H U 7 $ x.r 7 $ 7 r . + $ r ] H 7 x.G._ ] _ ] b.V.V.` , _ H H r _ ^ I J J t t t t & & & a t { { { t & & ; O o X $ @ . o K P r M M , r K 7 7 _ I H _ I r r r ` U                                           ",
"                                        x.r 7 + , C K C H _ . 7 J J + q U J H J & a .._.X.a t a X._._.`.`.`.`.`.X.X.{ X._.`...{ u J U J r H _ H $ q Z.V.Z.V.x.x.x.Y.U.H $ U U 7 7 + 7 r + $ r H _ , r ! r ] H ] x.7 c H v.x.Z.Z.Z.^.U H 7 . . + 7 $ $ 7 $ 7 $ . # $ $ O 7 r r . $ r 7 $ $ $ H I [ W _ b.W S.U.[ v.                                                                                                                                                                                                                                                                                                                                                                                                    V.G.S.v._ v._ x.J H U $ . $ H H . $ c r 4 $ $ $ + . $ 7 . $ $ $ 7 + . $ 7 U b.E.Z.Z.V.b.I r q r b.x.r m.7 U r $ x.r 7 $ 7 0 . + $ r [ r 7 -.ZX_ -.-.x._ V.v._ $ _ U H 0 _ N N r & X._._...{ { { .._.`.`.`._.X.{ g - d f _ Y u 8 s Z C N w $ r H 7 7 [ _ I _ I r q q _ K                                           ",
"                                        x.r 7 $ $ r H C H ` . 7 H H . 7 J L I Y & X.].].{.X.{ X.`.].].].[.[.[.].`._.X.{.[.].{.X.p U ^ U q M _ H $ 7 v.-.v.v.x.c.x.T.Z.H 7 _ U 7 7 O 7 r $ $ r H ! $ 7 H $ _ c ] c.r r H C.V.Z.Y.U.!.I H 7 . . O r - $ 7 $ 7 + . $ O * $ 7 r r + $ r r $ . $ _ I [ W T ] W v.U.] v.                                                                                                                                                                                                                                                                                                                                                                                                    V.U.V.S.[ x.W | T r I $ . $ H r + $ C 4 7 $ $ O + . $ 7 . 7 $ $ 7 $ . + r U b.E.U.Z.C.v._ H 7 c x.v.c K 7 H r $ x.H 7 + $ 7 + + 7 r _ r 7 [ ^._ _ v.x.v.b.c.! + _ H I 7 _ L J f t {.].[.]...X._.{.[.[.[.[.]._...g - s U [ u i 8 9 C H N 3 @ q H 7 q ] ` _ I K r q q ! H                                           ",
"                                        x.r 7 $ $ c H C K ` . 7 y y . 2 J I U g t X.].[.{...X...{.[.[.[.[.[.[.[.{._._.].[.[.{.X.a U T I q M [ T 2 7 c.3.V.V.m.C.b.^.Y._ $ _ U r 7 $ 7 r $ $ r H U $ 7 c 7 U U ] b.7 r c V.C.m.Z.U.!.U H r + . $ 7 $ 7 r $ 7 . . . . o . . . $ . 7 x.U . $ 0 r U ] I H ] x.b.A.| S.                                                                                                                                                                                                                                                                                                                                                                                                    V.Z.V.v.x.[ H ] _ r r $ + $ [ A.+ $ . $ . + . . . . O 7 + 7 $ $ 7 $ . $ H I c.T.Z.Z.Z.V._ r , q x._ 7 H r H 7 $ ] H 7 + - r + + 7 r _ 7 $ _ :X_ _ v.b.V.v.b.I + _ H _ 7 [ L J s t {.[.IX]....._.].[.[.[.[.].`...} 0 U U T i i - 0 C c w 8 @ q H 7 7 ] ` _ ! H r q r ! K                                           ",
"                                        x.r 7 $ 4 H K H K ` . 7 r y . 7 H J f u & { `.{._.X.{ X._.].].].].{.].{._...X._.].]._.{ i I T T q 7 I r @ 2 x.3.v.m.v.v.V.^.Z.U + I H r - + 7 r $ $ r U U , 7 ! ] c.c.] A.7 r H c.C.Z.Y.Y.^.U H H + . $ 7 $ 7 7 $ r + O O # O $ 7 7 7 . $ H r . . - r $ J I I +.[ v.Z.x.S.                                                                                                                                                                                                                                                                                                                                                                                                    V.Z.v.x.x.+.H T 7 $ $ r $ . r H 7 # c $ 7 7 $ $ O + $ 7 + 7 $ $ $ $ . $ U ! m.!.A.A.C.m.! r 7 H [ [ v.[ C.I r $ ] r 7 + 7 r $ + 7 r I 7 $ _ AX_ c.c.m.] b.c.K + H r H 7 _ I U s a _.{.].{.X.X.X._.].].{.{.{...X.p i ! _ W T u - 9 s P J w @ q H 7 7 ` _ ! _ K r 7 7 U H                                           ",
"                                        x.7 7 $ 7 H I K K _ . 7 r r . 4 K H M i & a ....} u i p } .._._.....X.X.} } }  .....{ t i J I _ H r ^ H $ 7 x.3.x.v.v.v.U.CXY.U + U H r $ + 7 r $ $ r U U , r U ` ] x.` V.$ q r v.V.Y.Y.T.1XU H U + . $ H 7 7 7 $ r . . $ $ O 4 r H H . 7 r 7 $ H r r 0 r H [ +.W v.R.v.S.                                                                                                                                                                                                                                                                                                                                                                                                    Z.T.N.x.[ b.I 7 $ r r H r $ r r $ $ ! c H r r 7 $ + $ $ . 7 $ $ - $ . $ U ! C.^.A.C.V.V._ H $ 7 C.x.x.] x._ r $ b.r 7 + 7 r $ . 7 r I q , ` ^.` v.c.x.v.x.x.! + U r r 7 I U W r & X...X.{ a p { X.....X.X.t & & & X q 8 q 7 * . s C ` U 7 $ r H 7 7 [ _ I _ H c 7 7 H H                                           ",
"                                        x.7 , + , H I K K _ . 7 r r . 5 K H N u ; ; p i ; * $ % i a a a t a a t i i u u p p ; % I I U ^ y q I M @ 7 v.N.V.A.C.m.U.CXT.U $ H J r 7 + 7 r $ $ r U I , r K _ ] -.` b.7 r r T.A.Y.U.U.VXH H I + . $ H 7 7 7 $ r + + + $ $ + $ 9 s # 7 r 7 f v.[ _ x._ 8 _ x.| v.T.x.v.                                                                                                                                                                                                                                                                                                                                                                                                    V.!.V.v.] v.W $ [ x.[ _ x.7 7 r $ 7 r 4 7 7 $ + + . + $ + 7 $ 7 7 $ + @ J I m.!.V.A.A.A.` r 7 r C.] x.x.x._ r $ v.r 7 + % H $ . 8 r U 7 $ x.:X_ b.m.v.v.V.x.x.+ ] H H r I U J J u i p i i & t i p p p p i ; - O - % 8 y y r e 9 ' P P r r $ r H 7 q ] _ I ! H H 7 7 H c                                           ",
"                                        x.r 7 + $ r H ! I / $ , C r . r ! H H | T W | [ I 8 8 u J R R R R R } R } | | | | ^ U U [ H I U r r I c $ 7 V.v.x.V.v.m.Z.!.Y.U $ H H r 7 + 7 r $ $ 7 I I $ H I -.x.` ` v.$ H H T.Z.T.Y.G.T.H c I + . $ r 7 7 r @ r + . + $ 7 * 7 H s o 7 r 7 7 I 7 H I r 7 +.+.+.v.A.] b.                                                                                                                                                                                                                                                                                                                                                                                                    Z.T.S.v.] v.T q H I r 7 I + 7 r $ $ e e e 7 7 $ + . $ $ . 8 $ $ 7 $ + $ H I ] Z.V.C.C.Z._ r q 7 C.x.-.x.x.I 7 , c.r 7 + 7 q $ . r r ` 7 , ] V.-.[ -.b.V.c.b.K $ ! U c I ! I J _ K y T g Y g g R  . .} } R u r f I H I _ +.] ] ] I H c H c $ r H $ 7 [ _ _ U H H 7 $ H r                                           ",
"                                        x.r 7 + $ r c I U _ , $ H 9 + r H U U H J I W T J y ; 0 y J M T T N J J J W [ [ _ H 9 0 H H I U r r _ U . 7 V.V.c.C.m.V.C.!.T.U $ H H r 7 + 7 r $ $ 7 I _ 7 r _ ] c.] ] x.7 r H V.C.Z.Z.U.~.! c K + + $ c , 7 r $ r . + $ * 7 7 7 H r o $ r 7 O U H _ _ f 7 ] ] +.v.Z.x.b.                                                                                                                                                                                                                                                                                                                                                                                                    V.Z.V.v.T x.W $ I I S.7 U + $ r . $ U r H q q $ $ + + $ . $ + $ r $ + $ I I v.Y.v.v.C.U._ H , q Y.[ x.x.] ! 7 $ c.r 7 + 7 q $ . q 7 _ 7 7 ` ~.` I x.b.x.v.c._ $ [ I 7 U I I H e 6 e C I u u g u R } } R Y y M r M r H U W _ H r r H H c r 7 r H $ r x.[ U U H r 7 $ H r                                           ",
"                                        x.r 7 + $ C C H H _ , . I 7 . r [ b.[ q 8 7 r 8 7 % . . O % 2 i % q r 7 e c r 8 7 $ . # $ r U I r r ] _ $ r A.C.v.C.V.A.x.!.Y.H $ H U r 7 + 7 r $ $ 7 U ` 7 c [ x.x.x._ c.7 q H C.U.G.G.Z.~._ H K $ + , I 7 7 c $ 7 . + O O 7 7 r H r $ $ r $ $ [ 7 0 _ r $ _ _ ] b.V.] b.                                                                                                                                                                                                                                                                                                                                                                                                    A.Z.Z.A.[ v.I $ J _ r 8 I . $ r . $ U r c 7 7 $ $ + + $ + 8 $ $ H 7 . $ _ ! v.T.A.A.C.U.[ c r r U.x.c.-.-.! 7 $ x.r 7 + 7 q $ . 7 7 _ q 7 -.CX[ _ x.b.c.c.m.x.7 b.] , _ _ U H $ $ 7 - % - % 7 2 7 w 8 i 8 q $ . + $ $ 7 7 7 $ + $ r H r r $ r H $ r b.x._ I H r 7 $ H r                                           ",
"                                        x.r 7 $ 4 K H H H ` 4 . H 7 . r [ _ q $ + O O @ @ . . . . . @ & 2 $ + $ 4 7 % $ @ . . + . $ r H 7 r ` ! $ r C.V.m.V.V.A.x.^.T.H $ H I r 7 + 7 r $ $ 7 U U $ c _ U ! ` -.v.$ q H G.C.A.Z.Z.!.I U I $ + 7 I 7 7 c $ 7 . + # # 4 e r C r $ + 7 $ 7 W U _ _ 8 % ] [ +.v.A.[ b.                                                                                                                                                                                                                                                                                                                                                                                                    Z.G.S.v.] [ I $ J I H I U . 7 7 + $ r r e 7 $ $ $ + . $ + r $ 7 H 7 . $ _ I x.G.C.Z.C.A._ q q 7 m.-._ _ _ _ q $ x.r 7 + , r $ . 7 r _ r q ` CX] ] c.c.x.x.b._ . ] _ + I H _ @ . $ . . $ $ $ , , , , 2 q q $ . . . + . . . + . . + 7 I c r $ H U 7 7 ] _ I I U r 7 7 U H                                           ",
"                                        x.r q $ $ K K H H ` 7 + U r + H _ U $ $ $ 7 $ 7 7 $ q q . M 2 % 8 & & ; - - & X . + . * $ + r U r r I ! $ q C.m.Z.V.C.A.C.CX!.I $ H U r 7 + 7 q $ $ 7 U I 7 r ] q [ c ` x.$ r H A.c.V.A.G.!.I I I $ + 7 H , $ r + 7 . + $ O 7 r r C e + $ r $ 7 H r r H % - ] [ | S.Z.] v.                                                                                                                                                                                                                                                                                                                                                                                                    Z.T.b.] [ v.r - f U H H r . 7 7 $ 7 c r r r 7 $ $ + . O + 7 $ 7 H $ . - U I c.U.m.A.Z.G.` r , 7 b.] r ] H _ q $ x.r 7 + , r $ + 7 r ` r q K G._ ] _ -.v.x.v._ . ` _ $ I U I @ . . q @ q X % % % % ; ; & O @ @ % $ $ $ , $ , 4 $ . , ` U r $ H I 7 7 _ _ I U U r , 7 I H                                           ",
"                                        x.r q $ , K P K H _ 4 + I $ . r I _ r . 7 7 $ , 7 7 r H O X 3.L N N u Y T J i r c U - - r $ H _ r r K _ $ r C.V.U.V.V.V.C.VXT.I 7 U U r 7 + 7 q $ $ 7 H H + r _ r x.H ] -.7 c H V.V.C.A.Y.:X_ K H $ + , U 7 $ 7 . 7 . + o O 7 9 r H r + + 7 $ r 0 r H 7 8 % ] W [ b.G.] v.                                                                                                                                                                                                                                                                                                                                                                                                    v.T.b._ I [ U . H 7 H s 7 7 $ r $ 7 P e r 7 7 $ $ + . $ + 7 $ 7 H $ + $ f H x.G.V.C.V.V._ 7 $ , x.x.c ] U _ q $ x.q 7 + 7 r $ + 7 r _ r 7 -.^.c.` x.] ] v.v._ + ! U . K U J O 7 q # -.M T J J U U J J Y W [ 8 @ $ , + $ , , 4 q $ $ [ I r $ r H 7 7 [ _ I U U r $ 7 I H                                           ",
"                                        x.r 7 $ 7 K K U H _ $ . U 7 $ r U I 7 . q $ 7 q r c 7 H - i [ CXN.N.V.V.N.v.c.N.V.C.H $ r $ r _ r 7 H I + r v.v.C.v.c.c.b.Y.Z.U 7 I H r 7 + 7 q $ $ 7 H U , H H q I c ` b.r r H v.C.V.v.Z.^.! H H $ + , U 7 2 r . , . + + $ 7 7 9 U H $ $ 7 $ x.Z.x.x.T.r - x.+.[ b.Z.[ v.                                                                                                                                                                                                                                                                                                                                                                                                    V.Y.v.+.[ x.I O +.T.] b.v.r $ r $ $ U e 7 7 7 $ $ . . $ $ 7 $ 7 H $ . $ H H x.U.C.Z.V.V._ c r 7 ] [ r c c I q $ x.q 7 + 7 r $ + 7 q ! r 7 _ U.] [ [ ] x.x.c._ $ ! U + ! U T . 7 x 1 K ~.n.v.b.V.C.V.A.U.'.Z.y . $ $ $ , , q , q 4 , ` P 9 $ H H $ 7 ] _ H U I H 7 7 I H                                           ",
"                                        x.r 7 + 4 H H I P _ , + H 7 . $ _ _ $ $ 7 # P / -.8.e C $ 8 x.[ m.m.J.J.I.J.H.C.v.b.r 7 r 7 7 _ r 7 I U $ r b.V.V.m.b.m.x.C.V.U 8 U H r 7 + 7 r $ $ 7 H K 7 r ] x.U.x.x.c.7 c H V.V.C.A.V.E.K K H + . 7 H $ , r $ , . + $ 7 r 7 7 U H O $ r $ I v._ _ U.8 + +.v.] x.A._ v.                                                                                                                                                                                                                                                                                                                                                                                                    A.A.c.x.] ] W $ T V.[ _ b.$ $ 7 $ $ H H 4 7 7 7 7 . . $ O 0 $ 7 H $ . 7 U r c.U.c.V.C.C.I r $ 7 m.-.b.v.C.I 7 $ x.q 7 $ 7 r $ $ 7 7 I q 7 _ Y.-.x.] ] x.[ x._ $ ! I $ ` U T O , C q ` N.V.m.q.w.d.w.M.N.U.W 9 + $ 4 / ;.( ( 5 , 4 , _ H 7 + r H $ 7 x.[ U U _ H 7 7 U r                                           ",
"                                        x.r 7 $ q c K P U _ , + I r . $ _ _ 7 . r + P 8.b.' q C # 7 T _ M.J.,X,X,X;Xw.Y.V.+.P 4 7 7 r _ r 7 _ I $ H b.m.V.v.V.x.x.A.A.H 7 H H r 7 + 7 r $ $ 7 H ! 7 r _ ` -.x.] T.7 c H v.v.c.A.C.!.I c c $ + 7 H 7 7 q + , . + # $ 7 r H r r O $ r $ H ] _ I ] 0 . ] v.W v.A.W v.                                                                                                                                                                                                                                                                                                                                                                                                    A.U.S.| +.x._ $ I [ I H [ $ + 7 . $ r H c r 7 7 $ . . + + r $ $ r 7 . $ H r V.^.V.V.G.G._ c 7 7 v.[ ] ] [ I 7 $ x.r 7 $ q 7 $ + 7 r I c , ` T.] c.[ x.b._ c.I $ I -.+ ! U I O 4 e 7 ] b.x.q.f.*X,X,X;XJ.G.[ 0 + 7 q K ' M.K , , , , _ r 9 $ 7 H $ 7 [ _ H U U r 7 7 _ H                                           ",
"                                        x.7 7 $ $ K / H K x.r . H 7 . 7 _ ! 7 + r $ e P / Q q e . # [ | B.J.-XkXlX-X1.W.n.+.K 6 q . H _ r r H I $ c v.V.V.v.v.c.b.U.A.H $ U H r 7 + 7 r O $ 7 H ! 7 r _ ` ] -.[ m.$ c r x.x.x.Z.V.CXH H K $ . 7 I 7 , 7 + 7 . . # $ * 4 7 7 7 # $ 7 . I ] I H _ - O ] ] I n.).[ v.                                                                                                                                                                                                                                                                                                                                                                                                    G.U.C.+.T x.I $ U [ r q _ $ . 7 + $ 7 7 7 7 $ $ $ . . $ $ 0 $ 7 H 7 . $ H H v.!.Z.Z.C.V._ r , 7 m.] ] [ -.I 7 $ -.r 7 $ q 7 $ + H q -.q 7 _ ~.[ x.] x.c.x.x.[ , H I $ _ H H o 4 e % W b.v.J.f.,XlXeX*XJ.H.[ 0 $ 7 7 r Q ` Q , # + 4 ` H 7 + 7 H $ 7 [ _ I I U r 7 7 I H                                           ",
"                                        ] 7 7 $ $ q H P I ` 7 $ r 7 . q ` I 7 + 7 $ , r C C 4 , . o +.+.H.;X-XlXlX,X0.W.b.| s # 7 + r _ r $ I H 7 r m.V.V.v.b.b.b.Y.A.H $ _ U r 8 + 7 r O $ 7 H U 7 r _ ` ] -.] V.7 r r v.V.v.A.A.CXU H K $ . 7 U , 7 r + 7 . . . . + . o # $ . $ 7 $ r _ V.I [ - $ [ [ U v.U.] v.                                                                                                                                                                                                                                                                                                                                                                                                    C.C.V.x.I x.T @ f [ b.U U $ . 7 + + + + . . . . . . . $ $ 7 $ 7 H 7 . $ H r b.!.A.C.m.V._ r 7 r A.-.] [ x.I 7 $ ] r 7 $ r r + $ r r ] r q ` AXc.m.v.b.c.c.v.-.$ I U 7 _ U f o 4 q $ T b.x.J.1.,XlXeX*XJ.H._ - $ 7 r q c c 5 + , + , ! U 7 $ 7 H $ 7 ] _ I _ I r 7 8 I r                                           ",
"                                        ] 7 7 $ , r H K U ` 7 , c 7 . r _ U , . 7 $ $ 7 r 7 4 $ . o +.[ ;.w.f.oX*Xf.#.M.[ [ H $ 7 $ r _ r 7 ! r 7 r V.V.V.m.c.b.x.U.C.H 7 _ U r 7 + 7 r O $ 7 H H , r ! ` -.-.-.v.7 r q v.V.V.Y.Z.E._ c H @ + 7 U $ 7 r + 7 + . . . . + o O $ . $ $ $ H _ 7 r ] 8 $ [ ] W b.Z.] v.                                                                                                                                                                                                                                                                                                                                                                                                    V.A.V.x.U x.0 $ H ] r $ I $ . r $ # # # + O . + + . + $ $ 7 $ 7 H 7 . $ H r x.Y.v.v.v.C._ q $ q C.[ _ _ ] I 7 $ ] r 7 $ r c . $ 7 c _ r q H :X] x.b.b.x.c.v.-.+ U H 7 ! U U O $ 7 $ T | ` ;.:.f.*X*X1.;.m.^ $ + 7 c 7 7 4 # # 4 + $ K I e $ r H $ - ] _ U _ I r 7 7 U r                                           ",
"                                        x.r 7 + 4 r K P I ` 7 , r $ . 7 _ I 7 . , q 7 r r e 7 O . + ] [ / 9.B.:.:.q.;.` [ _ r $ $ 7 7 _ U 7 v.I $ c V.v.v.m.b.x.b.Z.C.H 7 U H r 7 + 7 r $ $ 7 H H 7 r I _ ] -.] V.q r r m.V.v.A.C.Y.I r c + + 7 ` , $ 7 $ r @ . o $ $ 7 7 e e $ + 7 . H _ Y._ x.q - ] +.[ v.U.] v.                                                                                                                                                                                                                                                                                                                                                                                                    V.Z.V.| _ ] H . f ] S._ _ $ + r $ $ 7 7 , 7 $ $ $ . $ $ $ r $ 7 H $ . $ U H -.A.v.V.v.m.I r 7 r Z.] -.-.-.I 7 $ [ c 7 $ r q $ + r c _ r 7 _ ^.v.x.v.v.x.x.x.] 7 I I 7 _ H I O , q , ! ` I ! ;.q.q.w.*.I ] I @ . 7 H r H r q 7 7 + $ I _ r $ r H 7 $ [ I I _ I r 7 7 U r                                           ",
"                                        x.r 7 + , r K I I ` 7 $ c $ . q _ I q + $ r r 7 7 9 9 $ + $ ` _ C c ' / ^ ` ! H _ ! r $ 7 + H H 7 7 c r $ c V.v.v.m.v.x.V.U.C.H 7 H H r 7 + 7 r $ $ 7 H c , 7 K ` x.x.x.A.r r c C.C.v.c.C.~.K c H + . 7 ! , , r , r + . . . . o . # # . $ 7 $ H _ _ _ ] 0 8 +.+.[ v.T.] b.                                                                                                                                                                                                                                                                                                                                                                                                    V.G.N.] ] x.H - f x._ U _ $ $ f $ + $ $ + $ . + . . + $ $ r $ 7 H $ . $ U r v.T.C.C.v.m.H 7 , q C._ ] [ ` K 7 $ _ c , + q q $ + r H _ H 7 I U.x.-.c.v.v.v.b.[ + r c + ! U H $ , q , ! ` I K ` ' =.Q I M _ U $ + r H f s 9 4 4 e , 7 _ ! r $ r H $ $ [ _ ! _ I r 7 7 U r                                           ",
"                                        x.r 7 $ $ U _ H H -.r $ r , + r _ I r + 7 7 7 $ O $ $ 7 . , / I e 4 L ^ ! ! K c / I q $ $ $ 7 U r r I I $ H v.v.V.m.V.b.V.Y.A.H $ H H r 7 + 7 r $ $ 7 H r $ 7 K [ x.x.x.x., r r c.m.V.C.C.~.U c H + . , K , 7 r , r + . . . . o . . + . 7 $ $ H H 7 7 x.0 7 x.x._ x.T.] v.                                                                                                                                                                                                                                                                                                                                                                                                    Z.Y.C.| W x.U $ T [ r 7 _ $ + r $ . . . . + . . . . $ 7 $ 7 $ $ H $ . $ U r C.~.Z.C.v.C.I r 7 r U.[ -.] [ H 7 $ _ c $ + q r + $ 7 c _ H 7 [ T.x.c.c.c.c.x.x.] 7 ` ` 7 I H H + $ q $ I ` Q C Q _ +.I H e P I 2 $ r 7 7 $ + $ $ r 7 , ` U q $ 7 H $ 7 ] _ I _ I M 7 7 I H                                           ",
"                                        x.r 7 $ 7 c K K H _ 7 7 4 $ + r ! I r $ r $ r I U 8 + 7 + q _ H r * r L ! ! H J H I q + , $ $ H r 7 K _ 7 H v.V.C.V.C.m.v.R.A.H $ I H r 7 + 7 r $ $ 7 H H 7 q U ] x.x.x.v.7 r 7 ] m.A.C.C.A.I r c + + 7 _ 7 + $ + q + . . . . $ . . . o 7 7 . H W H U x.0 $ +.v.[ +.T.x.v.                                                                                                                                                                                                                                                                                                                                                                                                    Z.Z.A.v._ x.T 8 I x.H H I $ . r $ $ . . . @ . . . . + $ . 7 $ 7 U $ . $ I K v.Y.C.Z.m.C._ r 7 r Y.-.x.] x.H 7 $ _ c , $ r q $ + H r v.r 7 ] ~.x.V.m.c.b.c.x.-.$ c r $ I H K + $ - % I ` Z Q Q _ W _ U C _ ! r % r 7 r H H r 4 7 $ , ] K 7 + 7 H $ - _ _ I _ _ H q 7 I H                                           ",
"                                        x.r 7 $ , I H H C 8.r 4 * 7 + r _ U q + 7 # q ` ! $ @ $ . c I H r 7 H I _ _ / C H U 7 + 7 + 7 r 7 7 H H 8 H C.Z.A.v.V.v.v.T.A.H $ s H r 7 + 8 H $ $ 7 H x., 7 _ ` c.x.-.V.q c 7 ] C.C.A.C.T.I r r $ . 7 I 7 , H $ r + . . . + + . . O $ 7 $ $ H _ _ _ x.r $ ] ] _ x.U.x.b.                                                                                                                                                                                                                                                                                                                                                                                                    U.G.C.x._ x.I 7 _ x.] I _ $ . 7 $ $ . + . + . . . . $ 7 + H 7 - H $ . $ _ H c.Y.C.v.v.A.] r q r G.] -.[ c.U 7 - [ r 8 + 0 r $ $ 7 r [ r 7 -.A.v.m.b.v.v.v.c.] $ 7 r 7 I r H + $ - $ U I H K I _ I U H H U T M 2 7 + 7 I Q e # # $ $ [ U 2 + H r $ $ I _ U I I H r 7 _ H                                           ",
"                                        x.r 7 $ 7 C H I I _ 7 7 # * . 7 _ U 7 + r . 7 r q $ . $ + $ 7 + + O 7 7 7 7 r $ 7 7 + . $ + 7 H 7 7 r r 7 H v.v.V.v.V.v.v.Y.b.r $ s H r 7 + 7 U $ $ 7 H H 7 q H I x.] -.v.+ q r b.b.x.V.Z.E.! r r $ . , I 7 7 H $ r + . . . + + + + $ $ 7 $ + - r 7 r H $ $ x.[ _ b.U.x.b.                                                                                                                                                                                                                                                                                                                                                                                                    Z.U.V.c._ x.I $ r H r r r $ $ r $ $ . + . O + . . . $ 7 + H 7 7 H $ . $ _ U c.Y.Z.Z.m.v.I r 7 r G.[ [ _ ] U 7 $ _ r 7 . 7 7 + + 7 r [ r 7 ] G.x.V.v.b.V.x.v.] $ r r $ I r H + $ 7 + 7 7 $ $ $ 7 7 7 7 $ 7 r % $ 7 . # e c 4 > , $ $ I J - $ H H $ $ _ _ I _ H r 0 7 _ H                                           ",
"                                        x.r 7 $ 7 H I I / ! q 7 # $ . 7 _ U 7 . 7 . 4 7 7 , . + $ $ H H H _ [ [ x.] [ I U H 7 $ $ O r U r 7 r r $ H V.b.b.b.v.V.V.Z.] 7 + r r r 7 + $ I $ 7 $ H H , r ! _ x.-.[ V.7 r r v.V.V.A.C.T.I r H $ + q I $ , r + q + . . . . . . + $ $ $ $ . . + . + $ + 7 b.[ _ b.U.[ b.                                                                                                                                                                                                                                                                                                                                                                                                    C.Y.v.x._ x._ - $ + + $ + O $ r + $ . . . . . . . . $ - . 7 $ 7 H $ . $ I c V.!.Z.V.v.m._ r 7 r U.-.] ] -.I 7 $ _ r 7 . 7 7 + + 7 7 _ r 7 ` v.c.x.-.m.x.x.c.x.$ r r $ H H r + $ $ + f U H I _ [ [ [ _ _ ] W 8 $ $ + . + , 4 # . . 7 _ _ 7 $ r H $ 7 _ _ I _ H r 7 7 I H                                           ",
"                                        x.r 7 $ 4 H / K ! _ r 7 O * + 7 _ U 7 . 4 4 $ # $ $ 7 $ . + _ I U _ [ [ x.] _ _ I I $ . $ + 7 H 7 - r r 7 r x.[ v.v.b.x.x.C.[ 7 + H H r 7 + $ H $ $ 7 H ! $ 7 U ! ] ] _ v.7 H r m.A.C.v.Z.!._ r H . . , I $ $ 7 . q + . . . . . . + $ $ $ 7 $ + + $ $ + + r V.[ _ v.U.] b.                                                                                                                                                                                                                                                                                                                                                                                                    C.Y.v.] T x._ 7 + + + $ . + 7 r $ $ + . . . . . . . O $ . $ + $ H $ . $ U H V.T.m.V.C.C._ q $ r G.] ] -.x.I 7 $ _ r 8 + 7 r $ + 7 7 _ 7 7 _ A.x.x.] x.b.b.v.-.$ H 7 $ U r H O $ $ . H _ _ U I [ [ _ I I [ _ $ . . . # + 6 6 4 q # $ H ^ 8 $ 7 r $ 7 [ I H I U H 7 $ I H                                           ",
"                                        x.r 7 $ 7 H U I I _ r r O * + 7 I U 2 . # e r s r r q $ + $ U U H I I U I U U I I _ 7 $ 7 + 7 H 7 7 r r $ 7 ] [ V.v.x.x.] A.x.r $ J H r 7 + 7 r $ $ 7 r c 7 r H ] x.] x.C.7 r r V.m.m.b.v.Y.H r c + $ q ! $ $ 7 + q + . . . . . . $ 7 7 + $ $ + + $ 8 $ $ r v.[ [ S.U.x.b.                                                                                                                                                                                                                                                                                                                                                                                                    A.U.S.| _ ] _ 7 $ 7 7 7 . + $ 7 $ 0 + . . . . . . . + $ . 7 $ 7 U 7 . $ _ H x.C.m.V.b.x.! r $ r G.] [ ] ] U 7 $ _ H 7 + 7 7 + + $ 7 _ 7 7 ] Y.-.] [ x.c.c.-.x.$ 7 7 $ H r H $ $ $ + H I U U U ! I U H H _ U $ + + , 4 4 e c e e , 4 H _ 7 + 7 r $ 7 [ U H U H r 7 $ I H                                           ",
"                                        x.r 7 $ q I I I U ] c e $ $ + $ I I 7 . # $ e 9 e e $ 7 @ $ U U U I I U H U U U H I 7 $ r $ 7 U r r r r $ r V.b.V.x.x.b.[ Z.b.H $ U H 7 $ . 7 r $ $ 7 r K + 7 K [ -.] -.Z.7 7 q V.v.C.C.C.E.H r r . . , I $ r q @ q . . . . + . . $ 7 $ . . . . . $ r r * r v.] [ b.Z.x.b.                                                                                                                                                                                                                                                                                                                                                                                                    V.Z.b.] ^ [ _ 7 7 r 0 7 + O + + + r + . . + + . . . + 7 $ r $ 7 U 7 . $ _ H b.U.C.V.v.m.] r 7 H U.x.] ] ] U 7 $ _ H 7 $ 7 r + + 7 7 _ 7 7 x.T.] _ ] v.-.x.x.] $ r $ $ I r H $ $ 7 $ U _ I U H H r H H r H H $ . . # , q q q 4 q # $ r U 7 + 7 r $ 7 _ I H U r 7 7 7 I r                                           ",
"                                        x.r 7 $ 4 ! / U K 8.C 7 O $ + $ I I 7 . # # P ' 8.P # 7 + 7 U I I H P H H H H H H I 7 $ r + 7 H r 7 r 7 $ 7 v.x.v.x.+.[ _ A.x.H $ _ U r $ + 7 H $ $ 7 r m., 7 I _ ` -.[ v., r r V.v.C.m.V.E.H c r $ + q I $ r q $ r + . + $ $ + . $ $ $ O + + $ + $ r U 7 r V.x._ x.A.] b.                                                                                                                                                                                                                                                                                                                                                                                                    S.A.x.3.I ] ] 7 r H 7 $ $ $ $ + $ r O + . $ $ $ + . + 7 $ r $ 7 U 7 . $ _ H x.Z.c.c.v.V.U q $ r A.x.[ [ ] I 7 7 _ H 7 $ 7 r O O 7 r _ 8 r x.ZX_ [ b.c.m.x.b.x.$ 7 7 $ H r H $ $ 7 $ H _ U H H H r H H H H I $ . + # q ( ` / 5 , + q _ I , + r r $ 7 _ _ U U r 7 7 7 I r                                           ",
"                                        x.r 7 $ , H I I I ` e 7 $ $ + $ U I , . + # C m.A.P $ 4 + 7 H H I H U U H H r H H _ 7 $ r + 7 H r 8 r 7 o 7 V.] b.x.x.] x.T.v.H $ I H 7 $ + 7 U + $ 7 H K + q U ] -.] ` m.7 r 7 v.x.V.V.Z.!.M H r $ . 7 ! + , $ $ r + . $ - 7 + . $ 7 r 7 $ $ 7 . . 7 H 7 r C.x._ x.Z.x.b.                                                                                                                                                                                                                                                                                                                                                                                                    V.U.b.b._ ] x.7 r r + . $ 7 7 $ 7 H $ $ . 7 7 % $ . . $ . 7 $ $ U 7 . $ _ H c.Y.C.b.x.v.I q $ 7 V.] ` ` x.I 7 7 _ H 7 $ 7 r . + 7 r I 7 r c.CX] _ x.x.x.c.V.-.$ 7 7 + H 7 r + $ 7 $ U _ U r H H r r H H H K 4 $ $ # 4 8.m.e + # . + H H 7 . r r 7 0 _ _ U U H r 7 7 I r                                           ",
"                                        x.r 7 $ q H U K I x.c 7 # $ . $ _ I , + 4 . e C C C $ e + $ I H U H H H f H r H U _ $ $ 7 . $ r 7 r r 7 $ 7 V.x.v.v.x.] _ b.x.H $ I U 7 $ + 8 r + $ 7 H H , q U ` x.-.[ C.7 q q V.v.b.A.C.DXc r r + + 7 _ + . $ $ c $ + r H [ $ - $ r 7 r 8 7 r + . $ O r H C.x._ _ C.[ x.                                                                                                                                                                                                                                                                                                                                                                                                    N.U.v._ | x.b.7 r $ . . 7 r 7 r 7 r 7 + r _ ] H 7 . $ + . $ . + H 7 . $ I c b.T.V.v.] V._ q 7 7 c.-.x.[ c.I r 7 ] r 7 $ 7 r . . r r ] r 7 -.AX[ -.x.x.V.] C.-.7 r 7 $ H 7 7 . $ 7 . H _ H r r r f H H H H I 7 # 4 4 q c e 4 # . # # r C 7 $ 7 r 7 7 [ _ I U H 7 7 7 I r                                           ",
"                                        x.r q $ , H I P K ` e 4 # $ . 7 _ I 7 . 7 # 7 4 4 e 4 q . , I H H H H H r H H r H _ $ $ $ + $ H r 7 r 7 $ H Y.b.x.x.x.+._ V.b.H + U U r $ + 8 r $ $ 7 H K , 7 I _ ] ` _ v.7 H r v.b.x.v.C.ZXH r r + . 7 K , r H $ 7 . $ $ 7 H . . $ 7 r r 7 8 H 7 . . . $ H C.x.x.x.A.[ x.                                                                                                                                                                                                                                                                                                                                                                                                    V.G.b.] x.b.b.0 - . . . 7 r r H H r $ . + $ r $ + . $ - $ r 7 7 I 7 . $ U r x.U.V.m.V.V.! 7 7 q b.[ -.] -.I 7 7 ] r 7 + 7 7 + + 7 7 _ 0 r x.Y.] [ [ v.b.m.C.! $ r r $ H 7 r . $ 7 $ I I H H H r H H H H H I , # 7 7 , , , 4 + + + $ c K , + 7 r 7 7 ] _ _ U H 7 r 7 I f                                           ",
"                                        x.r 7 $ 4 H K K K _ 7 . . O . r U H r $ 7 4 $ # # q q e + r _ H H r r r r H H H H I 7 $ 7 + $ $ 8 H H H $ $ x.] b.x.x.] x.A.b.H $ _ U 7 $ + 7 r $ $ 7 H ! 7 q ! [ ] ` _ m.$ r r V.b.x.v.v.!.r r r + . 7 _ 7 7 r $ r + . $ $ 7 . . 7 0 H H r r H $ . . . + H C.x.x.b.U.x.b.                                                                                                                                                                                                                                                                                                                                                                                                    C.K.v.x.x.b.b.r + . . + r H r H U H 7 + . $ 7 $ O . $ $ $ r 7 $ U $ + $ I H _ -.x.v.x.V.` r , 7 C.-._ ` x.U 7 7 ] r 7 $ 7 7 + $ r 7 _ r r ] E.] _ x.b.c.m.m._ $ r r O $ $ $ + $ $ $ H U H H r r r H H H H P , $ e e 4 # . + . # # $ K ! 7 + 7 0 7 7 ] _ U U H r r 7 I H                                           ",
"                                        x.r 7 $ 7 K H H K _ 7 . r $ . 7 x.U q + 7 7 4 4 4 q r r . $ H 7 7 $ $ $ $ 7 7 7 $ r $ . . $ H r r 7 7 r 7 $ [ x.x.x.x.x.x.Y.C.I 7 U H 7 $ + 7 r $ $ 7 H _ 7 q I [ ] ] ] Y.r r c V.b.x.b.C.E.K H r + . 7 _ 7 $ 7 + r + . @ $ $ . . 7 0 H U U H H $ + + . $ U V.[ ] b.U.x.b.                                                                                                                                                                                                                                                                                                                                                                                                    A.Y.V.x.[ x.x.H . . . $ H H r H U H 7 $ . + $ + + . $ $ + r r $ H $ . $ H c -.!.b.x.x.v._ r $ , Z.] ! ` -.U 7 7 ] H 7 $ 7 7 + + r r ] r r [ CX] ] v.x.m.c.C.! + r 7 $ - 7 _ + $ 7 . ] $ 7 7 7 7 7 7 $ $ $ 7 . . 7 e 7 7 4 $ $ 4 # $ K H 7 + - 7 $ 7 [ I H U H r r 7 I H                                           ",
"                                        x.r 7 $ $ K P K H I 7 + # $ . r ] _ r . $ 4 4 7 7 , 7 , . + $ $ $ $ $ $ $ + $ $ . + + + $ r H x.x.7 r r $ 7 ] x.[ x.b.b.] C.[ r 7 _ H 7 7 + 7 r $ $ 7 H U , 7 U _ ] ] ` v.$ r q b.v.v.V.C.T.K H 7 + . 7 I 7 7 r $ r + + . . . . . $ r H H U U _ 7 $ . . + H V._ ] b.Z._ v.                                                                                                                                                                                                                                                                                                                                                                                                    A.Y.V.x.[ x.] H . . . $ H r H H H U 7 . . . . . . . + 7 + r r 7 H $ + + r H ` V.v.C.c.C._ 7 7 7 Z.] -.x.] U 7 $ [ r 7 $ 7 7 + . 0 r ] r 7 [ ^.] c.x.x.c.-.x.` $ 7 7 . 7 Z.[ r $ $ + $ $ 7 $ $ $ $ $ $ $ $ $ . + $ * 7 7 * $ $ O . 7 U U e + $ 7 $ 7 [ I U U H r r 7 _ H                                           ",
"                                        x.r 7 $ $ H H H C / 7 . $ O . s | _ 7 c . . . # $ + @ . + . . . + . . . + . . + . . . + 7 H I A.U.[ H 7 $ $ I ] _ v.v.b.C.!.C.U 7 H r 9 7 $ 7 r $ $ 7 H H , q I [ x.] ` V.$ r r v.c.x.x.v.T.H H , $ + 7 _ 7 7 q $ c + . . . + . + $ r U H H H _ 7 + . . $ H S.[ ] b.U.[ v.                                                                                                                                                                                                                                                                                                                                                                                                    A.Y.v.x.| +.[ H + + + $ U r H H H I 7 . . + + + . . $ 7 + 8 7 $ r $ + $ r H x.T.x.[ b.x.I q 7 r G.-.x.x.` H 7 $ [ r 7 $ 7 7 + . 7 7 [ r 7 _ CXb.c.x.b.x.] V.r + r 7 $ x.v.b.I H $ . . 7 . . . . . . . . + . . . . + + + . . . $ O I U U 7 $ $ - $ 7 [ _ I U H r r 7 _ H                                           ",
"                                        x.r 7 + 7 C H r H ` 7 . # $ . r 3._ ZXI K K H H H I U J U H H r r 7 7 7 r 7 8 7 r r H H _ U _ ] [ _ 7 7 7 $ ] ] _ ] x.v.V.!.v.r 7 U H 7 7 O 8 r $ $ 7 H U , q _ -.x.] ] A.+ 7 c C.m.v.v.C.^.K I , $ + 7 I 7 q q + r + . . + + . . $ r H H r r _ 7 $ . + $ H V.[ [ v.Y.x.v.                                                                                                                                                                                                                                                                                                                                                                                                    A.R.v.x.x.] ] r + . + 7 I r H H H U 7 $ . . . . . . $ 7 + r 8 7 r 7 + $ 7 H -.G.Z.C.m.v._ r $ 7 A.[ ] I _ H 7 $ [ r 7 + $ 7 + + r q ] r 7 _ SXV.c.v.v.c.x.b.r $ r 7 $ x.I _ !.] U f r $ r r 7 7 7 , , $ 7 * 7 0 r H H H U U U _ x.x.I ! 9 $ $ $ $ $ _ I U I H r r 7 _ H                                           ",
"                                        x.r 7 + , C I c c _ , . $ $ $ r ] I I U.c.x.-._ ` x.] _ ] x.[ _ I U U H H U H H I _ [ _ x.U H I U H 7 r 7 $ v.I U [ x.x.V.ZXU.H 7 H H 0 7 $ 7 r $ $ 7 H I $ 7 ! ] ] ] ] V.$ q 7 x.v.m.V.m.~.H U $ $ + 7 U , 7 q $ r + . . . . . . $ r H H H r [ r 7 . . $ H C.x.[ x.Y.x.v.                                                                                                                                                                                                                                                                                                                                                                                                    A.T.S.| ] x.x.r + . + 7 I H H H H H $ $ . . . + . . $ 7 . 7 $ $ 7 7 + $ 7 H _ U.b.V.b.v._ r , 7 V._ 8._ ` U 7 $ [ r 7 + $ 7 + + r r x.r $ _ ^.v.x.x.x.x.x.x.H $ r r $ _ H I H v.[ _ I _ H H H H U U I I I / _ _ _ _ _ _ ] [ ] [ Z.I r H 9 O $ $ + $ _ I U _ U r r 7 _ H                                           ",
"                                        x.r 7 + 7 H I H c _ , . 2 , . H ] c H r H r r H K K K H H U I I U U H H H H U K U U U U H ! H I c r 7 r 7 q V.-.x.c.v.x.v.T.V.U $ H H 7 8 + 7 7 + $ 7 H ] $ 7 U ] ] [ ` V.7 7 r c.c.c.-.V.U.[ _ K r , $ H , 7 , + H . . . . + + . $ r I K H H _ r + . . + H C.] x.x.A.] v.                                                                                                                                                                                                                                                                                                                                                                                                    Z.A.v.x.] ] x.r . . + 7 U U H H H U 7 + . + + + . + $ 7 + 7 7 $ r + $ r K x.c.Z.m.-.x.m._ r , 7 x.! ] x.` U 7 7 [ H 7 + $ $ O . r r I H 7 _ Z.b.x.b.b.x.v.b.H $ r r $ _ H U I U H H H H H H U I U U U U U H K H U H H H H c U H H _ c C q $ $ , + $ _ ! I H H r 7 7 _ J                                           ",
"                                        x.r 7 + 7 H I H r ! $ . $ $ + c _ x.K r c r r c c r r r H H U H H H H H H H H H H H H H H K H I r 7 $ 7 7 7 c.-.x.x.b.x.x.U.b.I 7 H H r 7 + 7 7 + $ 7 H _ $ r I ] ] [ _ Z.$ r r c.V.x.b.V.Y.T.m.-.r r + 7 , c q + 7 . + . . . . . $ r H H I H _ 8 O . . + H A.+.x.x.A.[ x.                                                                                                                                                                                                                                                                                                                                                                                                    v.S.b.x.x.x.x.r . . + $ U U H H U U $ + . . . . . . + , . , + $ $ + r c x.U.Y.C.v.x._ b.] r 7 7 x._ -.x.-.U 7 $ _ r $ + 7 7 + . r r ] H r _ U.] _ x.x.v.x.v.I $ r 7 $ U 7 x.I H U U U U U M H J H H H J H H H C K C c c C H H H H _ U ! q $ $ 7 $ , _ I U U I H q 7 I H                                           ",
"                                        x.r 7 + 7 c I H c ! , . , 7 + q H x.M q r r c H H c H H H H H H H H H H H H H H H H H H H K K I 7 $ $ 7 $ r m.m.v.x.v.c.[ Z.b.I 7 I H r 7 + 7 7 + $ 7 f U $ r K _ ] [ _ m.$ H r v.! x.b.b.C.ZX!.b.] 7 7 7 $ r 7 $ $ + . . . . . . $ r H H I H _ 7 $ + . + H A.x.x.x.Z.[ x.                                                                                                                                                                                                                                                                                                                                                                                                    V.Z.b.x.x.v.b.r . . + $ U U H H U H $ . . . . . . . + 7 . 7 7 $ + 7 , ! C.:XA.C.A._ x.x._ q $ , x.! ` ] ] U 7 $ [ r 7 . $ 7 . + 7 r v.H r x.CX_ [ x.b.x.x.v._ $ 0 7 $ H r v.I H W U H K H H H H H H U U H H P H P H H H H P C H H K K / , + $ , + , ! H H U K H r , K H                                           ",
"                                        x.r 7 $ 7 c K H K _ 7 . $ 7 . + 7 7 7 $ , 7 7 r r r r r r r 7 7 7 7 7 7 q 0 7 7 7 7 0 r r r r r $ + + $ + r b.v.m.x.x.] [ Y.V.I $ _ H 7 $ + 7 7 $ $ 7 H U $ r H ! ` [ _ [ r r r x.c.b.x.[ C.G.VXZ.b.I q q $ $ , , 7 $ . . . + + . $ r H H H H [ 7 $ . . + H A.x.x.x.Z.[ x.                                                                                                                                                                                                                                                                                                                                                                                                    x.Z.b.] x.x.b.r . . + 7 U H H H H H $ + . . . + . . + 7 + 7 , . $ q r v.!.!.C.C.V.x.V.` _ q $ 7 v._ ` [ [ H 7 $ x.r 7 + 7 7 . + 7 r b.H r _ ZXU [ ] b.x.V.V.[ $ r $ . $ 7 H 7 r H r r r r r r r 7 7 r r 7 q r 7 r 7 q q e e 7 r r 7 , r + . $ 7 + 7 _ K K K c r r , U H                                           ",
"                                        x.r q $ 7 c K K I _ q + $ 7 + . $ . $ $ $ $ , 7 7 , $ $ $ $ $ $ $ $ $ $ $ $ $ $ $ $ $ 7 7 , , 7 $ $ , $ + q ] x.v.v.c.] _ Y.A.I $ I H 7 $ + 7 7 O $ 7 H I + 7 K ` ] ` _ Z.$ H H v.x.x.A.x.V.V.T.T.V.x.H r $ $ 7 $ q $ . . + $ + . $ r K c c r [ 7 $ . . + H C.x.x.x.Z.[ x.                                                                                                                                                                                                                                                                                                                                                                                                    b.T.V.x.x.x.x.r . . + 7 I H H H H H $ + . $ $ $ + + $ 7 + , + + 7 r b.A.~.Z.C.C.v.m.x.-.H q $ q V.[ ` [ ] H 7 $ [ r - + 7 7 + + $ r ] H 7 _ !._ [ [ _ b.x.v.] $ r 7 + . $ $ 7 7 7 7 7 $ 7 $ $ $ $ $ $ $ $ $ 4 $ 4 $ , , $ $ $ , , $ + $ $ + , 7 $ 7 ` I I I H r r 7 I H                                           ",
"                                        x.r q $ 7 H I U I I 7 + $ 7 $ . . $ . + + $ $ $ $ $ + . + + @ @ O $ $ $ + + + + + + $ $ + $ $ $ $ 7 7 $ . r x.x.v.v.b.x.[ Z.C.U 7 U H r 7 + 7 7 + $ 7 H _ $ 7 U ` [ _ _ V., 7 c 7 [ b.m.C.b.G.V.U.T.C.x.c $ + , + q + + + $ $ $ . $ r H r r r _ 7 $ + . $ H v.x.+.x.A.[ b.                                                                                                                                                                                                                                                                                                                                                                                                    b.T.V.] [ [ x.r . . + 7 I H H r H H $ $ + $ $ $ + + $ 7 + $ + 7 r _ G.T.V.m.c.b.V.c.b._ , 7 + 7 V.[ ` ` ` H 7 $ ] r 7 + 8 7 + + 7 r _ H 7 _ !._ [ ] ] b.b.v.] $ $ $ 7 $ + $ 7 7 $ 7 + . + + + + + O $ $ $ + $ + $ + # # + + . . . $ + . $ + $ 7 + 7 ` ! I I c q q 7 I c                                           ",
"                                        x.r q $ 7 H I I I K 7 + + 7 $ + . $ . . . . . . . . . . . . + . . . . . . . . . . . . . . $ $ + $ $ $ $ $ r x.x.x.x.] x.x.Z.C.H 7 H H r 7 + 0 7 + $ 7 H _ $ q H _ _ ` _ A.7 $ r c ! V.A.C.m.C.V.A.T.!.C._ 7 $ $ $ r + + $ 7 7 $ . $ r H H r r [ 7 $ + . $ r b.o.x.x.C.] b.                                                                                                                                                                                                                                                                                                                                                                                                    b.Y.V.x.x.[ x.r . . + 7 U y r r f H $ O + 7 2 , $ + $ 7 $ + 7 7 U A.T.E.x.x.m.c.v.m.v.7 7 7 $ r C.] ] ] [ H 7 8 o.H 7 $ 7 7 O . 7 r [ H 7 [ CX_ [ x.+._ x.b.] - $ 7 7 7 $ + . . + . . . + . . . . . . . . . + . + . + . . + . . . + + . + $ , 7 @ 7 ` ! H U H q 7 7 U c                                           ",
"                                        x.r 7 $ 7 c U U I U 7 . $ c $ 7 7 $ q 7 , 7 7 7 , 7 7 7 7 7 0 7 7 7 7 7 7 7 7 7 $ $ $ 7 7 r r q r r H I ! H ] _ [ x.` x.v.T.Z.r $ H H 7 7 O r r $ $ 7 H H . 7 K _ [ [ ` m.7 , 7 7 r H C.G.-.C.v.V.T.^.U.x.c r $ $ 7 + $ $ q r 7 + $ r H K r r x.r $ . . $ r x.] x.x.A.x.b.                                                                                                                                                                                                                                                                                                                                                                                                    C.Y.V.] [ ] x.r . . + $ H r r r r H $ + . r r q $ $ + 7 . 7 r r b.U.VXC.m.c.v.v.c.v.q r 7 7 $ r V.] ] ] [ U 7 7 [ H $ O 8 r + . r r ] r 7 _ CX] ] x.] x.o.[ _ r H I I U H r 7 r 7 $ % 7 $ 7 7 7 7 $ $ - 7 7 q 7 r 7 q 7 7 $ $ , , $ 7 7 7 q q r 7 7 ] _ H I I c 7 , H r                                           ",
"                                        x.r q $ q r U I I I c $ c I I _ ` ! _ I I H I ! K I H _ _ _ _ ] ] [ x._ _ _ _ U _ _ [ I I _ -._ x.A.C.U.] r _ [ ] _ ] v.v.T.Z.H $ I U r 7 + 7 7 $ # 7 H K + 7 U I _ -.` U.$ r 7 q r r b.V.-.v.V.V.U.U.CXV.] 7 r $ 7 . 7 q I [ H + + 7 r r r 7 r 7 $ . . + r b._ ] b.Y.x.b.                                                                                                                                                                                                                                                                                                                                                                                                    A.^.v.x.] [ ] r + . + 7 r r r 7 H r $ . . [ _ K 7 7 + $ , H q ] G.~.m.C.C.c.v.m.c._ r r q 7 r r Z.] ` _ x.I 7 7 x.0 7 + 7 r . + r 7 _ 7 7 H V.x.x.x.] ] _ _ H H x.V.A.A.V.x.[ _ [ _ U U I _ ] I U ] _ _ _ _ x.I [ [ ` _ ` ` _ I _ _ _ ! _ _ _ ] r $ ] U K I K c q 7 I H                                           ",
"                                        x.r r $ $ H ! H U r $ _ ` [ _ I ` ` _ [ _ I _ _ [ x.] -.x.x.x.x.] x.] _ x.x.] b.x.] ] x.] x.] x.m.Z.!.~.r 7 [ [ ] ] x.x.b.).V.r $ H r r 7 + 7 7 $ $ 7 H K $ q I I ] x.[ Z.7 c 7 $ r 7 H v.x.C.c.m.C.G.T.^.m.r _ + , . 7 r ` c._ $ . 7 H q r r H 7 $ . . $ r V.] x.v.E.b.b.                                                                                                                                                                                                                                                                                                                                                                                                    C.!.V.x.] ] ] 7 . . $ 7 r r f r r r $ + + m.x._ r $ . + , _ r A.^.U.V.V.c.x.C.v._ q q 7 $ r H q Y._ ] I [ U 7 7 x.r 7 + 7 r + $ r 7 _ 7 $ I !.] x.x._ _ ] I U $ v.VXY.U.Y.x.] [ _ 8.x.[ C.b.x.x.x.v.b.[ b.x.] x.m.` ` ] [ x.-.` ] x.-.[ -.` ` _ -.K H K H I K r q 7 I H                                           ",
"                                        x.r q $ , r H H I , + U.x.m.C.C.U.Z.] x.v.m.Z.v.C.G.U.Z.!.Y.Y.Z.V.Y.A.U.Z.A.C.T.!.!.^.CXC.!.!.!.VXSXCX! r 7 x.] ] _ -.-.x.Y.C.r $ I H r 7 + 7 7 $ $ 8 H H , q H ! [ ] ` C.7 H c + 7 q $ I b.C.V.] m.V.C.GXm.$ U $ , + . $ r K r + . , r q r f I 7 + . . $ r C.x.+.x.T.x.b.                                                                                                                                                                                                                                                                                                                                                                                                    V.T.v.x.] [ x.r . . . $ H H H r r 7 O + + H c q $ $ . $ 2 U 7 [ CXb.U.b.m.m.A.c.r q 7 7 + H r r V.` ` x.c.I 7 7 x.r 7 + 7 r + $ 7 r [ r $ U !.] v.x.[ _ x._ H 7 7 CXZ.FXFXZ.SXAXT.V.^.U.VXY.Y.^.T.Y.!.V.^.Y.Z.-.CXv.m.v.U.Y.U.Y.T.E.G.V.v.V.m.c.Z.] r _ ! I H r q 7 I c                                           ",
"                                        x.r 7 $ , c I H c $ . H r K U H H K c K q c K r r K K H H H U H r I 7 H _ I H I I I _ _ c H _ [ _ -.c.U 7 7 c.[ ] ` c.x.x.T.Z.r $ I H r 7 + 7 7 $ O 7 H H $ 7 H ! ` _ ` V., H U + + 7 7 7 _ C.V.v.c.C.V.AX_ 7 _ $ . $ $ , 7 7 7 $ $ 7 7 q 7 r I 7 . . . $ r C.x.x.] Z.[ x.                                                                                                                                                                                                                                                                                                                                                                                                    v.Y.x.x.] ] x.r . . . $ H H r 7 7 7 + . + r r q 2 $ + + $ I 7 I DXZ.Z.V.C.V.v.H r , 7 . . K r q G._ ] ] ] I 7 7 [ r 7 + 7 r + + 7 7 [ r $ U VX] x.x.] U x._ I 7 r ] U ] _ I 7 U U H U U H H _ H U I I I H U r H r H r r H I H K I _ K c r r r H K 7 7 _ I I H r q 7 I H                                           ",
"                                        x.r 7 + 7 7 r ! ! 7 $ c 7 H K K H I _ H U I U K K _ I K r H H I H I H U U I I I _ I _ I ! ` -._ I -.x.r 7 H C.] ] ] x.I [ Z.C.H 7 I H H 7 $ 7 7 $ O 8 H H $ , H _ _ _ ] V.7 H I + . + 7 7 H x.C.Z.v.Z.A.CX[ $ _ + , . . $ $ , $ . . , q q 7 7 H $ . . . + H V.] x.+.C.[ x.                                                                                                                                                                                                                                                                                                                                                                                                    V.Z.x.+.x.x.b.r . . + $ r r 7 $ r r $ . + , , $ $ + + + , U $ _ CXA.V.V.v.V.` q , r $ . + U r r U._ ] [ _ U 7 7 ] J r + 7 H O + 7 7 _ 0 $ U U._ [ _ ] x.b.b.U 7 r [ r ] _ _ W x._ _ U W r I I U H I _ I H H [ c H U K K H I K U U _ I K H c r I c , q _ H I H r r 7 I H                                           ",
"                                        x.r 7 $ $ H c c c $ $ r r H H H H ! ` r U I J K c H c c H H r H r H H T U H U U _ H I _ _ -.` ` K H _ q + 7 m.x.c.x.x._ H v.b.r $ P r r 7 + 7 7 O $ 7 H K $ 7 U ` _ I _ V.q c U + . . $ r r [ Z.Z.m.C.G.T.I 7 _ 7 7 + . + + $ $ . + 7 r 7 , 7 r $ + . . + H V.[ x.] v._ x.                                                                                                                                                                                                                                                                                                                                                                                                    V.A.] ] +.[ x.r . . + $ r r 7 $ 7 r $ . + , , $ + . . + , H 7 _ !.m.U.v.C.V.-.7 r , $ . , I 7 r C.] [ x.] U 7 7 _ H 7 + 7 r . + 7 7 _ 7 7 U Y._ U [ ] _ x.x._ $ r _ 7 [ [ [ _ _ [ H I I r H H H f H r H H H r H H H K q K K K I I _ I H r H H H H 7 , _ I I H r q 7 I H                                           ",
"                                        x.7 7 $ 7 J U _ _ $ . H c H H H I ! H , 7 r r q $ $ $ , $ 7 7 7 7 7 7 7 7 7 $ 7 r 7 H U I [ _ I H H I c 7 7 c.b.c.] ] _ [ Z.A.H 7 I H 7 $ . - 8 + O 7 H K $ 7 I _ _ I ! C.7 r I @ . . , c r x.V.G.b.Z.A.ZX_ 7 K $ . + . + + + + . . $ $ , $ $ 7 $ + . . + H V.[ x.] V._ x.                                                                                                                                                                                                                                                                                                                                                                                                    V.A.] [ ] _ x.r + . . $ 7 $ $ $ $ 7 + . . . + . + . . . , H 7 _ A.m.V.x.v.C.] r r 7 + . $ U r r Y.] x.` _ H 7 $ I r 7 + 7 7 . + 8 7 _ r 7 I U.I I [ ] o.x.] _ $ r I 7 U H _ _ _ 7 r 7 7 7 r + $ + $ 7 . $ + 7 7 7 , q r , 7 r 7 7 r U I I H H H H 7 $ I I K H r 7 7 ! H                                           ",
"                                        x.7 , + 7 c _ _ U 7 + r H H K H U K , $ + + + . + . + . . . + . . + . $ . + . . . . + + H _ -.U I ] K r $ 7 x.x.x.x.-._ [ v.b.H $ H 0 7 $ . 7 8 + + 7 r c $ 7 I ` [ _ _ A.$ r _ + . . 7 H r -.V.Z.Z.Z.V.SX[ $ ! $ $ . . + + $ + . . + + $ $ . $ + . . . + f V.] x.] A._ x.                                                                                                                                                                                                                                                                                                                                                                                                    C.Z.x.] o.] x.r + . + $ O + $ $ $ $ + + . + $ . + . + + 7 r r [ VXv.V.V.V.A.] q H 7 $ + , I r r V.] ` [ _ H 7 7 _ H r $ 7 r + + 7 7 [ r 7 [ ^.U U [ [ ] v.C.H 7 r _ H I H U H _ 7 . $ . + . + . + . . . . . . . . + $ . + . + . . $ r c c q K _ H 7 7 K K H H q 7 7 _ H                                           ",
"                                        x.7 7 + , H I ` H 7 . H H r H H H H , $ + # + + + + . . + . + + + + + + + + + . + + + . r I _ I _ [ I r , $ x.] -.` [ I ] V.x.r $ r 7 7 $ . 7 r + $ 7 H H $ $ r _ _ _ [ ).% 0 H $ + . 0 H r x.V.S.A.V.V.^._ 7 H $ + . + . + + + . . . $ $ $ + + O + . . + H v.] [ C.Z.] b.                                                                                                                                                                                                                                                                                                                                                                                                    V.Z.b.x.[ ] [ r . . + $ $ $ $ $ + + . . . + + + . . + + $ c q _ T.m.V.v.C.G.x.q H q + + 7 _ r r Z.] ` ! _ H 7 + ` r 7 + 7 r + + 7 , ] r 7 _ VX_ H _ _ _ x.x.U 0 r ] H _ H f H r $ + + . $ $ + + + + + . . . + + + $ O + + + @ . $ + r H r r H U H 0 $ H H H H 7 7 7 _ H                                           ",
"                                        x.7 7 + $ r H I c 7 + H H C I H r r 7 r c H H C H C c H H H H H H H H H H H c c c c r r r H I H ! ` _ H , 7 _ I I ` r -.x.A.c.H 7 H 7 7 7 . 7 r $ $ r H H $ 7 H _ _ _ _ C.7 f U $ + + r I r x.C.C.Z.S.S.ZX_ 7 _ $ $ . . . . . . . . . + . + . . + . . . $ H C.x._ x.C.[ b.                                                                                                                                                                                                                                                                                                                                                                                                    b.Z.x.x._ x.| r . . . $ . + + . . . . . . . . . . . + + $ U 7 U ZXx.V.v.C.C.-.r U r $ + , I 7 r Z.] ` ` _ H 7 $ ] r 7 + 7 7 + + , $ K r 7 _ T._ H _ _ x.] ] U 7 I x.I I H r r r r H U H U H H H r r r r r r r r r H H f H r H r 7 $ r r H r H U H r $ I H H H r 7 $ I r                                           ",
"                                        x.7 7 + , r r H K r . r H r H C c c 7 7 7 q q 7 q 7 7 e q 7 7 7 7 7 7 q 7 7 7 7 7 7 7 , r I U r H I ` r , $ ! U _ H H [ ] C.x.C 8 H r 7 8 + 7 0 $ $ r H H $ 7 H _ _ _ _ V.$ r U $ + + r _ r x.Z.V.S.x.v.CX_ 7 _ + $ . . . . . . . . . . . . . . . . . . $ s b.] ] x.Z._ b.                                                                                                                                                                                                                                                                                                                                                                                                    v.Y.b.x.[ x.x.r . . . + . . . . . . . . . . . . . . + . $ H 7 H ^.b.v.b.b.U.v.c U r + + 7 I 7 r G.[ [ [ _ U q $ ] r 7 + 7 q + . 7 r I c $ _ T.I U H H _ [ [ H 7 I x.I I U r 7 7 7 7 r 7 7 7 7 8 - 7 7 7 - 7 $ $ 7 7 7 7 7 7 r 7 7 7 H r r f H r H 7 $ H r H H r 7 7 I H                                           ",
"                                        x.7 7 $ $ r K I H 7 + K P c c H K I r 7 q r r r r r r c r r r r r r r r H c r r c H H H r I I r H _ c.H 7 7 I _ _ r T._ [ C.x.H 7 r 7 $ 7 + 7 r $ $ r H H $ 7 H _ _ [ _ U.$ 7 U 7 + . f _ H b.A.v.b.x.v.CXU 7 H $ + $ . . . . . . . . . . . . . . . . . $ H V.] ] ] U.] b.                                                                                                                                                                                                                                                                                                                                                                                                    V.Y.b.x.x.] x.r + . . O + . . . . . . . . . . . . . . . $ H 7 K !.m.v.v.-.v.] r U r + + , I r r G._ ] _ ` U q , -.r 7 + 7 7 + + 7 7 K H r [ T.[ U b._ ] ] ] H r I b._ _ I H r H r r r r r 0 r r r r r r 0 r 7 7 r r r r r f H r H H I H r r r r r r 7 _ r I I r 7 7 I H                                           ",
"                                        x.7 7 $ , q r r H r $ c H r r e r r r r r c c r r r r C c r c H H c c c H H c c H K U K q H H 7 c H [ r 7 $ [ ] x.H 7 _ _ v.x.H 7 H r $ $ + 7 r $ $ r U U $ 7 H _ [ [ _ Y.7 r I 7 . . r _ r x.C.V.A.v.v.VXU 7 f $ . @ . . . . . . . . . . . . . + @ . . $ H C._ [ ] Y.] x.                                                                                                                                                                                                                                                                                                                                                                                                    b.A.x.] ] ] x.r + . + $ $ . . . . . . . . . . . . . . . $ I , I CXc.v.V.x.v.] r U r + . , U r q V.] ] ` -.K 7 $ -.r 7 . 7 7 . $ 7 7 _ c r ] Y._ [ $ 8 _ _ [ H r H +.I I H H 8 7 0 r H H r r H H r r H H r H r r r r r r H H U H H r r r r r r H $ 7 $ _ 7 U H r 7 $ U H                                           ",
"                                        x.7 7 $ $ q H H H r , 7 7 7 , $ $ $ 4 7 4 7 7 7 7 4 4 7 , 7 7 7 7 7 7 7 7 7 7 7 7 q 7 7 7 7 , $ 7 $ q $ + r -.] _ ` _ -._ b._ H r H r $ . . 7 H $ $ 7 H H $ 7 H _ [ [ _ C.7 H I $ + + r _ r x.C.C.Z.V.S.VXI 7 I - $ . . . . . . . . . . . . . . $ + . . $ H v.I [ x.Y.[ x.                                                                                                                                                                                                                                                                                                                                                                                                    V.A.x.[ _ ] x.r . . . $ $ . . . . . . . . . . . . . . . $ H , ` ZXv.c.C.v.Z.b.c U r . . 7 I r r v.x.` [ ] U 7 , -.r , . , r . . , r x.c 7 _ Y._ _ x.[ x.[ ] U $ 7 r r 7 7 7 $ - $ $ 7 7 7 7 7 7 $ $ 7 7 7 7 $ $ 7 7 7 7 7 7 7 7 7 7 7 - $ $ 7 $ + + r U H H H r 7 $ H H                                           ",
"                                        x.7 7 + 7 q r r H K q $ $ $ + + $ $ $ + . + . . . . . + + + + + + + + + + + + + + $ + . + + + + $ $ $ , . r ] ] x.] ! ` [ v.[ r $ 7 $ + $ . 7 r $ $ 7 H r $ 7 H _ _ _ _ V.$ H U $ + $ r I H b.A.V.C.v.V.AX_ 8 ] $ $ . . . . + . + O $ O + + . . . . . . $ H C._ _ ] A.[ x.                                                                                                                                                                                                                                                                                                                                                                                                    C.Y.v.x._ _ ] r . + . + + . . + + + $ O + . . . . . . . $ c 7 [ !.m.v.m.V.v.] r I r + . $ _ r r A.-.` ] [ U 7 , x.r , . , r . . + + r q c _ T.U [ _ [ _ [ ] _ 7 $ + $ + $ . + $ + . . . $ + + + . . . . + + + + + + + + $ + . + $ $ $ . . . + . $ + U H I I I H 7 7 J H                                           ",
"                                        x.7 7 + + $ 7 $ $ 7 q 7 + + . . . . + . . . . . . . . . . . . . . . . . . . . . . + + . . + + . . + . . $ r K ` -.] _ ! _ v.[ r $ + $ $ 7 + 7 7 $ $ r H r $ 7 H _ [ _ [ U.7 r I 7 + + r _ r x.C.V.C.v.v.FX_ 7 x.$ $ . . + + + $ $ 7 - $ $ $ + . . . $ 7 $ r v._ [ b.Z.x.b.                                                                                                                                                                                                                                                                                                                                                                                                    v.Y.v.x._ _ ] r + $ $ . . . $ $ $ $ 7 - $ + + + . . . . $ _ , I CXv.C.v.V.m.] q H r + + 7 ` r r T.` -.] ] K q , x.r , . , r . $ 7 7 $ $ , I T._ _ _ _ [ +.U H 7 + + . . . . . . . + + . . . . . . . . . . . . . . . . . . . . . + . . + + + . + . $ 7 $ 7 7 7 $ $ 7 I U                                           ",
"                                        x.7 $ $ + . . . . $ $ $ , $ + , $ 7 $ + $ + $ 7 $ $ 7 7 7 7 r 7 7 7 , $ , 7 7 q r r 7 $ $ $ 7 $ $ $ , $ $ q $ $ 7 , 7 7 7 $ $ . $ 7 H _ H $ 7 r $ $ r H r $ 7 H I _ _ _ Z.7 r I r $ . H [ r _ b._ b.V.b.AX[ 7 I r $ + . + + . $ $ 7 7 . $ r + + . . U r 7 r A.] x.x.Z.] b.                                                                                                                                                                                                                                                                                                                                                                                                    V.C.b.b.] ] x.$ H r 7 + . . $ U + + 7 7 $ + . O . . $ . $ r $ K T.c.V.x.x.C.-.q c r + + , I r r Z._ ] ` [ K 7 $ ] r , . , 7 . 7 _ H H + $ $ $ r 7 7 7 7 7 7 7 7 7 7 $ $ 7 , $ $ $ $ $ $ 7 r r 7 7 7 7 $ q 7 7 7 7 7 7 7 7 7 , $ $ $ $ $ $ $ $ $ $ + . . . + + + r 7 I U                                           ",
"                                        x.7 $ $ 7 U q r q r I ! I ! _ U ! K r c q H r H c _ ` ! r K ] _ _ ! _ _ _ ! _ ] ] _ ! ! K _ _ -.` ! _ _ [ ` -._ v.v.v.-.] _ H r I I H r 7 + 7 r $ $ r H r $ 7 H _ _ _ _ v.7 H I 7 + + H I H x.A.x.x.b.V.T._ r ] $ + + . . . + . . + . . . $ . . + . _ ] H 7 C.] [ x.Z.[ b.                                                                                                                                                                                                                                                                                                                                                                                                    v.Y.x.] ] ] x.$ H x.H . . . . $ + . . . + . O . + . . + 7 I , I T.m.b.x.-.A.x.r H r + + , ! r r C._ ] ` _ K 7 , x.r 7 + 7 2 . + 7 q ] K r _ x.v.A.Z.U.x.x._ ] ] [ _ I _ _ ] ] _ ! H _ I _ ! ] ` _ _ U I _ _ ! I ! ! I K U I I I I ! I U H H U I H H r U H H H I U 7 _ H                                           ",
"                                        x.7 $ $ K C.V.C.A.V.Y.T.G.T.:X!.ZX~.Y.^.T.:X!.!.E.~.Y.C.U.E.ZX^.^.!.^.:X:XVXCXDX:XT.^.SXZXVXY.ZXDXAXFXGXFXGXSXGXKXKXSXSXGXHX^.] H r 7 7 $ $ r r $ $ 7 f r $ 8 H I _ _ _ x.$ H U $ + + H _ H ] C.V.v.x.v.!._ 7 _ O $ . . . . + . + . . + $ $ $ $ . $ Z.v.[ $ C.[ _ x.U.] b.                                                                                                                                                                                                                                                                                                                                                                                                    b.).x.b.[ _ x.. b.A.v.. . . $ 7 + . . $ . . . . + + O + 7 H 7 _ ZXb.c.[ c.C.x.r H r + + 7 ! r 7 v._ ` ` ` K 7 7 x.r , . 7 q $ + 7 7 ! r q ^.CXZXAXCXZXAX^.^.^.Y.U.^.AXSXAXAXCXZXDXAXGXAX^.VXAXZX~.!.A.Z.Z.T.E.E.E.T.Y.Y.~.~.!.T.T.T.Y.G.Z.T.Y.U.T.!.v.v.V.C.b.Y.I H I H                                           ",
"                                        x.7 $ $ r _ ] _ _ K I I I _ ] _ c._ _ b._ ] ! ` ] [ ! _ _ [ x.] ] [ ] ] V.] _ ] c.x.x.c.! [ ! c.v.v.c.V.m.x.[ C.v.C.v.x.A.!.b.r $ H r 7 7 $ 7 7 $ $ 7 r r $ 7 H I [ [ _ b.7 H U $ + + r U H x.A.b.x.b.V.ZXI 7 _ $ . + $ $ $ 7 H U I 8 0 U I . $ + . x.x.I + V.x.[ ] A._ x.                                                                                                                                                                                                                                                                                                                                                                                                    b.C.x.v._ [ _ $ b.A.x.$ + $ + I H H + I H H 7 $ O $ + . 7 _ 7 I ~.v.x.x.m.v.] q H r + + , H r q b._ _ ` ] H 7 , x.r , . , 7 . + r q K $ 7 _ GXb.v.b.v.b.[ [ ] [ [ b.V.x._ x.b.V.v._ V.c.c.[ v.] ` x.] ] ] ] x.x.x.x.] -.V.] ] ` _ _ _ _ _ U I [ _ [ _ _ _ I U x.r 7 I r                                           ",
"                                        x.7 $ $ r H U _ I ! _ H I ! _ [ x._ ` ` _ _ ! ` b._ I ` ] ] x.` ] ] ] ] -.[ ] [ -.` [ ` K _ ] _ ] v.x.v.b.b.v.x.] c.] ` x.Z._ 7 7 _ r 7 7 + $ 7 $ $ 7 r H $ 7 H I [ [ _ V.7 r U 7 + . r I r x.).V.V.C.b.CX_ 7 ] 7 . . $ 8 7 H I _ [ H U b.U + $ $ + [ U U $ x._ _ _ A.x.x.                                                                                                                                                                                                                                                                                                                                                                                                    V.U.x.[ ] [ _ + _ x._ . O O O b.v.[ 7 b.] _ I + 7 $ . + 7 I , I ~.b.v.v.m.V.-.r H r + + 7 c 7 r m.[ _ _ ` K 7 , x.r 7 + 7 7 + . 7 r _ 7 7 I ^.x.] b.x.x.[ [ ] ] ] ] x.x.x.c.x.v.x._ x.-.] ] x._ _ ` [ ! _ _ ] _ ! _ _ ! _ ! _ ` [ ` _ _ ` +.H ] ] _ [ I H H U _ r 7 I r                                           ",
"                                        x.7 $ $ r _ U c.H K _ H c H H ] ] I _ U K ! ` ] m.` _ ` ] ] x.[ ] ] ] ] -.x.x.` [ _ [ _ ] _ ] ! -.x.[ x.x.-.` ] I H V._ x.Z.] H r H 7 7 $ . 7 r $ + 7 r H $ 7 H _ [ _ _ v.$ r U 7 . . H I r v.U.v.v.Z.C.SX_ r _ $ H . r 8 _ V.Z.^._ Z.] ^.r 7 7 $ + I I r $ x._ ] [ A.] b.                                                                                                                                                                                                                                                                                                                                                                                                    V.A.x.[ _ W [ . I +.[ . 7 r 7 C.ZXA.[ T.!.Y.U.+ H 7 $ 7 $ r 7 _ CXc.V.x.b.U.b.c K c + + 7 I q 7 m.` ` _ ` K 7 $ ] r 7 + 2 7 $ $ q 7 I 7 7 I AX_ x.x.H ] [ x.x.] ] x.x.x.x.-.x.v.c.] ] -.-.-.-.[ ` _ _ I _ _ [ [ _ ` ` _ _ _ [ ] ] _ I I I U H [ _ _ ] r H H U _ r r H H                                           ",
"                                        x.7 $ $ r _ I ` 7 H _ _ ! I U _ ! I ` _ ` -.] ` x.` [ ] -.-.x.] ] ] ] ] x.x.x._ _ I ` ] -._ ] ` [ I _ v.x.v.b.x.A.7 x.U b.Z.+.r 7 H 7 7 7 + 7 r $ + 7 r r $ 7 H _ _ _ _ b.$ r U 7 . . H ] r [ v.V.V.C.v.CXI r U + I + _ r v.E.^.FX[ VXx.FX$ H [ 7 . [ _ H $ x.I _ ] Z.+.b.                                                                                                                                                                                                                                                                                                                                                                                                    x.v.x.x.H _ _ 7 U x._ + 7 o.s V.HX1XZ.!.FXCXVXr U r $ 7 $ U $ ! ^.v.m.m.b.U.b.r H c + + 7 _ r 7 V._ _ _ [ H 7 $ ] q 2 + , , . $ r 7 H 7 q _ CX] x.V.r [ b.x.x.x.x.x.x.x.b.v.v.c.x.-.` x.x.-.] [ ] ` _ ` ` ! _ [ ` _ ` [ ] _ [ ] ` _ I _ _ I H _ I _ H $ ] J _ U H $ I 7                                           ",
"                                        x.7 $ $ r H ! H K ` _ _ ! ! [ ] ] _ _ _ _ -.[ ` ] ` [ ] -.] x.[ ] -.] ] x.] -.[ 8._ ] -.-.] -.] ] [ ] ` c.x.v.[ x._ ! _ x.Y.C.U r H 7 $ 7 . 7 r $ $ 7 r H $ 7 H _ _ _ _ v.$ r U 7 + + H _ r [ V.V.v.b.v.^.] 7 _ 7 $ + 7 $ H H I _ $ ] I x.$ + 7 $ + _ r U $ V._ [ v.U.] b.                                                                                                                                                                                                                                                                                                                                                                                                    b.T.b.x._ ] _ $ I H H . $ $ $ H Z.I I U _ _ I $ 7 r + + $ H , ! ZXx.m.v.C.C.-.q H H + + , I 7 q G._ _ _ ` U 7 $ ] r 7 + 7 r + + q 7 I r 7 x.CXx.x.H I V.x.x.x.x.o.x.x.x.] -.c.-.x.b.-.x.-.c.] _ [ ] ! -.` ] ` _ ` ` ` ] -.` [ ] [ ` _ ` ] _ r I H I _ U 7 U I I 7 7 I r                                           ",
"                                        x.7 $ $ r H _ ] C._ _ _ _ _ _ _ I _ [ _ _ ] _ [ _ +.[ [ ] [ [ [ ] ] ] ] x.] x.x.] [ [ x.c.] b.] ] ` -.` ` x.-.` ] x.!.] x.T.V.U r H 7 7 7 + 7 r $ $ 7 r r $ 7 H _ _ _ _ v.7 H I 7 + + r I r x.C.V.v.c.v.T.[ 7 _ $ $ . 7 $ H _ ` v.7 ] I x.$ . + + + I H H 7 C._ ] [ U.x.x.                                                                                                                                                                                                                                                                                                                                                                                                    b.U.x.x.] _ _ 7 I I H + $ + $ H b._ I I x.[ U 8 8 7 + + $ r + [ SXb.v.b.b.m.[ r H r + . 7 I q 7 Z._ ` ! _ K , , _ r 7 + 7 7 + $ q 7 [ r q x.CX] x.!.m.v.C.-.c.x.` v.c.] v.x.] ] x.x.x.x.x.x.[ [ [ [ ] [ _ [ _ [ ] _ [ _ [ [ _ [ [ _ _ [ _ _ H I U _ ] [ b._ ! _ r 7 T y                                           ",
"                                        x.7 , $ r I H I ` ] ] ] _ _ _ _ I U I I _ [ _ [ _ ] _ [ ] ] [ [ ] ] ] ] x.] ] ] ] [ _ ] ] ] x.x.] x.x.-.] _ ` c.v.` c.-.b.T.C.U H U r 7 7 $ r r $ $ 7 r H $ 7 H _ I I I V.$ r _ 7 . . H U 7 _ v.V.V.V.v.AX[ 7 [ $ $ $ + . * 7 9 s . 4 o H + + $ + + U U H $ b.| ] [ v._ x.                                                                                                                                                                                                                                                                                                                                                                                                    V.S.3.3.[ [ [ 7 I I H . . $ + 7 H 7 $ $ r 0 7 . + $ . + $ I q _ U.x.x.v.b.v.[ r H c $ . 7 K 7 7 V._ ` _ _ H , $ _ r 7 + 7 q . + r 7 _ 7 q x.Y._ [ -.c.c.m.x.b.c.v.-.] ] -.x.] [ [ ] ] x.x.x.[ ] ] [ _ _ ] ] _ _ _ I ` [ ] _ _ _ [ _ _ [ [ I _ / P W ] I H I I I 7 % I M                                           ",
"                                        x.7 , $ r U U I _ ! _ _ _ I _ _ I H H I _ _ I _ _ [ _ _ [ _ _ _ [ ] ] ] ] _ [ [ ] ] ] x.] _ x.[ ] ] b.-._ ! I ] b.x.x.x.x.U.x.H H r 7 7 7 $ r r $ $ 7 r H $ 7 H _ _ _ _ b.$ H H $ + . r I r [ V.V.v.C.V.T._ r _ $ $ . . . o $ $ 7 $ $ 7 7 $ + . . + H T f 7 b.x.] ] V.[ x.                                                                                                                                                                                                                                                                                                                                                                                                    A.S.x.] [ ] ] 7 U I H + . + . $ q $ + $ $ $ $ . . . . . $ r r ! T.c.m.x.v.v.` q c r $ + 7 I q r V._ ` ` ` H 7 $ _ q 7 + 7 q . + q 7 ` 7 7 [ !._ ` ` x.v.V.x.v.x.] -.` ] ` [ [ ] x.x.x.x.x.[ _ ] x.[ _ _ [ [ _ _ _ ! _ _ _ _ _ _ _ _ _ _ _ P I / H _ _ [ _ _ _ _ r % I M                                           ",
"                                        x.7 , $ H U I _ ] _ I I U U H H H r r U H H f P H U H I H H H H U I / _ [ [ ] ] ] x.x.b.v.] b.! _ I ] ! K H I ] b.] x.x.b.!.A.U r H r 7 7 + 7 r $ $ 7 r r $ 7 H _ _ _ _ A.$ r U 7 . . H _ H x.A.C.m.C.m.!.[ 7 r $ + . . . . . . . . . + $ $ + . + . 7 q $ 7 v._ _ [ A.] v.                                                                                                                                                                                                                                                                                                                                                                                                    N.U.x.[ ] [ [ 7 7 r 0 . + . + 7 $ $ . + . . + . . . . + $ H , _ DXv.v.v.Z.C.-.r H c $ . , I r r C.` [ ` [ K 7 , ] q 7 + 7 7 + $ 7 7 x.r 7 _ CX] ` v.] ] x.x.V.x.-.[ _ I [ _ _ _ _ I I I _ _ _ [ _ _ _ _ I U H U I U ! I I H U J H H H H H H H H P U [ I _ _ _ _ r 2 I H                                           ",
"                                        x.7 , $ r _ U ] _ -.7 . + $ @ . + . . . . . . . . + . + + + + . . + $ $ + + $ + + $ $ $ $ . + . . + + + + $ b.b.c.-.-.x.v.T.v.I r 7 $ 7 7 + 7 0 $ O 7 r H $ 7 H _ _ _ I Z.7 r H $ . . H _ r x.Z.A.Z.C.b.AX_ $ U $ . + . . + + . + + . . $ 7 $ . O . + 7 . 7 b._ _ _ v._ x.                                                                                                                                                                                                                                                                                                                                                                                                    S.Z.x.[ ] [ ] 8 $ 7 $ . . . O 7 . . . + + . . . . . . . $ H 7 _ FXx.V.x.m.v.[ r H H $ + $ U 7 7 Z.` ] ` ] U r 7 ] q 7 . 7 7 + + 7 7 x.c 7 c T.` ` b.x.x.c.v.. . 7 7 + $ . . $ $ $ + + $ $ $ + $ . . + $ + $ . + . . + + + . + + + + + . + + . O . $ x.] [ _ _ _ r 7 T H                                           ",
"                                        x.7 $ $ r _ ! [ ! I + 4 $ 7 7 7 r 7 7 7 7 7 $ 7 7 7 7 7 7 7 0 7 7 7 r r r r r r r H r r r r r q r 7 $ , $ . C.x.-.V.c.v.b.T.v.H r H r 7 7 + 7 7 $ $ 7 r H $ 7 H _ _ _ I A.7 r r + + + r ! q v.Z.C.A.V.v.!.I 7 I $ . . . . . . . $ . . . $ $ . . + . + 2 + 9 ] [ [ [ b.I x.                                                                                                                                                                                                                                                                                                                                                                                                    C.b.] ] [ _ ] r $ $ + . + . + $ . + . $ $ + + . . . . . $ I 7 _ U.x.x.V.x.V.] r H r $ + 7 U 7 7 G.` ] _ ] K q 7 ` q 7 . $ r . . q r -.r 7 _ !.` x.-.] ] [ ` $ H K r H c r r H H H r 9 7 7 r 7 r r 7 7 r H H r r 7 r r r 7 7 r r 7 r 7 7 7 r r s e . v._ _ _ _ _ r 7 I M                                           ",
"                                        x.7 $ $ K ! ! _ _ c 7 ] I U I _ _ _ _ I I I I I _ _ _ _ _ _ _ _ _ _ _ _ _ _ _ _ [ x.[ _ ] ] ] ! ] _ I ] _ . -.x.x.v.x.V.x.A.] H H H 7 7 7 + 7 0 $ O 7 r f $ 7 H _ _ _ _ U.$ 0 U 7 . . H ! r v.Z.v.m.C.m.!.[ 7 H $ + . . . . . . . . . . . . . . $ . . . + r ] _ ] ] v._ x.                                                                                                                                                                                                                                                                                                                                                                                                    V.v.] | [ W [ 0 . + . . . . + $ . + . . . . . . . . . + 7 c 7 ! Y.x.v.v.] Y.v.H H r @ + , U q 7 Z._ [ _ [ K 7 , _ q , + $ r . + r q [ 7 q [ !.[ x.x.] x.x.x.. H ^.x.c.-.] ] ] [ _ _ [ ] ] _ I [ [ _ _ _ [ U H I U _ _ _ U _ _ _ T _ _ U I / ] _ Z.$ A.U _ [ [ [ r 2 U r                                           ",
"                                        x.$ $ $ H _ ! [ _ K . r [ U U _ _ I U H U I I I _ _ _ _ _ _ I I I I I I U I [ _ _ [ [ _ ` ] U U U ! H x.H $ I x.x.b.b.c.x.Z.x.H H H 7 $ 7 + 8 r $ + 7 r H $ 7 H _ _ _ _ C.- r H $ . . r _ c ] C.v.v.Z.v.!._ 7 I $ . . . O O $ $ $ 7 $ 7 + $ $ $ . . . . . H S._ x.o.A.[ x.                                                                                                                                                                                                                                                                                                                                                                                                    b.U.b.x.[ [ +.r . + . . . O $ $ + $ % $ $ $ + $ + . . . 7 H 7 I ^.] c.b.m.m.] r H r $ + $ H 7 7 V._ ` [ [ H , $ I 7 , + , 7 . + 7 , _ 7 7 _ v.x.[ ] ] ] x.] , H ` c._ -.x.[ [ [ _ _ [ _ I I _ _ I U _ _ I _ U I H U U U H H I U U _ I H I / H I _ O _ I I _ _ _ r $ U r                                           ",
"                                        x.7 $ $ H I ! ] ` H + r _ r _ I U H I U H H H H I _ _ _ U U I I I I I U I I I I [ _ H H I I I I H r q _ I . [ x.] b.] [ x.Z.] H H U $ 7 7 $ $ 7 $ $ 7 H U $ 7 H _ _ [ [ V.7 r H $ . . r H q _ V.C.V.b.v./.[ r I 7 . $ + $ 2 y r J I J q r H H U + . . . + r ] x.x.] v.W x.                                                                                                                                                                                                                                                                                                                                                                                                    b.b.[ [ x.v.] r . . . . $ I H H q y H r r 7 7 r 7 $ 7 $ $ K 7 _ :X] -.x.v.A.b.r c r $ . 7 I 7 7 v._ _ _ _ H 7 $ _ 7 7 + $ 7 + + , , [ 7 7 _ ` U ` -.b.` x.[ $ H _ H ` x.-.] [ _ _ _ _ _ _ _ I I U _ U _ _ _ U H H H H H U H H H U U U H U _ I H I $ _ _ I _ I _ r 7 T r                                           ",
"                                        x.7 $ $ H _ _ ] ` H + c _ _ [ H r 7 7 $ $ $ $ $ 7 7 7 7 $ $ 7 7 7 7 7 $ 7 8 7 7 r r $ 7 $ r $ 7 q -.` ` U $ G.b.x.-.c.c.x.Z.x.I r H 7 7 7 @ $ 7 + $ 7 H H O 7 H _ _ [ _ A.7 7 H $ . . H I H v.U.C.V.x.x.AX_ 7 _ 7 $ r . U T b.A.A.Z.T.7 V.V.b.T + . . . . H x.] ] x.A.[ x.                                                                                                                                                                                                                                                                                                                                                                                                    v.V.| [ _ x.] M @ . . . $ V.b.x.| r Z.N.x.[ ] ] _ 8 7 . 7 I $ I ~.x.x.m.c.C.b.r H r $ . , I 7 7 m._ _ _ _ K 7 $ _ q 7 + $ 7 + + , $ ` 7 7 ] Z._ -.` ] ` _ c.+ H x.] x.] H H H r r 7 7 7 7 r 7 8 8 7 7 7 7 7 7 $ 7 7 $ $ - $ $ $ $ 7 - $ 7 [ _ _ I + _ _ _ I H I r 7 T r                                           ",
"                                        x.7 $ $ H _ _ ] _ H + H [ _ U + . . . . . . + . . + . . . . . . . . . . . + + . + + . $ . $ . . . I _ ` I $ Y.x.x.] b.b.x.!.v.r H W 7 $ $ + $ 0 @ $ 7 H H + $ r _ _ _ _ U.7 7 r $ . . f [ r x.C.v.A.m.c.Z._ r U 7 $ 7 H ^ N./.ZXCXCXAXU FXSXFXb.r + . . . H x.] [ x.A._ x.                                                                                                                                                                                                                                                                                                                                                                                                    v.C.c.x.| x.] y + . . . 2 ZXFXHXSXr AXAXZXZX^.U.x.r r . $ H 7 _ AXx.v.c.-.v.x.r H r $ . , U 7 7 V.! _ _ _ K 7 $ _ 7 , . $ 7 + + , $ _ 7 7 ` ZX` x.` [ -.] x.. K V.x.x.K + . . . . . . + O + . . + . . . + . . . . . . . . . . . . . . . + U I ` I + ] ! I I U _ r 7 _ r                                           ",
"                                        x.7 $ $ H _ _ [ _ H + H _ _ H . 7 $ . . . + + + . . . . . + + . . . . . . . . . . . . + + . . . + H ] c.` . C.] -.-.x.-.x.Z.] I H H 7 $ $ + 7 0 O $ 7 H H $ 4 r I _ _ I A.7 7 H $ + . r _ r v.G.m.C.V.m.SX[ 7 _ $ _ [ $ q [ U.U.T.!.T.U !.^.SXx.H . . . + H x.+.] ] v._ x.                                                                                                                                                                                                                                                                                                                                                                                                    b.v.x.3.| ] ] r . . 2 $ H AXCX^.(.7 Y.T.Y.Y.Z.x.H 7 U 7 $ I , I ZXb.m.c._ b.x.q H r + . 7 H 7 7 C.! ` _ _ H 7 $ _ 7 $ . $ 7 + + $ $ _ 7 7 ] FX-.-.[ ` ` -.[ $ K C.x.] q . $ $ $ $ + . . . . + . + . . . + $ + . . . . . . . . . . . . . $ s I _ ! $ x._ I _ _ _ r 7 ^ y                                           ",
"                                        x.7 $ $ H [ _ ` _ H + H U U U $ _ U H f r r H H f r H H r H H r r r r r H H H H H H H U U K U r $ H [ ] ` + Z.x.] [ -.] x.Y.b._ f r 7 $ $ + $ 7 + $ 7 r r + 7 r I _ _ I v.7 r U $ $ . r I c x.Z.C.V.V.V.!.[ 7 H $ H 7 $ 7 % y H H I y r I | S.U r + $ . $ H x.] ] x.V._ b.                                                                                                                                                                                                                                                                                                                                                                                                    v.V.3.[ _ [ ] r + . 7 $ r ] ] [ J . $ r r H H r $ 7 r $ $ r 7 _ ZXc.b.x.b.v.c.r H r + . , H 7 7 C._ ` _ ` H 7 $ _ q $ . $ 7 + @ $ $ _ 7 7 ] AX] -._ ` _ ] ] $ H v.c.x.q $ I I U U U H H H H H r H r r r H H r r r r r r r r r H H H H H U C ! I P $ [ _ _ _ _ I 7 7 I y                                           ",
"                                        x.7 $ $ H [ _ _ _ H . r I U H . r H U H H H H H H H U U H U H H H H H H H H r H H H H H r K K K $ ! ] x.I + G.x.-.] v.] x.^.C.H r U 7 + $ + $ 7 + $ $ 0 r + - f I _ [ _ b.$ r H $ + . r I r _ m.m.m.V.V.^.x.7 r + r r V.A.FXKXKXKXGX^.K.LXGXHXI 7 - 7 . $ U b._ _ x.V._ b.                                                                                                                                                                                                                                                                                                                                                                                                    V.Z.b.[ T ] ] r + $ r 7 H VXLXKXKXr SXLXLXLXHXAXZ.b.H $ $ r r I CXm.Z.x.v.v.c.q K c + . $ K q r C._ ` _ _ J 7 $ _ q , + , q + $ $ , _ q 7 ` T._ x._ -.-.-.[ + H x.v.] r $ H H H I _ _ I I U U H H H H H H H H H H H H r r r r H r r H r H r ! U H . _ _ [ _ _ I 7 % U r                                           ",
"                                        x.7 $ $ H ] _ _ _ H . e _ _ H . . + + . + + + + + + + + + + + . . . + . + + . + + + $ + $ $ + 7 , ` ] x.H . v.x.] x.C.-.x.C.x.U 7 H r + $ + 7 r + $ $ r r + 7 H _ _ [ _ C.7 r H $ . . H I c v.G.v.v.v.b.CX] 0 H $ 7 7 ] ] (.^.VXZXZ.[ N.SXAXFXy 7 r 7 $ $ U b._ I x.V._ v.                                                                                                                                                                                                                                                                                                                                                                                                    V.Z.x._ T ] ] r @ 7 H y _ T.DX^.VXr A.(.SXFXCXT.[ _ 7 $ 7 H q [ ^.c.x.v.V.V.v.r K c + + $ H 7 r C._ ` ` _ H 7 $ _ q , + 7 r + $ $ 7 _ r 7 -.Z.` x.[ x.-.-.` . r b.x._ 7 $ + + + $ $ $ $ $ $ $ $ + + + + + + + + O O + + . + + $ + . . . . 9 I I P $ ] [ ] _ ] _ 7 % J r                                           ",
"                                        x.7 $ $ K x.` ` ` H . r ] I r $ . . . . . . . . + . . . . . . . . . . . . . . . . . + . . . + . $ _ c.m.I . ` x._ x.V.x.x.U.b.H r H $ $ $ $ 7 r + $ 7 r H $ 7 H _ _ _ _ Y.7 0 U $ . . H ` q v.A.x.A.A.v.VXU r I + $ * U J | A.N.v.] I I S.N.] H 7 + + . $ H b._ _ ] V.] v.                                                                                                                                                                                                                                                                                                                                                                                                    A.Z.] I I ] [ r . 2 2 @ r x.v.V.N.q v.V.v.b.b.b.r H 7 $ 7 U r ` ZXx.v.m.v.U.A.c U c + + $ H 7 r V.` [ ] _ K 7 $ ` r 7 $ 7 r + $ $ q [ r 7 -.Z._ ` x.x.[ c.x.. 7 C.[ ] 7 + . . . . . . . . . . . . . . . . . . . . . . . . . . . . . . . . r I ! H $ b.[ [ _ ] _ 7 2 J y                                           ",
"                                        x.7 $ $ H [ [ [ _ H + r ] _ H . + $ + $ $ 7 $ 7 $ $ $ $ 7 7 $ $ $ 7 7 $ 7 + $ $ $ 7 $ 7 $ $ 7 $ + _ [ x.r . x.[ [ b.b.v.x.!.S.f 7 I 7 + 7 $ $ 7 + $ $ 7 H $ 7 U I _ _ I A.7 r U $ . . H _ H x.V.b.V.V.c.AX_ 7 [ + + $ 7 % I [ T T L M y ] ] b.q $ + $ . $ H b.[ _ [ C.b.v.                                                                                                                                                                                                                                                                                                                                                                                                    V.U.] U ! ] [ r . $ $ O - W W _ [ % _ [ T H U I 7 $ $ . $ K q _ CX-.V.v.v.C.v.H U H . . , I $ 7 E._ [ _ _ H 7 $ _ H $ + 7 7 + . 7 7 _ r 7 ] v.] x.b.x.] ] [ + 7 _ [ _ 7 + 8 $ 7 7 7 $ $ 7 7 7 $ $ $ $ 7 7 7 $ 7 7 7 $ 7 $ 7 7 7 $ $ $ $ $ 7 U U r $ x.] ] [ [ _ r 7 U C                                           ",
"                                        x.7 $ $ H _ _ _ _ H . r ] H c + I K U K U I I I _ _ _ _ [ _ _ I _ _ _ _ _ _ I I I _ _ _ _ _ [ I $ _ ! _ r . U.[ x.b.x.b.x.A.] H 7 f 7 + $ + $ 7 . O $ 7 r + $ U _ _ _ I b.7 r I $ . . H _ c -.m.c.V.v.x.!.U 7 [ $ $ + + % q w y J I y 7 H r I % $ $ + . + H x.[ _ [ V.] v.                                                                                                                                                                                                                                                                                                                                                                                                    C.v.] I [ +.] r . . . . . 0 y H H $ H J H 7 7 r $ + $ . $ I $ I ^.x.-.v.v.v.x.r K H + . $ I 7 q Z._ _ _ I H 7 $ _ r $ . 7 7 . . - 7 _ r 7 ] Y.x.[ x.x.x.] b.. 7 ] _ _ r $ x.] ] ] ] x.[ [ _ [ [ _ I U I _ ] _ x.] _ U I I I I U U U H H r r [ _ U + b.[ _ [ _ I 7 4 U M                                           ",
"                                        x.7 $ $ U [ _ _ _ H . r I U c . r H H H r r r r H H H H I U H H H U U U H I H H r r U H H H I H + I _ ] U . H [ _ ] x.x.v.A._ H 7 7 7 + $ + $ 7 + O $ r r + $ H _ I I _ v.7 7 U $ . . r _ H x.C.v.m.c.-.!._ 7 _ $ + $ . $ $ % 7 r r q $ y 7 r 7 $ $ . . + H x.] ] ] V.[ v.                                                                                                                                                                                                                                                                                                                                                                                                    C.x.[ _ [ [ _ 0 . . + . O 8 r r 0 $ r 8 - $ $ $ + + O . $ I r I AXv.V.x.v.m.x.r H H . . , K 7 r A._ _ _ ! H 7 $ I r $ + $ 7 . . - 7 _ r 7 _ b.x.x.[ x.x.] _ $ 7 b._ x.$ $ I U H U H _ H H H H H H r r r H U H _ I H r r H H H H H H r 7 7 7 U I _ $ [ _ x.[ _ U 7 $ U c                                           ",
"                                        x.7 $ $ U ] [ [ _ H . r I ] I . . + . + + + . . + . + . O . . + + + + + + $ + + + . $ . + . $ . . H [ ] 7 . Y.] x.x.x.x.v.E.] r r 7 $ $ 7 @ $ 7 + + $ r r $ $ H _ W I _ Z.r r I 7 + . r K q x.Z.V.C.m.b.Y._ 7 I $ . + . . . $ % @ $ $ . @ . @ $ $ @ . + + s x.[ ] 3.A.| x.                                                                                                                                                                                                                                                                                                                                                                                                    V.C.x.[ [ ] [ r . . . . . . . $ $ . $ O . + . . . + + . $ H 7 K CXb.x.] c.V.c.r H H + + 7 H r q U._ _ ! [ H 7 $ I r $ + $ 7 + . 7 7 _ r 7 _ x.] b.] x.] ] _ . 7 _ ] o.7 . + + + + + $ + + . . . + . . . + + . $ + . . + $ . + + . . . . + H _ _ H + _ _ _ [ _ U 7 $ U H                                           ",
"                                        x.7 7 $ H _ _ _ _ H . r _ ] I + 7 . . . . . . . . . . . . . . + + . . . . . . . . . . . + . $ . . H [ [ H $ x.] _ x.o._ v.!.x.r 7 7 7 7 7 + $ 7 . + $ r 7 $ $ H _ [ _ I v.7 H _ 7 . . H I r v.U.V.v.x.] T.[ 7 I $ . + . @ $ 7 7 2 r r + y r r 7 $ + . . . r x.] ] ] C.] x.                                                                                                                                                                                                                                                                                                                                                                                                    V.U.x._ ] ] _ r . . . . . y r r r . 7 7 $ $ $ $ + + . . 7 K 7 I :Xb.c.b.V.V.c.r H H + . , U r 7 Z.! _ I ` H 7 $ U 7 $ . $ 7 + . 7 7 I r 7 _ ^.[ ] x.] x.[ ] . 7 b._ _ 7 + . . + . . . . . . . . . . . . . . . . . . . . . . . . . . . . + r _ _ H . U _ _ _ _ I 7 $ U r                                           ",
"                                        x.r 7 $ U _ W _ _ H . r ! ] K + q 7 q r r r 7 r r 7 r 7 r r r H r r r r r 7 r 7 r H r H r r r 7 . H _ ] I . ] x.x.[ [ ] ] Y.v.[ H r $ . 7 + $ 7 + + $ r 7 $ $ H I _ _ I x.$ r U $ . . f H q x.Z.V.m.b.x.^.[ 7 I - . . + % 7 r r r H H $ q r r 7 + . . . . H b.] ] [ S.[ x.                                                                                                                                                                                                                                                                                                                                                                                                    C.A.] U [ [ _ 9 . . . . + r 7 q r + r r r r r 7 $ $ . . $ H 7 ! ~.x.b.m.m.Z.v.r c r . + 7 I q 7 c.! _ ` ! H 7 $ U r $ + $ 7 + . 7 7 I 7 7 I ZX[ _ -.] 8.[ _ + 7 Z.I x.$ $ r 7 r 7 H r r r H H H H r r r r r r r r r r 7 r r r 7 7 r r 7 7 r _ _ [ . H H _ _ _ U 7 $ U r                                           ",
"                                        x.r 7 $ I [ I _ _ H . r I x.I $ H H I K H r r r H r H r H H U U H H H U H H H H H U H H U U r r . U [ x.H . x.[ ] x.] [ v.T.v.U 7 r 7 $ 7 + $ 7 + $ $ r H $ $ r H I _ I A.r H I - + . r I r x.C.v.v.b.x.T.U 7 I 8 . . . . + $ $ @ $ % . $ 7 7 $ + . + . + H v.] [ [ S._ b.                                                                                                                                                                                                                                                                                                                                                                                                    C.V.[ U _ ] _ r + . + . . 7 7 $ $ . $ $ O $ $ + + + . . - _ 7 _ T.x.x.C.v.Z.v.r r r . + 7 I q 7 b._ _ [ _ H 7 $ I r - + 7 8 + + 7 7 I 7 $ U T.[ ] [ x._ [ x.$ $ x._ x.7 $ U r r H U U U I U U I I H H H H H H H H r H r H H H H H U U U U r I U I + x.x._ _ I K 7 $ U H                                           ",
"                                        x.r 7 $ U _ I _ _ H + r _ _ I + -.r H q 7 7 7 7 r r H H 7 r r r 7 7 r r r H r r H H H 0 7 7 7 7 $ U ] ] H + +.] ] [ ] [ x.!.V.H r H $ $ 7 + $ 7 + + $ r H + - H I U _ I x.7 H _ - + + H _ r -.v.x.v.v.c.^._ 8 H $ . . + @ + $ $ $ $ $ + $ $ $ + + . $ + + r x._ _ [ V.[ b.                                                                                                                                                                                                                                                                                                                                                                                                    V.C.x.[ _ _ I 7 + + $ @ . % $ $ . $ 7 $ * $ $ . . . . + $ U q I VX] m.x._ v.x.q c c + + , _ r r Z._ _ _ ` H 7 + I r $ . - 8 + + 7 7 I 7 $ U VX[ ] x.] _ ] b.. 7 A.I _ $ $ H r 7 r r H r U U H H H H r 7 7 f r 7 7 7 r 7 r H H H H r 7 r H r I I H . H _ _ _ I H 7 $ I H                                           ",
"                                        +.7 $ $ _ _ _ [ [ H + r ` ] I $ . + . . . . . . . . . . . . . . . . . . . . + . . . . . . . . . $ _ ] ] I . [ I [ ] x.[ x.Y.x.H r H 7 + 7 . $ 7 . O 7 r J 7 7 r H I _ I x.7 r U $ + + r I c _ m.x.V.v.v.T._ 7 I $ + . . . + . + . . . . . . . . . $ + $ + H x.[ [ U V.| v.                                                                                                                                                                                                                                                                                                                                                                                                    C.Z.x._ _ _ _ 7 + + $ $ . . . . . . + . . . . . . . . . $ H q ! :Xc.m.V.v.C.b.r K r . + , ! r 7 m._ _ _ I U $ $ U r $ $ $ 7 + $ 7 $ r 7 $ U Y.] x.] ] _ ] x.+ 0 [ _ [ $ . . . . . . . . . . $ . . . . . . . . . . . . . . . . . . . . + . r _ I I . H I _ U I I $ $ H r                                           ",
"                                        x.7 $ $ I _ _ _ _ r . r _ ` I . + . . . . . . . . . . . . . . . . . . . . . . . . . . . . . . + . _ ] x.I . x.] ] x.[ x.b.b._ r r I 7 $ 7 . $ 7 . $ 7 r H $ $ H U I _ W x.7 r U $ + + r ! H ` v.-.V.m.b.ZX_ $ U 7 . . . . . . . . . + . . . . . + $ $ $ $ H b._ _ I S.] v.                                                                                                                                                                                                                                                                                                                                                                                                    v.V.[ _ _ [ _ r + + + $ $ . . . . . . . . . . . . . . . $ H r ] T.v.x.x.V.V.x.r I r + + 7 K 7 7 V._ _ ` _ r 7 $ _ 7 $ + 7 7 . . 7 7 I r $ I ).] ] _ _ _ [ [ + 8 x._ _ $ . . . . . . . . . . + . . . . . . . . . . . . . . . . . . . . . . H [ _ I + _ _ _ _ [ _ 7 7 H r                                           ",
"                                        x.7 $ $ I _ _ [ _ H . r _ _ I . r q r r r r 9 7 7 7 8 7 $ 7 7 7 7 7 7 7 r r 7 7 7 7 7 7 r r 7 r . I I [ U . I x.x.] x.b.] /.+.7 r U 7 $ 8 + $ 7 + $ 7 r r $ $ H U I _ _ b.7 r U 7 + + H _ H [ b.x.v.m.c.VX[ 7 H $ . . . . . . . . . $ . + + $ $ % $ $ . + r x.I I _ v.] v.                                                                                                                                                                                                                                                                                                                                                                                                    b.v._ _ [ _ _ 7 . . $ 7 7 7 + . . . o . . + . . . . . . $ c 7 [ :Xb.v.[ v.v.x.r I r + + , K q q C._ _ _ _ r 7 O I 7 7 + 7 7 . . 8 7 U r 7 I V.x.o.] x.x.] _ $ 7 C._ _ $ + r r r 7 r r 7 q 7 r r 7 0 r 7 7 7 7 7 7 7 7 7 $ 7 8 7 7 7 7 7 7 7 I H H . [ ] _ _ ] _ 7 $ U r                                           ",
"                                        x.7 $ $ I [ _ ] [ H . r _ _ K . K H H K U I I H H r H r r r r 7 7 r H f H H H H H H H H y U H H . H H _ U . I ] x.x.b.x.x.Y.] r r U $ + 8 + $ r + $ 7 r r + $ H U U _ _ v.7 r U 7 + + H I q _ x.x.x.c.x.VX[ r H $ . + . . . . $ + . + . . $ $ 7 $ $ $ . + r x._ _ ] C.x.v.                                                                                                                                                                                                                                                                                                                                                                                                    b.V.] _ [ ] [ r + . . $ - e $ $ . . . . . $ . . . . . . $ r 7 _ AXv.C.[ x.m.x.c I r + . , I r r Z.` _ _ _ r 7 $ H H 7 $ 7 7 + $ 0 $ H r 7 I ] x.] ] x.b.] _ + $ b.I _ $ $ I H H H H H H U H U I H H U r r H r r r r r r r r r r H H r r 7 7 U H H + x.] _ _ [ _ - $ U r                                           ",
"                                        x.q $ $ I [ _ ] ] I . 7 I ^ H . q q q r r r H r r 7 7 $ 7 7 7 7 $ 7 7 7 7 r r r r 0 r r 7 7 7 7 + U U _ U . C.x.x.x.[ [ [ Z.[ 7 7 H 7 $ 7 $ 7 r + $ 7 r r + $ H U I I I b.7 r U $ . . r _ r ] V.V.v.v.b.SX+.0 I 7 . . . . . . 7 . + . . $ r 7 r O + . . + H x.[ _ _ V.] c.                                                                                                                                                                                                                                                                                                                                                                                                    v.V.[ _ ] -.[ r . . . + $ r 7 7 + . $ . . $ + . . . . . $ H 7 _ T.m.[ x.c.m.x.H I c $ . 7 I r r Z.` _ _ _ H $ $ U H 7 + 7 r + + 7 7 _ r $ _ _ x.[ ] x.x.x.[ . $ ] I ] 7 + r r r 7 r r r r r r H r r H r r 7 7 7 7 7 7 7 7 7 7 7 r r 7 7 7 7 H H r . ] [ _ ] x._ 7 $ I r                                           ",
"                                        x.e $ $ U [ _ ] x._ + r I _ H . . . . + . . . . . . . . . . + . . . . . . . + . . . . . . . . . + U I I H + A.8.x.x.] [ v.AXC.H r r 7 $ 7 $ 7 r + O 7 r r $ $ H I I _ I x.7 7 U $ . . r I 7 ` V.m.c.c.x.CX[ r I - . + . . o o r . o + + 7 H 8 q . . . . . H | _ _ J b.T x.                                                                                                                                                                                                                                                                                                                                                                                                    b.b.I U [ ` _ q . . . + + , r I 7 . . . $ 7 $ + . . . . $ H $ ` FX] b.m.-.c.[ r I c $ . , U q 7 V._ _ _ _ r 7 O _ r 7 . 7 H + . 7 7 [ r $ U [ ] x.x.v.x.x.x.. 7 [ _ x.7 + . . . . . + . . . . . . . + . . . . . . . . . . . . . . . . . . r H U H + x.x.x.x.x._ 7 $ _ r                                           ",
"                                        x.r $ $ H [ I _ [ I . r _ _ H . . $ + . $ . . . . + + + . . . . . . . + . . . . . + + . . . . + . H U I H $ ] [ x.] b.[ x.A.] H 7 r $ + 7 + - r + $ 7 r r $ $ H I _ _ H x.7 r U $ + + r K 7 _ v.v.v.v.b.!._ q _ $ + $ . . $ O 9 . $ $ . $ r O $ . . . + + M x._ _ I b.I x.                                                                                                                                                                                                                                                                                                                                                                                                    b.b.I U _ ] ` r . . . . . 7 7 r $ + 7 . . 7 $ @ . . . . $ c q _ E.x.] -.V.c.` r J r @ . , I r 7 m.I ! _ ! r 7 O _ r 7 + 7 r + + 7 $ _ 7 $ r v._ x.x.b.] ] ] . $ [ _ [ 7 $ + . + . . . . . + . . . + + . . . . . . . . . + . + . . . . . . r U I H . [ [ ] [ [ I 7 $ I r                                           ",
"                                        x.r $ $ I o._ [ [ _ + r ! I H $ H ` _ K U H H I I I H H I I U U H H H U U U U H I _ _ _ H U H H $ H U _ _ + ] x.x.x.] [ x.!.b.H r 7 % . 7 . $ 9 $ $ 7 r r $ - H I _ I H ] 7 r U $ . . r c 7 ! c.c.V.V.v.^.I $ _ $ + + . . $ $ 7 . O 4 . 7 U - O + . . . . 7 x.U _ _ b.I 3.                                                                                                                                                                                                                                                                                                                                                                                                    b.v._ I _ _ _ r . . . . . + r _ 7 . $ + + 7 $ $ . . . . $ H $ _ !.] x.x.v.m.] r H q @ . 7 U r 7 v.U I _ _ H $ + H 7 $ $ $ r + + r $ [ q $ _ !.[ x.x.] ] [ [ . $ x._ _ r 7 _ I I U H U U I _ _ H I [ _ _ _ I I _ _ _ I I I U I U U H r H H 7 U _ U + ] ] ] _ _ U 7 $ I q                                           ",
"                                        x.7 $ $ I ] _ [ _ I + 0 H I H . H I M H H r H H H H H r H H H f r r r r H r r r r H H U H H H r . H U _ _ . A.] x.-.-.` ] T.V.r r r 7 . 7 . $ r $ $ $ r r $ 7 H U I K I b.7 r H , . + r U 7 x.m.m.v.V.m.SXI 7 ] + + $ . . + O $ . $ 7 . 7 U $ . . + . . + r b._ _ _ v.I x.                                                                                                                                                                                                                                                                                                                                                                                                    b.b.[ I _ _ _ r . . . . . . $ 7 $ O 7 $ . $ O . . . + . $ H $ _ Y.x.x.x.b.Z.-.r H r + + , K r r m.! _ _ _ r $ $ _ r 7 . 7 7 + $ 7 7 H 7 $ I V.] ] x.x.] 8.] . 7 x.I _ 7 $ I H r H H r r r f r H H H H H H 7 r H H H r r H r r r r H r r 7 - U H H $ x._ _ _ [ I 7 7 ^ r                                           ",
"                                        x.7 $ $ H _ _ [ _ U + 0 I I U + $ 2 $ $ $ $ $ $ $ $ $ $ $ $ $ $ $ $ $ $ $ $ $ $ $ $ $ $ 7 7 $ $ . H H _ ! + U x.` ` _ x.] U.x.r r r $ + r $ 7 r + $ 7 H q + 7 H ! I U K x., r K , . . r I 7 ] v.m.V.C.v.C._ r H 7 $ . + . . . . + 7 r . $ H $ . . + . + + r b._ _ W b.I x.                                                                                                                                                                                                                                                                                                                                                                                                    b.v.[ ! _ _ _ r + + + . . . 7 8 $ . 7 O . . . . . . + . $ r r U !.x.] ] V.c.I 7 c r $ + , c r , ] _ _ I I r $ $ I r 7 . $ 7 + + r $ H 7 $ J _ [ ] [ x.-.-.` . r b.I [ 7 $ 7 $ $ $ $ $ $ $ $ $ $ $ $ $ $ $ $ $ $ $ $ $ $ $ $ $ $ $ $ $ $ $ 7 H U H + _ H ^ _ _ I 7 7 I r                                           ",
"                                        x.7 $ $ r _ _ [ W H . 7 H _ x.$ . . $ . . . . . . . . . . + + . + + + . . . + + + . . . . . . $ + H I U H . x.[ -.v._ x.x.Z.x.r r r $ + 8 $ 7 H $ $ 7 r H $ 7 H U I I U x., r H , . . r U q x.V.v.v.m.c.HXx.7 H $ . + . . $ $ 7 + r 7 . $ H $ . . $ . . + r v._ I _ v.U x.                                                                                                                                                                                                                                                                                                                                                                                                    b.V._ _ _ I _ r + + + . . . 7 0 $ . r r $ 7 $ $ + . + . $ H $ H CX_ x.b.+.b._ 7 H r + . $ H 7 q x.! _ [ _ H $ $ H r $ + $ 8 + + r $ U 7 $ J _ [ ] ] x.] -.] + 7 x.I x.7 . + + + . . + . . . . . . . + . . . + . . . . . . . . . . . . + + r H U H $ ] [ _ _ _ U 7 * U f                                           ",
"                                        x.7 $ $ U _ I U H r + H U U U U + + . + . . + + + + . . . . . . . + . . . . . . . . + . + $ . 7 _ _ U H q . ` -.] x.-.m.b.U.x.r r H 7 . $ + 8 H $ O - r I $ 7 H K I _ I b.7 r H , . + c _ H v.A.m.v.V.v.CX[ r H $ . . + + 7 $ 7 + r 7 + 7 U $ . . $ . . + r x.I I _ b.U x.                                                                                                                                                                                                                                                                                                                                                                                                    x.b._ I _ I _ 7 . . + . . . 8 r $ . r r + 7 - $ + . . . $ H 7 H A.b.x._ v.C.-.r H r + . $ H , 7 c.K _ ] _ r $ $ H 7 $ + $ 7 + + r $ U 0 $ I C.[ ] -._ _ ` _ . 7 x.[ x.q . + + + . . . . . . . . . . . . . . + + . . + . . . + . + . . + $ _ I U H $ x.x._ _ I U 7 $ U H                                           ",
"                                        x.7 $ $ H I I _ _ H . r I H U _ x.[ _ _ I _ _ _ _ I I U _ _ _ _ _ [ _ _ _ [ _ I _ ] x.] ] ] x.b.[ H H U r . _ ] ] x.c.x.v.A.] 7 r U r + 7 + $ 7 + $ - 0 r + 7 U ! _ _ I v.7 r H , . + c I r ] v.x.c.m.c.VX] $ H $ + . . . . + . 7 r r . 7 U $ . . $ . . . r ] I U _ x.I x.                                                                                                                                                                                                                                                                                                                                                                                                    x.x._ J U _ _ r . + + + . . 7 r $ . r r $ . . . . . . . $ r $ _ ^.] v.x.b.C.-.q r r + . , H q $ b._ ` I _ r $ $ U 7 $ . 7 7 . $ r $ H r $ I U.] b.-.] _ -.-.. 7 I U _ T _ ] [ [ [ [ _ [ ] x.x.+.] [ [ [ _ I _ _ _ _ I I _ _ _ I _ _ _ [ [ _ H H H + _ _ _ [ _ U 7 $ U r                                           ",
"                                        x.7 $ + I _ I I I r . r r H H U _ [ I H H H H H H H U U H U H H H U H H H U H r H I I U I I H H I r 7 U q . U.v.x.x.m.V.v.S._ $ 7 H 7 $ 0 + $ 7 . O $ 7 r + 7 I _ ` _ ! c.7 r H , . . r I r -.Z.m.v.V.m.AXI $ x.$ . . + . O $ 7 r r r . $ H $ . . $ + . . H x._ U I +._ x.                                                                                                                                                                                                                                                                                                                                                                                                    b.v.[ H H [ [ r . + + . . . 7 r $ . r H r $ $ $ . + . . $ r 7 I AX[ v.v.x.V.-.q r r $ . , I r 7 Z._ [ ! _ r 7 $ _ 7 7 . 7 7 . $ 7 $ H r $ r | _ ] _ ] _ ] ` . q I _ _ ^ _ I U H U U U U _ _ I I I U H H H H H U U H H H U I U H U U H U U H r H r + _ [ _ [ ] _ 7 $ U r                                           ",
"                                        x.7 $ + H _ _ _ _ H . 7 7 7 H H _ r H H H H H H H H U U U I I U H U H H H H H H H U U U _ H U H r H H _ 7 . H ] ` -.b.b.b.v._ - 7 r 7 + 7 + $ 7 + $ $ 7 c $ 7 H ! _ _ _ c., r H , . . r K r x.U.m.x.v.v.CX_ $ I . + . + . 7 r U r r $ . $ J $ . . $ + + + H x._ I I ] _ x.                                                                                                                                                                                                                                                                                                                                                                                                    x.b.[ U U _ _ r . . + . . + 7 r $ . 7 8 7 H r 7 + + . + $ H 7 U Y.x.[ b.x.C.x.r r r $ . $ K 7 r G.U ! _ ! H $ $ W r $ . 7 7 . + r $ H r $ H [ I [ x.x.] x.[ + 7 H H H U U I U H U I I I _ I U U I U H H H H H H U U r r U I U H U H H H H H r H r $ x.] H _ x._ 7 $ H r                                           ",
"                                        x.q $ + C _ _ I I H + 7 7 7 7 r 7 f f 7 q r r r 7 7 0 7 7 r r r r r r 7 7 7 r r r 7 0 r K H U r r H 7 r $ $ V.` -.x.c.-.] v.x.7 7 H 7 . 7 + $ 7 . $ 7 r r $ , H I ^ I _ b.7 r H $ . . r _ c ] Z.v.x.v.v.^._ $ _ $ + . + + $ $ 7 7 - $ . 7 U $ . . @ . + + r ] _ I _ ] _ x.                                                                                                                                                                                                                                                                                                                                                                                                    ] x._ I _ _ _ r . + + + . . 7 r $ . $ $ 8 r 7 7 + $ . + $ H 7 U T.b.b._ x.V.-.7 r r $ . , H 7 7 v.I _ ! ! H $ $ U r $ + 7 r . . r $ I r $ _ v.H _ C.] ] x.I $ 7 H 7 r r H r r r r r H H H H r r H H r 7 7 r 7 7 r r 7 7 r r r 0 r r r r r r 7 r 7 $ x.] I I x._ 7 $ H r                                           ",
"                                        x.7 $ + H _ H _ U H . $ $ + $ $ $ $ $ . + $ $ $ $ + O $ $ $ 7 $ $ $ $ $ $ $ $ $ $ $ $ $ $ $ $ + $ $ $ $ + . v.] ] x.x.x.] U.[ 7 r H 7 + 7 . $ $ $ + 7 r r $ $ H _ _ _ _ V.7 r H , . . r I c _ V.v.b.-.v.CX_ - _ $ . . . . . O $ $ $ + . r I $ . . . . . + H -.H I I x._ x.                                                                                                                                                                                                                                                                                                                                                                                                    b.b._ _ I I ] 7 . . . . . . r r 7 . + $ $ $ $ + . . . . $ I 9 U !.[ x.[ x.V.[ q c r $ . $ H 7 7 c.I _ _ _ H 7 $ _ r $ . - 7 . + 7 $ [ r $ _ V.I _ x.-.[ ] x.$ + $ $ $ $ $ $ $ $ $ 7 $ $ $ $ 7 $ $ $ $ + $ $ $ $ + + + O + $ $ $ $ $ $ $ $ $ $ + + 7 ] ] _ _ x.[ 7 7 H f                                           ",
"                                        x.7 $ $ H _ H U I H . . . . . . . . . . . . . . . . . . . . . . . . . . . . . . . + + + . . + . . . . . + . ! x.] ] c.c.x.Y.[ 7 r H 7 + 7 . $ 7 $ + 7 r r $ $ H ! _ _ _ C.q r H $ . . H _ q ] V.v.c.v.m.AX_ O U $ + + + . . + @ + + + . 7 U $ . + . . . $ H -.I _ _ x.I x.                                                                                                                                                                                                                                                                                                                                                                                                    v.v._ _ I _ ] 7 . . . . . $ + r r O . + $ $ + . . . . + $ I 7 _ VX] x.x.x.v.` q H c $ . $ H 7 q V._ _ I I H 7 $ _ r 7 . $ 7 . $ r $ _ r 7 H _ H ] x.v.x.] x.$ . . . . . . . . + + . . . + . + . . . . . . . . . . . . . . . . . . . . . + . + . + $ x.x._ _ x._ 7 $ H H                                           ",
"                                        x.7 $ $ H _ I U I H + . $ $ $ 7 $ $ $ 7 7 7 7 7 7 7 7 7 r 7 7 r 7 0 r 7 7 7 7 7 7 r r 7 8 r 7 7 - $ $ $ . . Z.x.x.x.x.x.x.A.W 7 r H 7 $ 7 . $ r $ + $ r r $ , H I ! ! _ b.7 r K 2 . + H ` r V.Z.b.-.v.x.CX_ 7 _ $ . . . . . . . . . + . 7 H o . $ . . . $ H ] I I I [ H x.                                                                                                                                                                                                                                                                                                                                                                                                    b.x.H _ ] _ [ 7 . . + O O . r 7 $ $ . . . . . . . . . . $ U 7 _ CX] x.x.[ Z.3.r c r $ . $ H 7 7 m.I U U I f % + _ r $ . $ 7 . $ r $ _ r $ I x.I ] x.x.` ] x.. . $ $ 7 q q r r r r r 7 7 r H r 7 7 r 7 r 0 7 7 7 7 7 $ 7 7 7 r r 7 7 7 $ $ $ $ O $ $ x.] _ _ [ U 7 7 U r                                           ",
"                                        x.7 $ $ r _ I U U H + + 7 7 7 7 r q 7 7 7 7 r r r r r r 0 8 r r r r r r 7 r r r 0 r r r 7 r 7 7 7 9 0 r , . ! ] x.x.x.` ] A._ 7 7 r 7 + - . $ r O + $ r r $ , H I I I I x.$ r H 7 + + H -.r V.C.b.-.x.[ AX_ $ U $ + . . . . . . . . + + r r 7 + $ + . . . H ] I U _ b.U x.                                                                                                                                                                                                                                                                                                                                                                                                    V.V._ _ I _ _ 7 . . $ $ $ $ $ 7 H + 7 . . . . . . . . . $ H r U VXx.x.] [ U.x.r c r $ . $ H 7 $ c.H U I _ f $ + I 7 $ . $ 7 . . 7 $ I r $ U v._ _ ] x.] -.S.$ + 7 7 7 7 7 7 7 7 r H H H H H r r r r 7 r 0 r r r r 7 7 7 r r r r r r r r 7 r r 7 - $ x.[ I I _ H r 7 I r                                           ",
"                                        x.7 $ $ r I U U H H . + 7 r r 7 7 7 $ $ 7 - $ $ 7 7 $ $ $ $ 7 $ 7 $ 7 - * 7 7 7 7 7 7 7 7 7 7 $ 7 7 r r q + ` x.x.x.x.] ] U.] 0 7 H r $ $ . $ r + + $ r c $ $ c K U I U v.7 r c $ . $ H ] r -.v.v.v.c.] ^._ r [ $ . . . . . . + . . $ $ r 7 I q + + + . + H ] U H _ x.I x.                                                                                                                                                                                                                                                                                                                                                                                                    v.v._ I H _ _ 7 + . $ $ $ 7 [ r 7 . $ . + + . . . . + + % r $ H T.x.[ x.[ V.] q H c $ . $ H 7 7 b.I _ _ ! H 7 $ _ r $ . $ r . . 7 $ U r $ J [ I _ ] x.x._ ] . . q 7 7 r y 7 7 7 7 r r r r r $ r 7 7 7 $ 7 7 $ $ $ $ $ $ 7 % $ $ $ 7 7 r 0 q r r 7 $ x.[ _ I I H r 7 I r                                           ",
"                                        b.7 $ $ H I H U H I . + 7 f r 7 $ $ + $ $ $ $ $ + + + + . + + . @ + $ + + + $ $ + . + O $ $ $ . . . $ r 7 $ Z.-.] [ ] -.C.T.x.r 7 $ + . 7 . $ 7 $ O 7 H r $ $ c K U I U v.7 r c $ . + r I r [ V.V.m.v.c.CX_ $ U + + + . . . . . . . O $ 8 7 I H $ $ $ . $ r [ U H H _ H x.                                                                                                                                                                                                                                                                                                                                                                                                    x.[ H I _ I _ 7 + + $ $ 7 v.r $ $ $ $ . . . . . . . + + $ H r U CX[ V.b.b.v.` 7 r r $ . $ H 7 7 v.! _ _ ! H 7 $ _ r 7 . $ 0 . + 7 $ H r 7 U x.I I ] _ _ _ ] . $ r 7 $ @ @ $ $ $ $ $ $ $ $ $ . 7 $ + $ + $ $ $ $ $ O $ $ $ $ $ $ + + + $ 7 7 r r - + ] _ _ _ _ U r 7 H r                                           ",
"                                        x.7 $ $ H I J H U U . + $ 7 $ + + + $ r 7 7 7 7 r r 7 7 $ r 7 $ 7 r $ $ $ + + $ + + + + + + + + + . $ 7 r . r _ ` ] -.-.x.V._ r 7 7 $ $ 7 + 7 7 $ + 7 r r $ $ c K I I I x.$ r H $ . . r H r ] A.V.b.m.v.^._ 7 _ $ . . . . . . . . . + O + $ 7 7 $ $ + . . 7 _ U _ U ] _ x.                                                                                                                                                                                                                                                                                                                                                                                                    b.x._ _ I U W 7 . + $ $ 7 7 r 7 $ - . . . . . . . . + + $ H $ _ !.x.] x.x.V.] q r r + . , H q 7 v.I _ _ _ r 7 $ W 7 $ . $ 7 . $ 7 $ r r 7 H G.I I ] _ _ [ _ . . 7 7 $ + + + + + $ $ $ O $ + $ + + + O $ $ + + + + $ $ $ $ $ $ $ $ $ + + + $ 7 r $ . _ I U _ _ I r $ H H                                           ",
"                                        x.$ + + M U U H H H . + $ $ $ $ 7 r U x.v.x.[ b.Z.U.V.[ x.Z.v.V.A.Y.b.x.x.] [ ] ] [ _ [ I I _ [ [ H 7 $ 7 . -._ ] ] x.c.x.Z.] r 7 f 7 . $ + 8 7 $ + 7 0 q $ $ H U I ! _ x.7 r H $ . + r I q I v.v.x.C.b.VX_ 7 I $ $ $ . . . + + . . + $ + 7 $ 8 $ . . + + r _ H I H [ U x.                                                                                                                                                                                                                                                                                                                                                                                                    b.x.H U I I _ r . . + . 7 r $ $ $ . . . . . . + . . + + $ H r H T.] b._ x.v.[ q H r + . $ H 7 7 V._ _ ! _ H 7 + U 7 $ + $ 7 . + 7 $ r 0 $ I T._ _ _ x.] K _ . . $ 7 7 U ] ] [ [ ] x.x.+.] ] v.[ ] ] ] x.[ ] [ _ _ [ ] ] ] ] [ _ _ _ H 7 $ O $ r $ . _ I I U I _ r $ r H                                           ",
"                                        x.$ $ $ r _ I _ I H . + $ $ c 7 H H ` 8.] ` ! _ ` ` _ [ [ _ _ ` I _ ] ] _ [ ! _ ` _ _ ` I I ! ` b.-.H $ $ . b.-.[ ] x.x.b.Y.x.r 7 r $ + $ . 7 $ $ O 7 H H $ $ r H U I I x.7 7 H $ . . r K q v.Z.x.x.v.b.T.I 7 _ $ + . . . . + . . . # . + . $ $ . . . $ $ r [ _ _ U _ I x.                                                                                                                                                                                                                                                                                                                                                                                                    b.x.T U I W [ 0 . . . + $ $ 7 @ + . . . . . o . . . . . $ H r U Y.[ ] ] x.C.-.r H c $ + $ c 7 q V._ _ ! _ r 7 + _ 7 $ + $ 7 + . 7 $ U r 7 _ C.] [ ` I ` I ] . + . 7 [ [ ] x._ I [ I [ _ W I U U _ _ W _ I I _ ! ] _ ` / ` _ I _ ] ] I r H 8 H 7 + $ _ W ] _ _ [ 7 7 H r                                           ",
"                                        x.$ $ + 7 H H U I I + . $ r r K ` m.T.v.x.x.x.c.] ] x.m.v.] x.-.c.x.V.v.V.c.x.b.V.V.G.Z.A.m.T.!.CX!.-.H $ . x.[ [ -.v.x.A.Y.[ r r r $ $ 7 . 7 $ $ + - r r + $ H U I I U v.r 7 r $ . + r H r ` v.m.V.x.x.SX_ $ I $ . + . + r . . . . . . . . + . . . . $ r I _ I I _ b.I x.                                                                                                                                                                                                                                                                                                                                                                                                    b.x.I _ _ W _ r 8 $ . . + . + . + . . . . . $ $ $ . . . 7 c r I U.[ x.x.c.b._ q r c + . $ H 7 7 m.! _ ! ! r $ . U 7 $ . $ 7 . . 7 $ H r $ I U.[ x.` _ ] I -.+ + , H G.E.HXCX!.U.A.Z.!.U.U.U.v.T.V.A.C.C.A.A.U.Z.A.m.U.G.C.C.c.Z.C.v.Z.S.I H r r $ . [ _ _ _ _ _ 7 $ H r                                           ",
"                                        x.$ $ + U _ I I I I . + r c $ ` C.Z.Y.R.G.P.Y.R.Z.U.Y.A.Z.Z.V.C.V.T.Z.c.v.V.C.A.T.Y.!.~.!.~.:XFXCXT.C.` r + v.[ ` x.x.c.v.Y.] 7 7 H 7 . 7 . 7 7 $ + - r r $ $ H U I I U x.7 7 r $ . + r H r -.C.c.v.c.b.AXU $ U $ . $ $ $ r . + $ $ . . + + + . O + $ 7 U I _ _ H U b._ x.                                                                                                                                                                                                                                                                                                                                                                                                    V.m._ I U [ ! [ r 7 $ $ + . O + + . $ O . . $ 7 7 . . . $ ! 7 I DX-.b.x.x.v.` r H H $ + $ H 7 7 v.I _ I I r 7 + I 7 $ . $ 7 . . 7 $ H 7 $ H Z._ ] ] ] _ _ _ . 7 U C.U.E.E.SXCXCX^./.!.!.T.T.v.x.Y.!.!.T.Y.Z.V.S.P.Z.U.V.x.V.b.v.V.T.E.A.C.H r r 7 . _ I _ _ _ _ $ $ H r                                           ",
"                                        x.7 $ $ r I I _ _ U . 7 K , H ] -.C.U.U.T.A.G.C.m.C.U.S.V.V.G.U.U.A.U.T.v.!.!.Y.CXZX:XZXZXSXKXAX!.Y.G.V._ r ] ] -.] v.v.x.A.[ 7 r r $ + 7 . 7 7 $ O 7 r H $ $ r H U U U [ $ r H 7 . + H _ r ] C.v.V.b.-.!._ r H 7 . . + 7 $ . . $ 7 $ q 7 7 7 r $ r r f [ 7 U U H I ] I b.                                                                                                                                                                                                                                                                                                                                                                                                    b.] _ H U I I r _ U H + r r r r 7 7 $ 8 $ . . $ $ . . + $ c r ! U.x.x.x.c.C.-.r H H + + $ H 7 7 v.I ! I I r 7 $ _ 7 $ + $ 7 . . 7 $ H 7 - I V.-.[ ] ` _ _ _ + H x.U.~.~.VXKXSXDXCX^.^.VXVXCXCXY.T.Z.!.U.U.Z.P.Y.Y.Z.U.Y.P.Y.E.!.E.T.Y.Z.c._ 7 r H $ _ _ _ _ _ U $ $ H r                                           ",
"                                        x.7 $ $ H I U U I U 7 ] q 7 / / ` m.V.G.Y.m.R.E.T.V.Y.Y.Y.!.^.E.Y.Y.!.!.E.CXVXE.AXAXCXDXAXFXHXCX!.!.A.Y.v.r ] ! [ x.] x.] A.] 7 r r $ $ 7 + 7 r $ + 7 r H $ $ r H U U U [ 7 r H $ . + r H H x.v.m.v.x.b.!._ 7 H 7 $ . $ $ + . . q H $ I H U U _ $ I _ x.x.7 I K H I [ I v.                                                                                                                                                                                                                                                                                                                                                                                                    C.x.I H _ H U r ] ] W I f [ U U I I 7 H H $ . $ $ . . $ $ U r ! T.c.x.x.v.V.[ r c c + . , H 7 7 b.I ! I I r 7 $ _ 7 $ + $ 7 . . 7 $ H 7 7 I m.] -._ _ -._ ] . 7 E.A.E.^.!.HXAXCXZX^.ZX!.ZXZXAX!.T.!.T.T.U.Y.R.E.E.G.U.T.T.T.E.U.!.^.P.m._ [ H $ r H [ I _ _ _ H $ $ H H                                           ",
"                                        x.r $ $ r H U _ _ H . U + H I ] U.A.V.^.ZXE.^.E.Y.b.G.Y.Y.V.] c.x.V.Z.!.^.~.~.T.^.^.^.VXZXCXFX^.T.T.T.C.c 7 _ _ ] x.v.x.x.Y.b.7 r H 7 . 7 + 7 r + + 7 r r $ , H H I I U [ $ 7 H - + + 7 I r ] v.V.m.b.x.SX_ 7 [ 7 + . $ $ + . 7 H _ 7 x.] [ [ x.r V.Z.ZXc 7 H H H U ] [ Y.                                                                                                                                                                                                                                                                                                                                                                                                    T.V.I U U U r 7 ] CXv.x.$ A.V.x.v.x.7 ] T $ . $ 7 $ . $ $ x.7 I SXx.x.x.c.v._ r H H + . $ H 7 7 b.U ! I I r 7 O _ 7 $ + $ 7 . . - $ U 7 7 H !._ -.[ [ ] _ [ + , H ~.!.^.VX^.!.VXU.Y.^.x.T.!.U.Y.^.V._ ^.Y.V.v.C.!.!.T.R.T.T.!.R.!.!.Y.U.x._ H $ 7 7 [ ] _ _ _ H $ $ H H                                           ",
"                                        x.r $ $ H I I I _ U . U $ H H _ _ U K c H K ! H H r H r H K ! H U H U H I H I K H H U _ _ K _ !.^.~.C.c r q c.] ` ] ] ] V.Y.b.H H r - $ 7 + $ r + + 8 r r $ 7 H U U U U ] 7 r H 7 $ $ r I q x.Z.x.b.m.c.AXU 7 [ 7 + O 8 r + . _ v.x.[ ZXVX^.ZXT.I ZXVXT.H r r H H U U _                                                                                                                                                                                                                                                                                                                                                                                                         x.U _ H r H r I T.!.CXr FXCXVX/.1X0 U.n.H . 7 7 $ + $ $ I 7 U T.] -.c.x.m.[ r K H + . $ K r 7 b.U ! I I r 7 $ _ 7 $ + $ 7 . + $ $ I 7 7 _ :X[ -.x.] ! ` [ $ 7 r _ ^.E.ZXb.C.r 7 r 7 H r f H H r r H r r r H K H c c r r r ! U / [ H H b.H H $ 7 7 _ _ [ _ _ H 7 $ H H                                           ",
"                                        x.7 $ $ H I _ U I H . U $ H K -._ ! U r , q 7 , , $ $ $ $ , $ $ + $ $ 7 7 , , $ , q 7 H x.I I _ c.G.q H H r ] ] ] ] x.c.x.T.V.y r r 7 + 7 . O r . + 7 r r $ 7 H H U U U x.7 r r $ . + r U q _ v.v.C.b.x.ZXI 7 H 7 $ + $ $ + $ V.FXZ.A.KXZXAXKXAXb.PXLX] H r U I U -.[                                                                                                                                                                                                                                                                                                                                                                                                           !.] I H U U H U SXLXLXH PXFXFXFXLXI FXSX[ + $ $ . . $ - U 7 I !.-.x.c.x.m.` r H H + . , I r 7 c.I _ I I r 7 $ _ r $ . $ 7 . + 7 $ _ r 7 I x.I ] ` ] _ ] ] . q K H H VX] [ I _ H + + + $ $ 7 $ $ 7 $ $ 7 7 , $ , 7 $ $ $ 7 $ 7 7 r I K K U r 7 r 7 [ _ _ I _ H 7 * H r                                           ",
"                                        x.7 $ $ 7 I I U I H . I + 7 7 _ I U 7 + $ . $ $ + O . + . . . . . . + + $ + . . . + + 7 I K _ K ! _ r r H 7 b.] x.` -.-.] b.b.H r H 7 + 7 . $ 7 + + 7 r r $ $ H U U I U [ 7 r H $ . . r I q ] V.m.b.b.x.ZX_ 7 r 7 . . $ $ $ 7 v.Z.I J !.r _ U.x._ CXSXo.U r _ I _ x.                                                                                                                                                                                                                                                                                                                                                                                                              Y.x.H I I r H CX^.CX7 S.G.I f R.8 S.Z.] . . O . . + $ H r I !.] x.[ b.v.] q H r $ + $ K q $ x.! U _ I H 7 + _ r - . $ $ + . $ $ I 7 7 I V._ ` ] ` ] ] ` $ r H K H x._ _ _ I 8 . + . + + + + + . . . + . $ + + $ . . $ . $ + . $ q U H H r $ r 7 _ I _ I I H r $ I r                                           ",
"                                        x.7 $ $ C [ _ U U H . r . 7 7 _ _ H . . . + . . . . $ . . . . . . . . . . . . . . + . $ 7 r I I _ _ q r r 7 x.x.-.-.] -.] x.] H H H 7 $ 7 . $ 7 $ + 7 r H $ 7 r U H I H _ 7 7 H $ . + r I r [ m.v.x.c.-.C.H 7 U $ $ + . O O 0 U.!.r _ S.x.[ S.T I CXAXx.H H H [ x.T.                                                                                                                                                                                                                                                                                                                                                                                                                Y._ I H H H CX!.ZX7 _ | r I +.r [ T.U.+ + $ + . O $ I , I !.-.x.x.x.v.-.r H r + + $ r , r x.H _ K ! f 7 $ [ r - . $ 7 + . $ $ I 7 7 I C.[ ] ] _ _ ] [ $ r U K H x.I _ U r + . . + . . . . . . . . . . . . . . . . . . . . . $ . r _ H r 7 r $ H U I U I U 7 $ H r                                           ",
"                                        x.7 $ O U _ _ I I H . r . 7 $ _ I r . . . . + $ @ $ . . . + + + + + + + + $ + $ . + + . + $ H ! _ [ r c r 7 ] ] [ ] ] -.[ v._ H H r $ . 0 . $ 7 $ $ 7 r r $ $ H H _ H H _ 7 7 H $ . . r U r ] V.v.c.v.x.VX_ r _ + . + r H . r GXFXq (.GXCXFXGXV._ SXSX] r r r U C.                                                                                                                                                                                                                                                                                                                                                                                                                    V.I c r c ^.~.CX$ CXGXCXSXHXx.| GXAX7 $ r - . $ $ U q K U.b.x.[ v.v.] q c r + + $ U 7 $ b.I U I _ r 7 $ [ r $ . $ 7 + + - $ I 8 7 ! AX] ] _ _ ! ] [ $ r K K H x.U U 7 + . . . . $ . . . . . . + O $ + + + . . . . . . . 7 . $ r U I r $ 7 7 I I U U I I 7 7 H H                                           ",
"                                        x.- $ + U I U I I H . r . $ $ _ r $ . + o 7 r r $ 7 7 r f H H H H r r r H 7 r r r - - . . . $ H ^ ] r r H , [ _ ] ` ] ] U x.U 7 r H 7 . 7 . $ 7 + $ 7 r r . 7 H _ U H H ` 7 7 H $ . . 7 H q ] v.c.c.x.] T.H 7 _ $ + + 7 9 . 7 GXAX2 ^.KXVXHXKXV.I SXAX_ r r H b.                                                                                                                                                                                                                                                                                                                                                                                                                        V.H r r !.!.ZX2 ZXHXCXSXKXb.W FXDX$ $ r 7 . + $ H r U ^.] v.] x.v.] q c r + + $ K 7 r ] K _ ! U r 7 $ _ 7 $ . $ 7 + + 7 $ I 7 r ! v._ _ _ _ I ! [ $ r K K K c.I 7 . . $ O r 7 r r r r r r r r r H r H r 7 7 7 7 7 7 . . + . + 7 H 7 + r $ _ U _ I I W $ 7 J H                                           ",
"                                        x.7 $ O r I I U U U + q . $ $ I 7 . + $ 7 r U.[ ] [ [ _ [ [ ] ] ] [ [ _ _ x._ [ ] x.$ $ + . . r _ ] H H H , ` _ [ [ ] [ ] Z.[ H H H 7 . 7 . $ 7 + + 7 r r r 7 r $ $ r U [ 7 7 H $ + + 7 I q x.c.x.x.] [ !._ r H $ . . $ # . 7 ^.G.% v.K.A.V.Y.[ H Z.Z.[ H r _                                                                                                                                                                                                                                                                                                                                                                                                                           ZXK 7 r A.b.U.2 T.G.R.(.T.W y D.T.+ + $ $ . + $ K 7 ! Y.[ -.x.x.V.x.r H r + . $ H , 7 -.I $ q 7 H 7 + _ 7 $ . $ 7 + + $ $ U 7 7 ! C.x.] _ _ I _ [ $ r I U U b.I r . . + $ r C.b.b.x.x.x.] ] ] ] [ _ [ _ ! _ _ _ ] H 7 7 + . $ 7 _ 7 . 7 7 x._ _ I _ I $ $ U H                                           ",
"                                        x.7 $ $ r I I I I U $ H . 7 O U r + . $ r x.U I I U U U H H U U U H H H I _ _ _ _ Z.8 7 + + + H _ ] K I H 7 I ! I [ [ -._ v._ r r 0 - + 7 . $ 7 + + 7 r H . 7 U 7 C.$ I _ 7 7 H $ . . 7 _ q -.x.] x.] ] Z.H 7 H 7 . . $ * . 7 A.A.7 ] b.b.A.Y._ M C.A.[ r H I                                                                                                                                                                                                                                                                                                                                                                                                                             ` r H A.x.Z.7 A.S.A.A.b.T f A.b.$ O . $ . + 7 I q ! V.x.[ x.-.v.] r H r + . $ r r 7 -.` q ] r H 7 . I 7 $ . $ 7 + $ $ $ H $ 7 ! AXx.x.` _ _ ] _ + r I U U b.K 7 + . + H T.x._ _ I U H H U U U U r H H H U H I U _ H r . + . r f - $ 7 $ _ _ [ _ [ U 7 $ I r                                           ",
"                                        x.7 $ $ r I I _ _ I + U . 7 O W r . . $ [ x._ H [ 7 7 7 7 7 r r r r r r r H r _ x._ C.7 . . + c _ _ H K H 7 U I K [ [ x.x.V.[ f r 7 $ + 8 + $ 7 + $ 7 r r $ 7 r 7 r r H _ 7 7 r $ . . 7 K 7 I -.] ] x.] U.U 7 H $ $ $ + # . 7 x.| $ _ 3.[ | x.U J b.v._ H H [                                                                                                                                                                                                                                                                                                                                                                                                                             ` r r V.c.C.2 x.x.W W n.J 8 | ^ $ . . + . . $ K , I ZX] m.x._ x._ 7 H r + + , ! 7 q ` ! q c r H 7 . _ 7 $ . $ 7 + $ $ $ H $ - K v.! _ x.-.[ _ _ . r I H K b.K 7 + . 7 b.U _ [ H r r 7 r r r r 7 $ $ $ 7 r 7 U H H [ 7 + . 7 7 H $ + $ $ x._ _ _ ] U 7 7 _ r                                           ",
"                                        x.7 $ $ r _ _ I _ T + H + $ $ ] r . + $ I I _ x.+ . + . . . # O $ $ $ $ O + $ I ! _ _ r + . + c ` _ H H c , _ _ ` ] ] ] x.C.b.f 0 7 7 + 0 + $ 7 + $ 7 7 7 + 7 H _ H U H _ 7 7 H $ . + r K r I c.c.-.v.x.VXU $ _ $ . . $ # + + ] _ $ J J y ] | r r b.A._ r I _                                                                                                                                                                                                                                                                                                                                                                                                                             ` H H m.` x.$ ] I _ T I J - T M . . $ $ . + $ H , I :X-.x.` ] x._ 7 H r + . $ r 7 r -.! r I H H 7 $ _ 7 $ . $ 7 + $ $ $ H $ 7 U V._ [ x.-.-.` ` + r I J U m.I q . . 7 r ` I H 7 $ # + + . . . . . . . . . . H U P U 7 + . O 0 r 7 . 7 $ v._ _ _ ] I $ 7 I r                                           ",
"                                        x.7 $ $ H I I I _ U + r + 7 $ x.r . . $ _ U _ 7 . q 7 7 9 9 e C H J U K K e 9 o r ! ` r + . $ U ` _ H r c $ ! _ ! ] ] _ ] U.m.r q c 7 $ 7 @ 7 7 + + 7 r r + 7 r _ _ _ U _ 7 8 H - . . r H r _ b.b.[ x.c.U.U r I $ . . . . + @ _ H % J J r T _ r 7 [ v._ r _ _                                                                                                                                                                                                                                                                                                                                                                                                                             ] I H v._ T $ _ I I H U r 7 J H + . . . . + $ H 7 U Y.x.] _ x.c.` 7 H q + . 7 H 7 r x.! v.` [ r 7 $ H $ $ . $ $ . $ 7 $ I $ 7 ! U._ [ [ [ -.] ] + r K H U v.W ; . . 7 I _ C 4 + 7 H C C c e v x q , q r r 7 . x Q I 2 . . X y f $ + r $ x.[ _ _ _ _ 8 - _ H                                           ",
"                                        x.7 $ $ H I I _ _ U + H + 7 $ x.r + . O [ H r . , L c v z V b S S S D z A / / . o P ` q + . , K ] x.` H 7 $ x.! ` ` x._ [ T.x.q 7 H 7 + 7 + , 7 + + 7 r r + 7 r U H H U I $ 8 H - + + 7 I 7 [ V.-.x.x.-.E.! 7 U $ + . . . . . H q @ H M L I H 7 $ _ x.I r I [                                                                                                                                                                                                                                                                                                                                                                                                                             | T H b.I J + J H I J U 7 $ r H . . . . . + $ r , ! VX-.x.[ -.c.` 7 c 7 + + 7 ! 7 7 ] H I I I r 7 + I 7 $ + $ 7 . $ $ $ I 7 8 _ ~.I x.[ c.] ] -.$ q U H K v.W 8 X . q ! _ r # $ _ / 5 A h b b b l n z z c P $ # C K , . . % f _ 7 . 8 $ ] _ _ _ _ _ 7 7 _ H                                           ",
"                                        x.7 $ $ H I I _ I H . r $ 7 - x.r + . O [ U r . , c q b a.|..X|. X|.i.%.l D M . . H _ e + . , U ` _ H r q 7 m.` -.` x._ _ !.-.q r H 7 + 7 + , 7 + + 7 r r + 7 H U H r H x.- 8 H $ + + 8 c q [ x.] x.U ] DX] 7 U $ . . + + . + r q @ y r 7 % 7 $ $ ! x.I r I [                                                                                                                                                                                                                                                                                                                                                                                                                             ] ^ y x.U H . H 7 7 7 r $ @ 7 r . . . . . + - H r U U.] ` _ b.c.[ 7 c 7 + + 7 I $ r ] ! q ! ! H $ . _ $ $ . $ 7 + $ $ $ I 7 7 _ C._ -.] -.` b.-.$ q I K H m.! w . + r ^ _ q . q 8.v h %.p..X X|.a.a.%.h z K . . f H 2 + . 3 J I 7 . 7 $ [ W _ _ _ I 7 7 I H                                           ",
"                                        x.7 $ $ H _ _ _ _ H + H $ 7 $ x.r + . . [ U H . 7 r 7 b -XlXlXlXlXlXlXp.n v v @ @ U / e . . $ I [ I c H c , x.` -.` ` _ _ T.b.H c H q + 7 $ 7 7 + + 7 r r $ 7 H U H r H x.7 7 H 7 . . 0 H 7 -.v.` x._ ] Z.I H [ 7 + + + + . + q q . 7 7 % % r 7 O H ` H 7 I ]                                                                                                                                                                                                                                                                                                                                                                                                                             ] _ r ] H H @ U 7 $ $ 7 $ @ 7 8 . . + . . . 7 _ 7 I Y.` ` [ [ c.[ 7 M q + + 7 H 7 7 x.H I I _ H 7 + _ $ $ . $ 7 + $ $ $ I 7 7 ! ZX_ ] x.x.-.x.] $ 7 ! K H V.! v . + e I I 8 . O =.v h p.lXlXlXBXlX8X*Xh z x X X J H 4 . . 3 c H r $ 7 $ v.[ _ _ _ I 7 $ U H                                           ",
"                                        x.7 $ $ H _ _ _ _ U + H $ 7 $ x.0 . . . ] U H + q r q < f.-X-X-X$X-X*X5.h Z J & X I ' e . . $ H [ [ U c r $ x._ -.` _ _ ` Z.m.H H H q + 7 $ 7 7 @ @ , q r + $ 7 7 7 7 r r $ r H 7 . . r I 7 ] c.-.x.x.] ^.` r _ $ . . $ * + O 7 r $ q y w y H q + r _ H 7 _ ]                                                                                                                                                                                                                                                                                                                                                                                                                             ] _ r _ H r + I H r r r $ $ r $ . . O + . + 7 I 7 c T.! -._ _ x.` 7 H r + + , I r q 7 r c r q 7 $ $ U - $ + $ 7 . $ $ $ U 7 7 _ G.! _ x.` x.] ] $ q _ U H C.! e . . 5 P E 8 . ; J z h %.-X-X8X-X-XoXf.h v w % O U H 4 # + 5 x I H + 8 $ C.] _ _ _ U 7 7 U H                                           ",
"                                        x.7 $ $ H _ _ _ _ U + r 7 7 $ ] 8 . . . [ J r + , q 7 > j n n @.@.n b h < H H X . U ` 9 + + $ c ` _ H H c 7 V._ x.] [ _ -.V.m.H H c q . 7 + , 7 + + , 7 H $ + + $ $ + $ $ r I H $ . . r K r I [ c.x.] ` ~.I 7 _ r + . $ + . . $ 7 . . % 2 q q $ $ H _ H 7 _ ]                                                                                                                                                                                                                                                                                                                                                                                                                             ] _ 7 _ H r $ r 7 $ $ $ . + $ $ . + + + . + 7 H 7 r Z.! [ _ x.-._ 7 c q + + , I I c , $ q + $ $ $ $ H 7 $ . $ 7 . $ $ $ H 7 7 ! AX_ x._ [ ] ` -.$ r _ I I A.! 4 . . 5 P P 8 . O U q < h b @.@.2.2.n l < e q X O H K 4 # . > e K r + r $ x._ ! I _ U 7 7 I H                                           ",
"                                        x.7 $ $ H _ [ _ _ I $ r 7 7 $ ] 7 . . . U U r + 7 c r K z D D A v Z D 5 C H H O - U E 4 . . + H ] ! H ! r 7 v._ ] ] _ _ -.G.m.H H r q . 7 + , 7 + + , q r + $ $ 7 $ $ 7 7 r _ H O . + r I 7 ! c.] x.x._ m.U H I $ . . . . . . $ % @ . @ @ $ $ . $ H I r 8 W ]                                                                                                                                                                                                                                                                                                                                                                                                                             ] _ 7 _ H r $ 7 $ + $ $ . $ $ + . . . + . . 7 H + I T.` [ x.[ x.[ 7 c 7 + + , I U U c c q 7 r $ 7 $ U 7 $ . $ 8 . $ $ $ H $ 7 ` E.x.v.[ ] ] x.] + r ! K ! A.I 4 . . 7 K U 7 . O 0 $ I C D ~ :.*.D A 5 e r r O % H U 7 + . $ s I 7 $ r 7 ] _ _ _ _ I 7 $ U H                                           ",
"                                        x.7 $ $ 7 I _ _ _ I $ r q 7 $ o.7 . . . H I r + 7 c 7 c c e q q % $ % 7 q r C # 7 U / 7 . . + c ] [ H c r , ] ` ] x.` x.[ E.V.U H r q + q $ , 7 + + 7 q r . $ 7 r 7 r H r 7 r H $ + + 7 c 7 _ c.] x.` x.!.I 7 I 7 . . + . . . . + $ . $ @ $ + . $ H U H 7 I ]                                                                                                                                                                                                                                                                                                                                                                                                                             ] _ 7 _ H r $ . + $ $ $ . $ . + . . . . . . 7 H 7 K E.[ x._ ` m.x.q c 7 + + 7 H r + H r c r r 7 7 + H - $ . 7 7 . $ $ $ r $ 7 _ U.` ] ] x._ ` ] . c I H _ C.H - . . 2 J U 7 . 7 9 9 O * r r c q r r 9 9 s s O 7 J I 2 . . O U x.7 + 7 7 x.[ I ] ] _ 7 $ U H                                           ",
"                                        x.7 $ $ H _ _ _ _ I $ r $ 7 $ _ 7 . . . U _ 7 + 7 + $ + + + . . . . . . . + , , q Q -.7 . . $ H ] [ K H r $ [ ` -.-.-.] x.A.v.H H r 7 $ $ + 7 7 $ $ , r r + $ r H $ H r r + y H - . $ 7 H q I x.x.-.] ] T.I 7 U $ + . . . . . . . . . . . . . . $ H ] H 7 U ]                                                                                                                                                                                                                                                                                                                                                                                                                             [ _ r x.U H + . . . . . . . . . . . . . . . $ r 7 H b.K U ] c.c.] 7 r r + $ , U r $ r c H r I 7 $ + U 7 $ . $ - . + $ $ H $ 7 I V.` -.] x.] [ x.+ q ! H U v.U $ . . 7 M J % . $ . . . . . . . . + # . o O 4 7 $ I J % . . $ s r 7 . 7 $ ] _ _ o.] I $ + U r                                           ",
"                                        x.7 $ $ H _ [ [ _ H + r 7 7 + _ 7 . . . H I r . + + + . . . . . . . . . . @ + + , K ` q . . $ U b.c.I K c 7 ` ! ] ] -.x.b.T.Z.H r r 7 + , $ 7 7 $ $ , r H . + 7 r H [ H 7 $ r f $ . $ r H 7 _ ] ] ] ] ] U.U 7 H + $ $ . . . . . . . . + + . . . O r ] I $ H _                                                                                                                                                                                                                                                                                                                                                                                                                             ] r 7 x.U U + . + + + . . . . . . . . . . . $ H q H Y._ _ _ x.b.] q H c + + 7 K 7 . r r c.r H 7 $ $ I 7 $ . 7 7 . . $ $ U 7 $ H V.I ] -.-.x.-.-.+ q ! H K v._ $ . . 7 H U 2 . + . . . . . . . . . . . # $ O $ $ I J % . . O r H 7 . 7 $ ] ] x._ _ _ r $ U r                                           ",
"                                        x.7 $ $ U _ I I I U + r 7 $ + _ 7 . . . U U r . + 7 7 $ - - 8 $ 7 7 7 7 $ 7 $ + , K ! q . . $ c ] [ H K 7 7 ] _ x.-.` -.v.U.V.H H H q $ , $ 7 7 + $ , r r + $ $ 7 $ 7 7 $ + 7 r $ . . 7 H 7 -.x.x.] -.x.Z.U r U $ + . . o . . . + $ $ $ $ $ $ $ 7 r ! H $ H _                                                                                                                                                                                                                                                                                                                                                                                                                             ] H $ ] H r 7 $ $ $ $ $ $ $ $ . . + + . . . $ U 7 r !.[ -._ -.x.` 7 H H $ + 7 H 7 . 7 7 r 7 c $ $ $ _ 7 $ . $ 7 . . $ 7 I 7 7 I Z.I ] x.[ -.] [ + 7 I K H -.U $ . . 4 K I 4 . @ $ % 2 2 , , , 7 7 7 7 q w , + 4 I H O . . $ s _ $ . r q C._ ] _ _ _ r 7 H r                                           ",
"                                        x.7 $ $ I I H H U U $ H $ $ + [ 7 . . . I U r . $ c H r y 0 H r M M M r r r - O $ H ! w + + $ r ` _ c K q q ] _ ] [ ` -.x.A.v.K I K r $ $ + 7 7 + + , r r . H I H H I I I r r r $ + . 7 c , -.x.x.x.] ] VX_ 7 H $ $ . . o + + + $ 7 r r H r r 7 7 r ! H 7 U [                                                                                                                                                                                                                                                                                                                                                                                                                             ] I 7 [ H 7 H H H r r r 7 $ + + . + + . . . $ q , K !.` ] ] x.x._ 7 r r $ + , r , I r H U r H J r $ U 7 $ . $ 7 . . $ 7 I 7 7 K C.U [ x.-.x.c.[ + 7 U H H ] H $ . . 4 K E 4 . + q y 8 7 q r r r H H y y N 7 . = P C o . . $ f H 7 . 7 $ x._ [ [ ] _ r $ r r                                           ",
"                                        x.7 $ $ H I I U U H + H $ $ $ | r . . . I I r . $ $ 7 $ $ $ q , 3 2 2 $ $ O O o O H [ r + . $ H x.-.H c 7 7 x.x.x.] [ _ ] Y.G.! U U r , $ + 7 7 + + , r 7 + 7 - r H r H r $ 7 7 + . . 7 7 7 ] x.x.m.-._ Z.c - H $ + . + $ + . . o O * 7 . O $ 7 s H _ r 7 U [                                                                                                                                                                                                                                                                                                                                                                                                                             x.H 7 x.r H r $ $ # O 7 7 * $ + . + + . . + $ r 7 K !.[ x.-.[ x._ 7 r r $ . , H , + H K r r r H 7 + H $ $ . 7 8 . + $ 7 I 7 7 K V.I ` x.x.-.b.[ $ 7 H H K c.I % X . 8 H I 4 . . 2 $ @ @ O O O O ; - - $ 7 $ . $ I H * . . % i H 7 $ $ $ U.[ _ [ +.[ r 7 H H                                           ",
"                                        x.7 $ - H U I H H H . H $ $ $ ] r . . . K I r + + . . . . . + . . + . . . . o . o I ] r . . $ K x.] H r r , -.` ] ] x.] x.G.C.I U H r , $ . , 7 + + , r f . $ $ $ $ + + . . 7 H $ + . 7 q 7 ` c.c.v.] ] !.! 7 H O $ + . . . . + O 7 r s r C 9 $ 7 r I r 7 U [                                                                                                                                                                                                                                                                                                                                                                                                                             ] U 7 _ r r 7 r r r r r 7 7 * + . . . . . + $ c q H !.] v.] ] x._ 7 r r + . 7 H 7 + , + 7 $ 7 + + + I 7 $ . $ 7 . + $ 7 I 7 7 _ A.` [ ] ] _ ] ! + 7 H r K v._ % . . 7 J U * . + $ . . X . . . . . . . . + . . 7 _ U 2 . . % H H 7 . 7 $ ] _ U I [ _ r 7 H H                                           ",
"                                        x.7 $ $ H H U r r H . H $ $ $ [ q . . . K U r . $ $ $ $ , 7 7 = O * O $ $ @ , + $ ! ` r + . 7 I ` _ H H $ $ ] [ x.x.-.` c.V.x.K U c 7 7 + + 7 7 + + , q 8 $ $ 7 H 7 . r r $ r r $ . $ r H H x.x.x.-._ ] C.c % H + . . . . . . . . . . o $ 4 $ $ $ $ r 7 r I [                                                                                                                                                                                                                                                                                                                                                                                                                             ] ` e 7 7 + O + $ * 4 O o . . + . . . . + + $ 7 q I T.` ] ] b.x.] H H r , . , H q $ _ H . q H 7 7 $ _ 7 $ . $ 7 . + $ 7 I 0 7 _ G.` ] [ [ ] ` I . 7 K r H v.! 4 . . 7 H I % . $ e $ , 7 $ $ $ $ 2 $ 4 # 4 + . q W T 2 . . 4 P c.7 . $ 7 [ U _ U _ _ r 7 r H                                           ",
"                                        x.$ + + r U [ U H H . H 7 7 $ _ q + . . I K r . $ H 0 H H H H s 9 f s r r M v + , ! _ r + . , U _ _ H r $ 7 ] _ v.b.-.] c.G.V.U H c q 7 + + 7 7 + + $ q 7 $ $ 7 r 7 + 7 r + r r $ + 7 H I v.U.x.-.x.x.` ^.I $ H $ + . . . . . . . + O * 7 9 7 $ + . $ 4 r I [                                                                                                                                                                                                                                                                                                                                                                                                                             b.! s # # + . $ 4 7 7 7 O . . + . . . . + + $ c 7 H V.] ] x.] c.V.-.I c r $ + H 7 $ _ c + 7 c 7 $ $ I r 7 . $ r + + $ 7 _ r r _ Y.] x.[ ` x._ ` . 7 K c U V._ 6 . . 7 H I % . $ I C e r r M q w K c c e P 7 . $ T I 7 . . 4 Z I r $ 7 $ U _ _ _ _ _ 7 $ 7 r                                           ",
"                                        -.$ . , K I K I r c . M $ - $ ] 7 + . . [ T 7 . $ $ $ $ $ $ $ $ $ $ O $ , $ $ + $ _ v.7 . . $ I ] _ K I $ , _ ] c.c.-.x.[ Y.x.U H r 7 7 7 + , 7 $ + $ 7 7 $ , 7 c q . c H $ 7 r $ 7 H K [ U.b.] _ x.x.[ b.U r U $ . + . . . . $ + 7 . + + $ O + . H H $ r U [                                                                                                                                                                                                                                                                                                                                                                                                                             x._ 7 $ f r . $ + + $ + $ $ + $ . . . . . + 7 H 7 I :X] x.] x.x.] C.I H c q $ r r $ U K + 7 H 7 $ $ H 7 $ . $ $ + . 7 7 U r r _ Z.-.x.] ! K -.-.. q I J U x.I 7 . . $ _ U 2 . $ r $ $ 7 7 $ $ , $ $ $ $ $ o . $ I [ 7 . o 4 C U 7 + 7 7 [ _ I I I I U $ O 7 T.                                        ",
"                                        _ + $ ] _ ! I ! U H + c $ $ $ _ 7 . . . [ I 7 . + . . . . . . . . . . . . . + . $ I ] r + . + I x.` ! H $ , [ _ x.x.] -.] T.c.H $ $ , $ q + $ 7 + + $ q 7 $ , 7 c q + c c + r , $ q H _ A.m.-.] ] x._ x.U.H $ U 7 . . . . . + 7 $ 7 O $ + . $ . + r H $ r U [                                                                                                                                                                                                                                                                                                                                                                                                                             o._ 7 7 H H + + $ . + $ . H $ $ . . . . . + 7 r r K T.x.x.] c._ x.` m.I H H 7 7 7 $ K H + 7 c 7 $ + H 7 $ . $ 7 . . 7 . $ + r I V.x.V.-.] [ ] _ . 7 K c U x.I 7 . . 7 _ U 7 . . . . + . . + . . . . . . + + . $ U I 7 . . $ H I 7 + 7 $ H H U _ U U ] H 7 $ Z.                                        ",
"                                        r 7 H _ K H K U I r . r $ $ $ _ 7 . . . I U 7 . $ - $ $ $ 7 7 7 7 r r 7 7 7 7 + $ U _ r . . $ ! -._ ! r 7 $ ] I x.c.-.x.v.T.] r . 7 r c q + $ , + + $ 7 q # $ 7 c e + r r + , $ $ H U b.C.x.x.x.x.x._ -.x.H q r + O $ . . . . $ + 7 7 U U H U [ . H U $ 7 H [                                                                                                                                                                                                                                                                                                                                                                                                                             ] I 7 7 H H $ U.I H H _ - $ . + . . . . + + 7 K 7 H [ ` _ -.` -._ -.x.v.H K H , $ + H r $ q c 7 $ + H 7 $ . $ $ . + r 7 r 7 r I U.-.[ ] _ K ` _ . q K c K x.H $ . . 7 I I 7 . $ 7 7 7 $ $ 7 7 7 7 7 7 $ $ $ . $ I U 7 + . - I I 8 + 7 $ H H U I H H _ _ I 7 _                                         ",
"                                        $ H ! r r r H K K c . r $ $ $ _ 7 . . . U U r . $ 7 0 7 7 r r r r H H H r H r . $ U _ r . . $ I [ _ I r , + -.! x.x.[ x.-.!._ , H ` 7 $ 7 + $ 7 $ + $ 7 q + $ 7 c q + r r + . 7 r U x.V.] x.c.x.x.] -._ ^.I $ K 7 . . . . . + $ + $ $ f 7 r H H + 7 r $ 7 H _                                                                                                                                                                                                                                                                                                                                                                                                                             ] U 7 $ H H + H r 7 H 7 $ $ $ + . . . . + + 7 H $ H Y._ K ! x.-.-._ x.Z.[ U H q , . c r $ q H 7 $ $ H 7 $ . $ 7 + + $ $ H 7 $ r b._ ` _ ] [ _ _ + r U c H x.H $ . . 7 U _ 7 . $ H H r r r r r r r r r r r 7 . $ [ I $ + . 7 U U 8 + 7 7 _ I U H H H r I _ H H                                         ",
"                                        K ! H H r H H K r c . r $ $ + [ 7 . . . I I r . $ $ 7 7 $ $ 7 7 7 7 7 7 7 7 7 . $ H ] 7 + . $ H [ -.I H r $ x.] v.x._ [ x.C.x.-.r 7 7 7 , . $ 7 $ + $ 7 e + $ 7 r 7 + e 7 + $ r _ [ V.c.` [ -.-.] _ x.] A.H 7 H $ @ $ . . . + $ + + $ r y r r r . r I $ $ H _                                                                                                                                                                                                                                                                                                                                                                                                                             ] U 7 - U r + H 7 H 7 r + + + $ . . . . + $ 7 H 7 H G.` x.] _ ] _ x.-.c.A.U I H 7 . r r $ 7 c 7 $ $ U 7 $ + $ 7 . . 7 $ H r I I Z._ _ _ ` _ K ! . 7 K c H -.H O . . 7 I _ 7 . $ r 7 7 7 7 - 7 $ $ $ $ $ - $ . $ _ U $ . . 7 H U 7 . $ 7 I I U I I I c I I _ ]                                         ",
"                                        I U H H c K H H 7 r . r $ $ . [ 7 . . . _ U 7 + $ . . . . . . . . . . . . . . + $ H ] 7 + . $ c ] x.I I c $ x.] x.[ _ ] ` E.v.r , H 7 7 7 . $ 7 + + , r q . $ 7 r 7 + q 7 , q H ! V.v.] -._ -.] [ ` ] ] ~.U 7 f $ $ $ . . . . + . + 7 H r _ r r + H r $ 7 H [                                                                                                                                                                                                                                                                                                                                                                                                                             ] U 7 $ U r + U 8 b.$ r $ $ + $ . . . . . + 7 r 7 H v.] I [ x.] [ x.] -.-.V.I I r $ q c $ , r $ $ + H 7 $ . $ 7 . + 7 $ r $ r U G.I K _ ` _ _ ! . , H c c x.H $ . . 7 I _ 7 . $ . . . . . . . . . + . . . + . $ H H $ + . $ H I $ . 7 7 H I _ U I I U H U H I                                         ",
"                                        r r K K K I K K H H + r $ $ + _ 7 . . . _ U e . $ + . . . . . . . . . . . . . . % H _ r . . $ H ] ] K ! r . ` ] _ _ ` _ _ U.c.r 7 r , , 7 . $ , + + , r q . , 7 e 7 + q 7 q r I -.m.] ] ] ] ` ] ] [ -.[ !.I r I $ . . . . . + $ + + $ 7 O 7 r 7 + - U $ 7 H ]                                                                                                                                                                                                                                                                                                                                                                                                                             ] H 7 $ H r + H $ . 0 r $ $ . O . . . . . + $ r q H V.[ c.] I -.[ x.] _ -.m.] I H 7 , c $ 7 r $ $ + H $ $ . $ 7 . . $ $ H 7 7 c v.! ] _ ` ] U _ + 7 H c H x.c $ . . 7 I I $ . $ + . + . . + . . . . . . + + . $ H H 7 + . $ r I 7 + 7 7 H _ ] H _ I I U _ H r ^.                                      ",
"                                        K r q H I U I I ! H . 7 $ $ + _ 7 . . . _ _ r . $ H U H I _ _ U U I U H H U H . 7 I I 7 . + + c x.` c H r $ x.v.-.] ] I C.Y.x.r q H 7 , 7 . $ 7 + + $ 7 q . , q e 7 + e , 7 H I T.` [ [ ] ] H [ ] U x.] ^.I r H $ + + . . . . . . . $ r r H r r . 7 H $ 7 H ]                                                                                                                                                                                                                                                                                                                                                                                                                             ] H 7 @ H 7 . H r r 0 7 + $ . + . . . . . + $ H $ K U.] [ x.` _ ` ` _ x.-.-.x.! I r $ r $ 7 r $ O . r $ $ + $ 7 . + 7 $ H $ 7 r C._ ] -.] [ [ ! + 7 H r K v.H $ . . 7 U U $ . $ I I U U I U I W I U U U H r + 7 H U $ . + $ 7 U 7 $ 7 7 H _ _ I I I H H H H M !.                                      ",
"                                        H H H H I K I I K H . r $ $ O _ $ . . . _ H 7 . $ r r r r r r 7 7 7 7 7 7 7 7 + $ H _ 7 . . $ H c.[ c c 7 $ x.-.-.-.[ I I U.c.H , H , , 7 + $ 7 + $ , 7 7 . $ 7 r 7 + 7 $ , -.m.] _ _ ] ` ] ] ] ] [ ` ` v._ r U $ . + . . . . + . + $ 7 r r 7 r . 7 r $ 7 r ]                                                                                                                                                                                                                                                                                                                                                                                                                             ] r $ 7 7 7 . H 7 H 7 r . $ + + . . . . . . $ H 7 r C.] ] [ -.] ] ` [ [ ] x.x.c.H 7 + c + 7 r $ O + r $ $ . $ 7 . + 7 $ H 7 r H U._ I _ _ _ ] I $ 7 c H K x.c $ + . 7 r I 7 . $ r r 7 7 7 r 7 r r r r r H 7 + $ U H $ + . + r H 7 $ 7 $ [ _ _ U _ I U I H H J T.                                      ",
"                                        H H H H U H H ! U I . H $ $ $ _ $ . . . H H r . + + . . . . . . . . . . . . + + $ H _ 7 $ . $ H C.b.I r , + x.] ] ] ` I ! Z.] c 7 7 7 7 7 + , 7 + + , 7 7 . $ 7 r 7 + 7 + $ I c.` ` ` -.[ _ _ ` ] ] ` ` +._ 7 7 + $ . . . . . + + + $ 7 + $ $ 7 . 7 r $ + r ]                                                                                                                                                                                                                                                                                                                                                                                                                             [ H $ $ r 0 + r $ $ + 7 $ $ . + . . . . . . $ q $ P x.-._ ] U ] ] ` [ ` ] x.x.x.H 7 . r + 7 q $ $ + r $ $ . $ 7 . + 7 $ H $ 7 H G._ ! ` [ ` ] I $ q H H K x.H $ . . 7 H U $ . . + . . . . . . . . + . . + + . $ U H $ . . $ r H 7 $ 7 7 [ _ [ I _ U K U H U H T.                                      ",
"                                        H H H H K K H _ K I + c $ $ $ I $ . . . H H r . . . . . . . . . . . . . . . . . $ H _ 7 . . 7 r ] I K H $ . -.] ` ` _ I ` U.[ r 7 7 7 $ 7 . $ , + + , q 7 . $ 7 r 7 . 7 + $ r -._ ` [ ] ` _ ! _ ] [ ` ] [ H 7 H $ . . . . . . + + + @ $ $ * 4 7 + 7 7 . $ H ]                                                                                                                                                                                                                                                                                                                                                                                                                             [ H $ + 7 $ . r 7 $ $ 7 + + . . . . . . . . $ q , H b._ _ [ I _ _ _ _ ! ! ` ` ] c $ . r . , 7 $ $ + f 7 $ . $ 7 . . 7 $ H $ 7 H c.I _ ` _ I _ I $ q H H H x.I 7 . . 7 I H $ . + O . . . . . . . . . . . . $ + $ H H $ . . $ f H 7 + 7 $ U U _ _ _ U H U H H K !.                                      ",
"                                        H H H H H I I I H U + q $ $ O I $ . . . H H 7 . $ 7 r 7 r 7 7 7 7 7 7 7 7 7 7 . + H _ 7 + . , r ` I c q $ . -.` _ _ _ I _ Y.] c $ H , $ $ . $ , + + , r 7 + $ 7 r 7 + 7 + 7 r ] _ _ ` _ _ ` ` [ ] ] ] x.!.H $ I $ . + . . . . . + + + $ $ $ $ $ . $ 7 + $ 7 x.                                                                                                                                                                                                                                                                                                                                                                                                                            b.r $ $ 7 $ $ 7 $ 7 7 + . + O . . . . . . . $ K , H m.[ _ -.] ` [ ` [ _ _ ` _ ` r $ . r . , q $ $ + f 7 $ . $ 8 . . $ + H $ 7 K E.I ! ] I _ _ U $ q H H H x.I $ . . 7 _ H $ . + r 0 $ $ 7 7 $ $ $ 7 7 7 7 $ . $ H H $ . . $ r _ r $ 7 7 U I _ _ I U I U H K U !.                                      ",
"                                        U H H K c H I I U H + r + $ + _ $ . . . U H 7 . $ r r r r r r r r r r r H r 7 + $ H _ 7 + . + H -.] H 7 $ . ] _ _ _ ` ! I A.-.r $ H $ $ , . $ 7 + + $ 7 7 + $ 7 e 7 . 4 + 7 H ` ` K ` ! _ ] ] [ ] -.] -.!.H $ H + O $ . . . . . . . + O + $ + O . $ 7 + + U                                                                                                                                                                                                                                                                                                                                                                                                                                 U . $ $ + . $ $ $ $ + . . . . . . . . + + 7 c 7 q T.[ x._ _ ! _ _ [ _ _ _ _ _ r $ . q + , 7 $ $ + f 7 $ . $ - . . $ + H 7 7 K v.U _ _ I K _ K $ 7 H H H -.I $ . . - U U 7 . $ r H r 7 r r r 7 7 r r H r 7 . $ H H $ . . $ r H 7 + $ $ H I I I U I I U U U _ !.                                      ",
"                                        I H H K H H I I I q + c + $ + _ $ + . . H H 7 . + $ $ $ $ $ $ $ $ $ $ $ $ $ $ + $ H _ 7 . . $ U ] [ c c , . ] _ _ _ [ _ _ m.c.r 7 r + $ $ . $ 7 + + $ 7 7 + $ 4 7 , . , + 7 H _ ` H ` _ ` ] ` _ [ ] [ _ V.H 7 H $ + . . . . . . . . . . + $ + + . + $ . $ C.                                                                                                                                                                                                                                                                                                                                                                                                                                b.$ $ $ O . $ + + O + . . . . . . . . . + 7 I 7 r m.I _ ] [ I ! _ ] ` _ [ _ _ r $ + 7 + $ 7 $ $ + H 7 $ . $ $ . . $ + H $ 7 ! x.! -._ _ I _ K $ 7 H H H x.K @ . . - H I 7 . $ $ $ $ $ $ $ $ $ $ $ $ $ 7 $ + $ H H $ . . $ r H 7 + 7 7 I _ _ I H U U H U U _ !.                                      ",
"                                      !.U H H K H H K I U q + r + $ + I $ . . . H r 7 . . . . . . . . . . . . . . . . . $ H _ 7 . . $ I b.] r r 7 + ] _ I ! _ _ ] A.v.r r q $ $ $ . $ , + + $ 7 7 + $ , 7 , . $ . 7 H _ ] I [ [ ] ] ` _ [ [ _ ! U.H $ r $ + . . . . . . . . . . . . . . . + $ . . T.                                                                                                                                                                                                                                                                                                                                                                                                                                x.. . + O . . . . . . . + . . . . . . . . $ r , r G.I [ _ I K I ! _ ! I _ _ _ c $ + 7 . $ 7 $ $ + H 7 $ . $ 7 . . $ + H $ 7 U ^.U H _ I _ I H $ 7 H H H -.H $ . . $ H U 7 . . . . . . . . . . . . . . . . . $ U H $ . . $ f H $ + 7 8 H U U I H K K H U U U !.                                      ",
"                                      E.I K H U q K K K c c $ r + $ $ I $ . . . H r 7 . + O + + + + $ $ $ $ $ $ + $ $ . $ U _ 7 + . + r -._ r H 7 + ] _ U U ! ! ] Y.c.r 7 r 7 $ 7 + $ , + + $ 7 7 + # $ 7 , . , . 7 H _ ] ` ] ] -.x.-.] ] _ _ _ V.7 7 H + + . . + $ $ $ O + + + + O + + $ $ 7 O + !.                                                                                                                                                                                                                                                                                                                                                                                                                                x.. $ $ $ $ $ + $ + + + $ . $ @ O . . . + 7 H $ r G.I _ _ _ _ ` ` ` ! I _ _ _ r $ + 7 + $ 7 $ $ + f 7 $ . $ r . . $ + r $ q U x.I _ _ [ ! U H $ 7 r r H ] H $ . . $ H U - . + $ $ $ $ + $ $ $ $ $ $ $ $ $ . $ I U $ + . $ U I 7 + 7 7 r U I I H U U U ! U H !.                                      ",
"                                      T.U H H H H H H r r H $ 7 + $ $ I $ . . . f r 7 + + - r $ 7 0 7 7 r H 0 7 r r $ + $ H U $ + . $ f T I r H 7 + ] _ _ _ ! _ _ V.[ r q q $ $ + + $ 7 + $ $ 7 7 . + 7 7 $ O $ . 7 r [ _ [ [ ] 0 r r 7 7 x._ _ b.r $ r + + . . . + $ . $ . $ $ $ 7 O $ $ $ 7 $ 7 !.                                                                                                                                                                                                                                                                                                                                                                                                                                b.$ + $ $ $ $ $ + $ $ . $ . $ O + . . . + $ r $ r v.I _ [ 8 r 7 7 7 _ U ! ! ! 9 $ . $ + . 7 $ . + H $ $ + + 7 . . $ $ r $ 7 I E._ ` _ _ ` U K + q H H r ] H $ . . $ H r $ + $ H 7 7 7 7 7 r 7 r r r r r $ . $ H H $ + + + H H 7 . 7 $ H H I _ J H H H H H U !.                                      ",
"                                      T.H H H U H H H H r r + r . $ $ _ 7 + . . I r $ . $ 8 U x.H H H U I _ I I I x.7 . $ H I $ + . $ H _ U c r 7 + I _ _ _ _ _ _ C.-.r 7 q $ $ $ . $ $ + + , 7 7 7 + + 7 $ . $ $ - r _ _ _ _ I x.] x.x.V.r _ U b.r $ H O . . . . + O + . . + $ O + $ $ . + $ H 7 ^.                                                                                                                                                                                                                                                                                                                                                                                                                                x.H $ $ . + . . . + $ . . $ + . . . . . + $ r $ H v._ _ H _ v._ v.U.r _ [ H ! r $ . $ + . $ + $ $ 7 $ 7 + + - + . $ + 7 $ 0 I V._ [ I _ ` I I + 7 r H c [ c $ . . $ U U 7 . 7 I I _ _ I H H I _ U U _ U $ . $ H H $ . + $ H r 7 + 7 7 I I U _ H H H H r H H !.                                      ",
"                                      T.H H H H H H H H r r + r + $ $ _ % . . . H H r . $ 7 $ $ + $ 7 7 7 r 7 7 - - . $ 7 H I $ . + $ U _ H H H q $ I _ I H ` -.` C.x.r , r $ $ $ . $ , $ + 7 , 7 r $ . $ $ + $ . + r U I _ _ 7 H _ _ I _ $ [ U v.r 7 H + . . + + + 7 7 + $ $ 7 7 7 $ $ 7 7 H H 7 ^.                                                                                                                                                                                                                                                                                                                                                                                                                                b.r H 7 7 $ r 7 % $ 7 + + $ 7 $ + + . . . $ r . H V.I _ r I ] [ [ I r _ H I I 7 $ . $ + . $ . r 7 8 $ $ . $ 8 + . $ $ r $ 7 ! v._ _ ! _ ! ] I + 7 c H H ] H $ . . $ H H 7 . $ 7 $ $ $ $ $ 7 7 7 $ $ $ 7 . . $ H U $ . + $ r f 7 + 7 7 I I U H r H H H H H H !.                                      ",
"                                      T.H H H H H H r H r H + r + $ $ I $ . . + H r r . $ 7 . . . + $ + + $ . . . . $ $ . r U % . + $ U _ U H H r $ ! [ ] _ _ ! ] C.x.r 7 r $ $ $ . $ 7 $ + 7 7 7 7 0 $ . + $ $ $ $ 7 r r I _ r r U U U H r _ _ b.r $ r + + . $ $ 7 7 [ 7 x.U [ _ [ H C.W v.V.H $ ^.                                                                                                                                                                                                                                                                                                                                                                                                                                b.7 v.] x.r x._ U U _ 7 I 7 r 7 $ + . . . $ r $ r C._ _ H r U _ U _ 7 I U 7 I 7 + . $ $ + + 7 r 7 7 7 $ . $ 7 + . $ % r $ $ H x.! I ! _ U ] I $ q H H H ] K $ . . 7 H r 7 . $ + . . . . + . + . . + . + $ + $ H H $ . + $ r I 7 . 7 $ H U I H H U H H H H r !.                                      ",
"                                      T.H H H H H H H H r H $ r . $ $ _ $ . . + U H U $ + $ $ $ + $ $ $ $ $ + $ + + $ . 7 H H 7 $ . $ H _ _ c r q + [ ] ] -._ _ -.V.-.r q r + $ $ . $ 7 . + 7 7 7 7 r 7 $ + $ $ . $ r U r I I 7 U H I H I r U _ V.H $ r . . . O $ + - r + r - 7 r H + 7 7 7 U r $                                                                                                                                                                                                                                                                                                                                                                                                                                   x.7 U O - + H 7 7 7 7 + r . 0 $ . + . . . $ $ 2 7 x._ [ r H _ ] U U 7 _ I 7 _ 8 $ + $ . + $ r 7 $ 7 $ $ . $ 7 + . $ $ 7 $ $ H ] _ ` ! _ ` _ I + q c H c ] H $ . + $ H H r . $ $ $ $ $ + $ + $ + $ 7 + $ @ . r H H $ . . $ r U 7 + 7 7 H H I U H H H H U U H !.                                      ",
"                                      T.U H H H H H H H H U $ r . $ $ _ - + . + H H I r $ + . . . . + . . . . . + . . 7 I H I $ + . $ H _ _ r r 7 $ -._ U _ _ x.] m.] c r r $ $ + + @ 7 $ $ $ $ 7 r 7 7 r $ . . . $ 7 H 7 H H r r U I H H r _ I C.H 7 r . . . + + + + 7 . 7 $ 7 $ $ $ 7 $ r r r $                                                                                                                                                                                                                                                                                                                                                                                                                                   x.7 H 7 $ + $ $ $ $ $ $ $ + $ + . . . . . $ 7 + r x.U _ r U I I _ U 7 _ U 7 W 8 $ + + . $ r 7 7 7 7 + + $ $ 8 + . $ $ 7 $ $ I V._ [ _ [ ] [ ! + 7 r H H ] c $ . . $ H H H r $ . . . . . . . . + . . . . . $ U U H 7 + . $ r r 7 + $ 7 H I I _ I K H r H H r !.                                      ",
"                                      T.U H H H I U H H H H $ 7 + 7 $ I $ . . + U r H I _ r r H r r H r H r 7 7 7 r U H r r I $ . . $ H _ I H c 7 . _ ` _ _ _ ! _ V.] H q 7 $ $ . . $ 7 r 7 $ + $ 7 7 7 r 7 + + . $ r _ U I H r H _ _ _ I r U I V.H 7 y + . . . + + $ + + + $ $ $ $ $ $ $ 7 7 0 $                                                                                                                                                                                                                                                                                                                                                                                                                                   b.$ r $ $ $ $ + $ $ $ . + . $ + + + . . . O H + r b.H U H H [ ] _ I $ _ H _ I 7 $ . + $ 0 r 7 7 7 $ . $ 7 r 7 + . $ $ 7 $ $ I C.I I _ ` I ] I + 7 r H c [ H $ . . $ H r H _ r H H r r r H r 7 H r 0 r r H x.H H r $ + + $ r H 7 + $ $ H I _ U H H H H H U U !.                                      ",
"                                      T.H H H U _ U U H H r + 7 + 7 $ _ $ . . . $ r r r H r r r r r H r H r r 0 r r H f H H $ $ . + + M _ H H r 7 + I ] ] _ ` _ ! C.x.H 7 $ $ $ + . . $ r 7 $ $ . + 7 0 7 0 7 + . $ 7 U I U U H $ $ 7 + 7 0 U _ b.r 7 H $ . . . . $ $ r $ r 7 r 7 $ $ x.$ 7 7 7 + ZX                                                                                                                                                                                                                                                                                                                                                                                                                                x.7 r 7 $ r H $ 7 r H + U $ $ O + . . . . $ 7 $ 7 x.I H r 7 7 7 7 7 _ I _ U I 7 O . $ r r $ 7 $ + . $ 7 7 8 . . + $ . $ + 7 K x.K _ _ ] I _ H . 7 r r r ` H $ . . $ H H r H r H H 0 r 7 H r r r r H r r r H r r 7 $ . . $ r H $ + $ 7 r H I U H H U H H H H !.                                      ",
"                                      T.r H H H U J H H H r + 7 + 7 $ I 7 . . . O $ r 8 7 7 r q r H r r r 7 7 7 r 7 r r r 7 $ . . . 7 I _ H I r 7 . [ _ ` _ ] _ _ c.! 7 7 , 7 H $ + . . $ r q $ + $ $ $ 8 r 7 7 + $ 7 U H H U _ U H U H U _ I U V.r 7 r $ . . . + O + $ + $ O $ $ + $ 7 $ 7 7 $ . ^.                                                                                                                                                                                                                                                                                                                                                                                                                                x.+ 7 $ . $ $ $ $ $ $ + . + + + . . . . . $ 0 + r v.H U _ U I U I I _ I U H U 7 + $ 7 r 7 7 $ $ + $ - 7 $ + . . + $ 7 $ . $ H Z.! ` _ _ ` _ U + 7 H H 7 ` H $ . + + $ r H r r r r r r r H r r r r r r H r r r f . + . + o H U 7 $ 7 $ r H H _ I H I U H H H !.                                      ",
"                                      T.r H U U I I c H r H $ H . r 7 ] $ $ . . . + $ + $ + $ $ $ $ $ $ $ $ + + $ $ $ $ $ + . . + + $ f [ I H c 7 $ v.b.] _ ` ] _ _ K r c H U c r $ . . + , 7 7 $ + . $ 7 7 7 7 $ * 7 H r r r f H H H H H I U H x.H 7 7 + . . . . + + $ . + + $ $ $ $ 8 $ $ $ $ + !.                                                                                                                                                                                                                                                                                                                                                                                                                                x.+ 7 $ . $ $ $ $ $ $ + + + O + . . . . . $ 0 + r ] U r H H H H H H U H H r r $ $ $ 7 0 - $ + . . $ 7 % + . . . $ H 7 r 7 + r v.I ` _ ! _ ` K + q H H r [ U 7 . + . . $ 7 $ $ $ $ $ + $ $ $ $ $ $ $ $ * $ $ . $ . . + . $ H I 7 + 7 7 H U H I U H U H H H H !.                                      ",
"                                      Y.r H U U U I H U H H + r . 7 7 I r - O . . . . . . . . . . . + . + . . . . . . . . . . + $ O 7 J _ U r q $ . _ ` ! _ ! I _ Z._ H H I ] ! I r $ . . . 7 r 7 $ . + $ - 7 7 $ $ $ 7 $ $ $ $ $ $ $ $ $ 7 $ $ r r $ q $ . . . . . . + . + . O O $ $ $ + + + O + T.                                                                                                                                                                                                                                                                                                                                                                                                                                b.. $ . . $ $ O O $ @ . . . + + . . . . . $ 7 $ 7 $ $ . $ $ $ - $ - $ $ $ O 7 $ $ $ 7 7 $ + . . $ 7 7 O . . . 7 r H 7 H H r U b.I _ _ _ I I K + q H c r _ H H 7 $ . . . . . . . . . . . . . . . . . . . . . . . + . $ r r r H 7 + $ 7 U H H H H r H r H H H !.                                      ",
"                                      R.r H H H U I H H r r . r . 7 r [ v.I 7 + . . . . . . . . . . + . . . . . . + + . . . + @ $ 7 I _ _ U r 7 7 . _ _ ! _ _ ` ! c._ T._ x.c.! ` _ H $ . . $ , r 7 $ + . $ - 8 7 $ $ $ O $ $ $ 7 7 7 7 7 7 7 7 7 7 $ 7 . . . . . . . + . . . + . $ . + . . . $ $ Y.                                                                                                                                                                                                                                                                                                                                                                                                                                b.+ $ . . + + + . + . . . . . . . . . . . $ 7 $ r $ 7 7 7 $ $ 7 7 7 $ 8 - $ $ + $ $ $ 7 + . + $ 7 r $ . . . - H H r U [ x.[ ] V.[ ` _ ` ! ! K + q c c r _ H I H 7 + . + . + . . . . . . . . . . . . . . + + + . . 7 7 r H [ r 7 $ $ $ H H H r H H J r H H H !.                                      ",
"                                      T.r H J H H H H r r r + r $ r $ _ _ _ r 7 $ 7 $ 7 $ $ - $ $ $ $ $ $ $ $ $ $ 7 7 $ 7 r r 7 r I _ I [ _ r r 7 . _ I _ _ _ ! I x._ r Z.x.V.] ` ` ^ r $ . + . 7 7 7 $ . + $ $ 7 $ + $ $ @ $ @ + $ $ $ $ $ $ $ $ $ + r . . . . . . . . . . . . . + . . . + + 7 $ U.                                                                                                                                                                                                                                                                                                                                                                                                                                b.$ 7 + + . . . . . . . . . . . . . . . . + 7 . $ $ $ $ + $ + $ + $ . $ O + + . O $ $ $ + + $ $ 7 $ + . . $ H H _ ] x.+.v.] c -._ I K ! I _ H + 7 r C H _ ! I I r 7 7 7 7 7 7 $ $ 7 $ % $ $ $ $ $ $ $ $ $ $ $ 7 $ $ r H x.[ r 7 $ $ 2 H H H r H H H H H H H !.                                      ",
"                                      T.H H U H r H H H H r + 8 + 7 - [ H ] [ H U I H I I U U H H H H U H H U H U I I U _ ] ] _ _ ] [ I U ! H r 7 . ` I [ _ _ I K x.I + H !.x.] ` _ _ I r + . . O 7 r 7 + . . . + . . . . . . . . . . . . . . . . . . 7 + . + . . . . . . . . . . + . . . $ $ r 7 Z.                                                                                                                                                                                                                                                                                                                                                                                                                                x.$ 0 $ $ . . . . . . . . . . . . . . . . . 7 . . . . . . . . . . . . . . . . . . . . + . $ 7 7 $ . . + $ 7 U b.x.] x.C.x.$ , ` I K I _ _ _ H . 7 r c c I I I _ U I _ _ _ W I U H H H H H H H I H _ U H H H I U _ U r R.H H r 7 $ $ 7 U H H H U H U H H H r !.                                      ",
"                                      T.r H U H H U H r r r O r $ 7 $ H r U ] [ b.v.] b.b.b.v.] x.x.[ V.b.b.v.x.v.v.v.x.v.C.A.A.[ [ _ _ 7 r H r $ + [ I I U I _ K ` H 7 ` ! U.b.] _ ! I H 7 $ + + $ 7 7 7 + . . + . $ . + . $ + . + . + + . + . + . . $ . . . . . . . . . . . . . + . + + $ 7 r 7 C.                                                                                                                                                                                                                                                                                                                                                                                                                                ] $ 7 $ $ + . . . . . . . . . . . . . . . + + $ $ $ O + $ . + . + + + . . . + . + + . . + 7 r $ . . + $ r H v.b._ x.U.b.H $ , _ H H I I K U K . , r r q r H H I I [ b.v.v.x.b.x.x.x.x.| x.] ] x._ v.] [ [ [ [ [ ] x.b.H U r 7 $ $ $ 7 H H H U U H H r r r r T.                                      ",
"                                      Y.r H H H r H r H r H + r + 7 + 7 H 7 r _ _ _ H _ _ _ T H U T y +.[ _ [ U ] _ U U I _ [ x.I [ I U r 7 r r , + / I ! _ K K U _ _ r ! _ _ U.x.[ _ I H c 7 + . . $ r r $ $ $ $ $ 7 $ $ $ 7 $ $ 7 $ $ $ $ $ $ + $ $ $ 7 $ . + . . . + . + + + $ $ + $ + $ 7 r $ b.                                                                                                                                                                                                                                                                                                                                                                                                                                _ $ 7 + $ $ + + + + + + + + + . . . . . + $ 7 7 7 $ 7 + $ $ $ + $ $ $ $ $ $ $ $ $ $ $ $ $ H - + . . + 7 H [ ] x.x.b.C.I H 7 7 [ H H ! H H ! K . $ r r 7 7 r H H s U _ _ _ H I I _ _ I U U K _ [ H _ U I I I H I H _ I r H H $ $ $ $ 7 H r H H H 0 r r r r r T.                                      ",
"                                      T.H H r H H H r U U r 7 $ $ $ 7 0 H f c r r f f r r r r r y y y f H H H H H H c r y H J J J I T H r 0 0 7 O O _ P K _ U U I v._ r _ _ ! ] C.v.] _ I H H r O $ + . 7 7 q q r 7 r 7 e 7 c 7 7 r s e r 7 7 r r r r r r C C r r r r r 7 7 r r 7 7 r 7 7 q r r r I v.U.Y.T.!.E.!.T.~.!.!.!.~.G.T.T.!.E.T./.^.E.E.T.!.Y.T.Y.Y.R.Y.Y.T.T.T.T.E.E.T.T.T.E.E.T.T.E.!.T.Y.R.Y.!.T.!.T.T./.:X^.!.E.!.E.T.E.T.!.E.~.^.^.!.T.!.(.(.!.!.!.!.^.^.^.!.T.T.!.T.T.T.T.Y.T.!.VXZX                                VX^.E.Y.E.E.:X^.!.~.E.!.T.T.T.T.!.!.T.T.T.!.!.^.!.!.!.^.!.!.!.T.!.!.T.^.^.^.!.T.Y.Y.!.!.T.!.(.T.(.T.!.T.T.U.T.T.E.E.T.E.E.T.!.T.T.T.R.T.E.T.Y.U.R.T.!.T.T.(.T.R.Y.R.T.!.!.E.E.E.!.U.T.E.T.T.C.x.c q r r q 7 r 7 r 7 r 7 7 7 7 7 $ 7 7 9 4 7 r r s r C r r 7 r 7 7 e 7 7 7 , 7 r 7 r r 7 r $ $ . . $ $ H ` x.v.b.U.m.! I H r 7 [ H K c I L ! ! + 7 c $ 7 r 7 C r r r c r r 7 r f H f y H H c H s r r r r s s C H C c H r r H $ 7 + 7 7 U r r H H r r r r H H T.                                      ",
"                                      T.H H r r H H f H U H H 7 7 $ $ $ 7 $ + . + + + + + + . . X X O $ $ $ + + $ $ @ @ @ % % % % O O O - q 7 + . H / I ! K ^ I -.Y.x.r _ ! I ! H ZX] b.-.H K c 7 + . . $ $ $ $ $ + $ + $ . , # O 4 7 $ 4 $ O $ * $ $ $ 7 7 7 7 7 7 7 $ 7 7 7 $ $ $ 7 7 $ 7 7 7 $ + $ 7 $ $ 4 , $ 7 7 + $ + $ 4 7 4 7 7 $ $ 7 4 7 7 7 7 4 7 4 7 7 $ 7 7 $ 4 7 7 7 7 4 7 7 4 4 7 7 4 4 $ 7 $ 7 $ 7 $ 7 7 7 * $ 7 r 7 7 , 7 7 7 $ , $ 7 q 7 2 % % 8 $ $ 7 7 r 7 7 7 $ $ + $ + $ $ $ r T.                            T.q $ 7 7 7 7 q , 7 7 7 , 7 7 7 7 7 7 $ 7 7 8 7 r 7 7 7 7 $ $ 7 7 7 7 7 r 7 7 7 - 7 7 7 7 $ 7 7 7 7 7 7 7 $ $ $ $ 4 7 7 7 7 $ 7 $ 2 7 8 7 0 8 7 $ $ 7 8 $ $ % 7 7 7 7 7 7 7 * 7 7 9 $ 7 7 4 * $ 7 $ $ 7 , $ $ $ , $ $ 7 , 7 $ $ 7 O $ $ 7 O $ $ * * $ 7 7 4 $ $ $ $ + . . + . . + @ $ $ $ , @ . + . $ H K x.m.m.:X-._ _ U I r 7 Z.U r U I L ! K 7 + . 7 r - O $ $ $ $ $ @ @ X @ O O O O $ , , $ O $ o + o $ $ $ $ $ $ $ $ $ 7 $ $ + r H _ H H H H r 7 7 r H H T.                                      ",
"                                      T.H r r r H H H H H H U H r $ $ $ $ + $ $ + $ $ $ $ + + + X @ $ $ $ o @ @ @ @ @ @ @ & & & % $ $ $ % 7 - O 7 ] / I _ H _ I x.T.c.r ! I H U I ` !.Z.-.] _ K r $ + . . . . . . . . . . . + + . + + . + . . . + + + + $ $ $ $ + + + + + $ $ + + + $ $ + $ $ + $ + + $ $ $ % % $ $ $ + + + 7 7 q 7 7 7 7 , 7 7 , $ , 7 2 7 q 7 7 - * $ $ $ $ $ 4 4 7 7 * * * 7 7 7 * $ 7 + 7 7 7 7 7 $ $ o + O + + $ $ $ $ , , 7 7 $ $ $ . @ 2 7 q 7 r 7 7 $ 7 7 $ $ $ 7 7 r 7 7 7 A.                            U.r 7 r q r 7 7 7 r 7 7 7 r 7 7 7 7 7 $ 7 7 7 $ 7 $ 7 7 $ + $ O $ $ - $ $ + $ $ $ $ $ + + + $ % 7 % 7 $ 7 $ $ 7 7 7 4 $ * * O 7 $ $ $ $ * 7 7 7 $ O 7 7 $ $ % - 7 7 7 7 7 7 7 7 $ 7 7 7 7 7 7 + $ 7 7 7 7 $ + . $ + + $ + $ + + + . . . + . . + O + + + + + + . . . . + + . . . . . . . . . . . . 7 7 H -.x.A.Y.T.U H _ ! K q r C.U ! ! K L ! I _ H $ 7 r O $ @ @ $ & & @ & & & & & O O $ $ $ $ O $ # o o $ $ # $ $ $ $ $ $ 7 @ $ $ f U I H r H H r 7 r r H H T.                                      ",
"                                      Y.H r H H H H H H H H H H r 7 $ + . . . . . . . . . . . . . . . . . . . . . X X X X & & & . . @ . . @ - 8 U [ ! H ! I U I _ Z.-.r _ I H I U I x.T.v.c.` ` I $ $ . + . . . . . . . . . . . . . . . . . . . . . . . . . . . + + $ $ $ $ $ 7 $ $ $ 7 $ 7 7 $ $ $ 7 r r r r r r 7 7 7 $ 7 r 7 7 r r r r H c e r $ r q e q c r r r r r r r r 7 s H C r r r r C r 7 O * $ $ $ 7 7 7 7 $ $ o + o , 7 r q 7 7 q r r r 7 7 r 7 7 r r r r H r r 7 r 7 7 7 7 r r U U H H b.                            C.H U K U K c H q 7 c r 7 7 r r r r r 7 7 r 7 7 7 r r r r 7 7 7 7 $ + . + $ 7 7 7 7 7 7 7 7 7 7 7 7 q 7 r 7 7 r s C r r r H C 7 2 $ $ $ $ $ * 7 7 * 7 7 7 7 r 7 7 r r r r r r r 7 r r 7 7 r 7 r r r r r r 7 7 7 7 $ $ 7 $ $ $ $ + + + + + . . . . . . + . . . + . . . . . . + . . . + . + . . . 7 r H x.V.U.-.T._ H c H I U H 7 V._ K U _ H I H ! ! r $ + . . . . X X & & & & X X X X . . . . . . . . . . . . . . . . + . . + % 7 H I I U H H H H H r r r H f T.                                      ",
"                                      Y.r r f H H H r H H r H H H r 7 7 $ $ $ $ $ $ $ $ $ $ $ # $ $ # # # * % & & & & ; ; i a i ; - - - 7 r J U _ U J H H U H U ! C.` 7 I ! I _ I ] _ ` ~.-.-.` _ + 7 r _ H r r r r r r r y H H q r r r r y y M y H J J H y r r r 7 r r y y r U r r r H r 7 r r 7 r H H H H r r 8 7 r r r r r H 7 H H H H H r r H r H H r r H r 7 q r r r y H r f H s r r r r r r 7 7 r q r 7 r q r r r 7 7 7 0 r r r r r H H r H r r 7 r r 7 r r H H r r 7 r H 7 7 7 7 r r H I I I v.                            v.H ! U K K U K c 7 r r r c 7 7 r H r r r H r r 0 r r r r r r H J H r r 7 r r r r r H r r r r r r H y H H r r r r r r 8 7 r H r r q 7 q 7 4 7 7 r r C e r r r 7 7 7 r r r r r r r r r r r r r r q H y r r 7 r H r r H I I H J H H H H r r r r r r H r H r H H H J U H M r 0 r 7 r r H H H H H H 7 7 _ V.Z.A.!.I K ! ! _ I H 7 U c._ _ H H H K I I ^ I M r 0 7 7 ; 8 8 i i i i t 8 8 - % - % % $ $ $ $ $ $ $ $ $ , , , 7 4 4 7 7 r U I I H H H H H H r r r r r T.                                      ",
"                                      T.H H r r H H r H H r r H r r 7 0 7 7 7 7 7 7 7 7 7 - 7 7 q e 5 5 9 0 i i i i i i i i p u u y y y y J I I T J J I H U _ I _ C._ $ H I _ ! _ _ ` ] [ T.-.[ 7 7 _ [ v.x.[ _ _ H J J M H J H y r r J y H J U H J I I U H H J U r y H U J r H q r r H H q M r 7 r r H H H r r 0 7 r H H I I H 0 H U H H r r H H e r H r H r r r r H y r M H H H H H r r r r r r $ 7 8 r r y J y r 7 q r r r r H H r H H I I I H H H s H U H H H U U H H 7 c 7 7 r 7 7 r 7 r H U H Z.                          ZX-.U _ H H K I I H H 7 H r I r 7 r f r H H U r H r r r r r H H y f U I U r H r r H r U r r H H r r H M H H H r r r H H 0 0 s H H c r q 7 7 7 7 7 r C C e r r r 7 7 r H H H r r 7 7 7 H r H H H H r r r r r 7 7 r r H U J H r H H H I H H U I H H H H H H H H H H T I H U U f r r r r I H H H H r H $ ] V.v.^.I I I K K K I H 7 7 T._ H I ! U H U I U T T H y H y u i u p B p u u u y 0 0 0 y r r r r 7 7 7 r r r r q q r r r H H U I I I H H H f H r r 7 7 r H !.                                      ",
"                                      T.U H r r r H r H r r r r r H r r 7 r 7 r r 0 7 7 7 7 7 7 w c r e r f u i u i u y u u u i y y f J M M J L L T ^ ` I _ [ ! I v.! $ c I _ I ! ` _ ! _ [ Z.-.r _ b.b.v.v.b.x.[ _ x.b.v.v.A.v.S.x.] b.x.x.v.A.v.v.v.v.v.v.b.v.S.x.b.b.v.S.x.c.x.v.v.v.U.b.N.b.v.S.V.A.A.v.b.S.V.v.b.V.S.V.b._ b.A.Z.C.V.N.S.C.V.v.V.V.A.V.v.v.v.v.V.S.b.b.v.b.V.C.V.v.V.C.V.v.v.b.x.x.b.[ b.v.v.x.] x.x.x.x.] b.v.b.v.+.x.b.v._ x.S.V.A.Z.).C.U.A.C.Y.T.Y.U.x.b.C.V.v.C.b.C.C.V.C.CX                          FXE.G.U.V.Z.G.A.U.v.v.V.Z.-.C.G.v.A.C.V.V.V.Z.v.v.b.x.x.[ x.b.v.x.[ ] b.b.] v.V.b.v.x.V.] x.V.v.v.V.A.C.V.V.V.V.b.v.V.C.V.V.V.V.S.v.S.b.x.x.x.] x.x.b.b.b.x.x.x.] x.v.V.S.c.b.v.v.V.c.S.N.V.v.x.V.b.x.x.x.x.v.x.x.V.v.b.[ I _ _ ] [ x.x.x.x.b.x.x.x.] x.] x.x.c.v.b.[ _ [ ] x.v.x.x.b.v.x.b.x.x.V.v.` ] V.ZXK I _ H I I U _ H $ r m.I _ _ I _ U U _ I I T H y J u u u u u p u u J J H y r s f f r r c r r r r H H H c r c r r H H H H H H H r r H H r r 7 7 r H !.                                      ",
"                                      T.H H r r r H r r r r r 7 r r r r 7 r r H r r r 7 7 7 7 7 8 r r r r f u u u u u f J Y R Y Y J J J M M H M L T [ _ I x._ P H [ H 7 U ! _ I [ ! I ! I H x.C.C.A.C.U.U.Z.C.A.V.v.T.!.E.R.E.Z.^.Y.Z.T.U.Y.!.1X~.!.(.!.!.!.(.(.(.T.~.(.T.~.!./.!.!.!.!.AX!.!.T.1XZXCXCXVXT.T.VXT.ZX~.!.1X/.A.Z.T.^.^.(.!.^.!.T.!.(.ZXT.'.Z.Y.U.T.!.^.~.!.!.!.T.T.!.!.!.!.^.!.T.T.^.T.^.(.Z.!.!.T.Y.Z.R.!.T.T.A.Y.R.Z.A.V.Z.A.A.V.U.T.T.R.!.^.!.^.^.VXAX^.!.^.T.Y.^.!.!.^.!.^.!.^.VXSX                          GX^.^.CXE.T.E.~.T.E.T.Y.Y.U.^.^.Y.!.!.T.Y.Y.!.T.T.T.Y.U.S.Z.T.T.).v.A.E.T.A.T.T.!.!.U.!.Y.!.ZXZX^.VXVX^.!.!.!.^.!.!.^.^./.E.T.U.R.T.!.~.(.(.T.A.!.T.T.T.!.U.Y.T.U.Y.T.T.Y.G.U.T.T.!.U.T.(.~.(.Y.T.T.T.T.Z.Z.T.T.Z.!.C.U.Z.C.Y.A.T.A.U.T.T.Z.Y.Y.G.U.A.T.Z.!.T.^.Y.R.Y.Y.Y.C.Z.^.T.Y.T.T.Z.T.Z.T.T.T.!.U.E._ I I K I _ K ! H H , r ` K _ U ! ! _ J T I J J J Y i u Y R Y g u p B u J J H y y u y r r H H H H H H H H J J K H C H H H H H f H H H H H f r r r r H !.                                      ",
"                                      T.H H H r r r H r 0 0 7 r r r H H H r r r H H r r r r r r H H C e e f J u B u B Y R B B B B Y u Y J J M J N L J J ^ r r r I c.! $ c I _ _ I ! I ! I H _ v.U.A.Z.A.C.v.b.Z.Y.v.U.U.Y.V.Y.] Y.U.V.A.G.Y.U.Y.U.U.G.Z.Y.T.U.V.T.Z.T.G.V.T.v.T.P.U.Z.C.Y.v.Z.U.!.^.!.!.T.Z.V.U.Z.^.!.Y.^.^.V.Y.V.U.Y.U.U.T.!.Z.E.E.T.A.!.Y.!.wXU.T.Y.T.G.A.T.Z.Y.Y.Y.U.U.T.T.Z.Z.ZXZ.T.Y.C.Y.T.T.c.U.U.!.U.Y.C.T.U.Z.C.x.Y.C.C.V.C.A.C.C.Y.T.T.E.!.Y.^.Y.U.~.U.Z.!.!.!.VX:X!.!.^.^.VXZX                        !.AX^.:XT.U.Z.U.C.!.E.T.G.C.Z.E.C.^.VXT.T.Z.T.U.Y.U.Z.Z.C.A.T.T.V.x.v.Z.VXY.T.Y.T.R.Z.G.U.T.:X!.E.!.!.VXT.~.Z.A.T.Y.!./.!.Z.S.+.x.b.~.D.Z.T.U.A.A.Z.Z.Z.^.A.A.T.Y.T.Y.Y.b.m.V.G.^.E.Y.G.A.Y.v.Y.Z.U.Y.Z.m.v.C.U.V.T.x.C.A.c.R.x.P.V.m.G.Z.m.Z.P.Z.G.m.Y.v.U.U.G.C.v.Z.Y.V.x.x.R.T.b.C.C.] Y.] Y.U.U.Y.Y.x._ ! K K U _ ! K I c + q ! K _ r r I K I M M J J R T Y B p R } } p R p p B N N N u u f y H M y J H r U H H H K K H H H r H H H H H H r r H r 7 7 r r r T.                                      ",
"                                      T.H H H r H r r 7 r r 7 7 7 7 r r r r r r r r r r r r r H H H H C s H J J R B p p B B } } B R u Y u J M N @ y T T I $ 7 H _ x.U $ r K ! ! H I I I I U _ ` _ _ [ U H U U I I x.A.] I r _ U ! _ _ ` ` ] _ ` U I _ / ! _ x.v.x.` x.-._ ` I / I _ I V.! _ ! ` -.x.` _ I I _ b.v.] ] [ x.x.x.V.` _ _ _ _ ! _ _ [ ] ` ! -.[ ] x.` [ _ ` _ _ x.] ^ _ [ / K _ _ _ ` c._ / _ I _ / _ c ! _ 3.[ -.` ` U U I I / _ ^ _ _ ] ] [ / [ ] [ -.v._ x.] ] c.-.v.] ] b.-.x.] Z.x.V.^.                        T.C.c.x.c.] x.] ` x._ ] -.x.x.c.x._ x.x.x._ U I I _ _ _ _ _ ] x._ I _ _ b.] -.` _ ] ! I ! ' x./ ` ` ` 8.' c.] ] -._ ` [ [ U U I H 0 _ J I | +.] ] _ _ ] C.] ] x.] -.-.[ ! / ` ] ] -.x._ _ _ U ` _ _ _ / ! I ! / Q ` Q I ! I ` K ! Q I ' ] ` ] ' I Q Q ` K / ' _ _ ! ^ _ ` ] _ U ` K U U H I U I _ ` _ _ ` I U ! I I ! ! I I c $ 7 _ K I 7 7 U U I J J J J R R Y B B B } } } } p p Y B Y N u N J J H H y M r 7 r c c H H H H H H H H H H H f r r 7 r r r r r r 7 !.                                      ",
"                                      T.r r r r r 7 r 7 7 7 7 7 $ - 7 7 7 7 7 7 0 r r 7 7 7 7 r i y y u f f N N u i a a a { X.X.a p p p u J y y N J L I _ 7 r r ` ] H $ r H I I I _ I I I I _ I _ U _ _ I r c K U / I H ! c c H K / ` / I _ ! ` _ Q ! / ! P _ 8._ P / ` ! Q _ P _ / K P _ C ! ` I / _ P I P ! ' =.8._ C K Q ! ` _ / _ _ ` ` / _ P P H K I Q K Q Q P K H I / ` ` ` Q / P K =.! ! ! K ! K ! Q P C / Q Q ` ` ` ` _ I ` ` I U H ] I _ ` _ ] I ] _ I ` _ ! ! H U [ _ I x.[ I ] ] H H I U v.^.                        U.` U x.c.-.x.! _ [ _ [ ] x.x.] _ W x._ _ I _ H U _ _ [ [ _ _ b._ _ _ P _ _ _ Q ` ` P / ' ` ' / Q K K P / ` ` ] 8._ _ _ ` P P ! [ J I J f I J H r H I K I ! ` P K P ` I ! / ] ` _ _ ! I ! P _ x.` / Q / / / ! P C C ! P P Q Q Q P / Q / / / / Q / / ` ` Q Q ` P P I ! Q ! ! ` / P K K H ! H _ H ! ! _ _ ` I ! U K I K I I K c $ q ] ! ! , 7 I I J J J J g Y Y Y B u a p { } } p a i i J J H H f H M H H y r r q q 7 q r e e e r r 7 7 7 7 7 7 7 H r r r r r 7 r !.                                      ",
"                                      T.r r r r r H H 7 + + + $ $ $ $ $ $ $ $ $ + + $ + + $ $ q y u u J J J J J i t t a { { { { a a t p B Y u y T Y L U T 2 r C _ ` H $ r H U H H K K ! ! I ! ! _ _ _ I H H I K ! _ _ I ! 4 7 Q Q Q ` Q P / Q ' ' Q K Q ' ` / / 8.( ' ` Q ` Q P / / K c / K P Q / Q m.P m.P =.Q / Q K ` c P P P P Q ` / ' =./ ` / / K Q K / P P / P P K / ' ( ` ' / P / / c.Q P K e / P P P P C Z Q P ' ' ` ' ' P Q Q ! _ H ` _ H I ] [ _ I _ ! -.7 K c r I -._ _ x.x.! ! I b.U H U v.T.                        Z.x.[ ! x.x.C.r + U [ _ _ m.v._ ] U V._ I _ H I H U H [ ] [ [ x./ H c c _ c.=.` ` / K Q ` / ( ' ( Q Q Q ` / Q ` =.` _ / ` P H I ] I H H 7 r H K H U I P / =.8.H C K ` Q ` / =.` ` / Q =.=.=.' M./ / ~ ( ' / / ( K Q ~ ( ' ( =.' ( ' ~ P Q P P P ' ( ( ( ( / ( Z =.Q P / / c P I C c H H U I I U K U _ _ ! H I K H I H U ! K H $ r c._ ! 7 7 I I H J J u J u Y Y u a a { { { { { a a & u J J H y H H H H 7 $ % + $ $ $ $ $ $ $ $ $ $ $ $ $ $ $ $ H H r 7 7 7 7 r !.                                      ",
"                                      T.r 0 r r r r r $ + $ + + O + + + $ $ + . . . + + + $ $ 7 r r y J J N J J t a { X._.`.`._.X.{ t p p g J Y y M J J J $ e C _ [ H $ r H U H U ! ! I H , $ $ $ $ + 7 . $ $ + # $ 4 . 5 # , , , . , 4 6 6 # > 4 > # # 6 6 6 6 > 4 + # > 5 > 6 + # # 4 + > 6 # > 6 , # > 6 , # > 5 # e + 4 6 # , > , # 6 6 > 5 q 6 6 6 # > > # > > , # , 5 > 6 6 q > 5 , q , # 5 . , # . # > # > e 5 5 e > , # > # # 4 q , , , , 7 7 [ I I H I , , $ . + $ $ , $ r c q 7 I I ! U H x.T.                        U.x.H _ _ _ r 7 7 $ $ 7 $ 7 r r 7 7 7 7 U H _ _ [ H $ 7 - 7 7 7 7 , , # # , # q , 5 > + > > 5 6 > > > 5 5 , + 4 4 , # + 6 # # # # # # , . $ , , , # + 6 5 , > > > > 6 > , 4 6 # , # > 6 5 e > 5 > # > > 5 6 5 5 # > + 6 5 > 5 6 5 6 > + > > + > 5 > > 6 > 6 5 + # + + > 4 # 4 $ # + $ $ , 7 $ , . 7 + $ 7 7 7 K H _ K K I U H $ r c.I I 7 q I U J J J J R R Y R a a { .._.`._._...{ t p Y Y u i N H H M $ @ 7 @ + + $ $ # + + + + + + . + $ $ . 0 r r r r r 7 r !.                                      ",
"                                      Y.r 7 r r r r r 7 $ 7 8 7 r r 0 r r r r r r 7 r 7 q 7 % 7 0 0 i u N N f Y a { X.`.{.{.{.{._.{ t p p u f Y M M J J J $ r r _ ] H $ q H U K c I H q , + + $ 7 $ $ I I I I / P P ' C P K Q C ( A Q ~ ( / Q P / ( ( ~ Q Q Q ~ ( 9.P ( ( / Q Q P Q Q C Z Q / Q / ~ ~ Z Q / ( ~ P c.( Z Q / Q K ( ( ( Q ~ ( ( / ~ ~ ( ~ Q K P Z Z P Q Z P Q Z ~ / =./ ' / ( / ( ' ~ Q ( Q Q ( Q Q / ( ~ ( Q ~ ~ Q ( ' / ! ` ` -.K 7 $ 7 _ I I r . x.! ] ` ] ] x.-.C.Y.!.! 7 H H r r x.!.                        G._ _ H I H $ U U.G.V.[ U -.x.] ] x._ $ 7 U U H 7 $ r I _ _ ] [ _ C e K / ( Q / / ( ( / ( ( ( ( Q Q ~ ) ~ Q Z / Q Q Q P / / Q P / P C C e K K P Z ( ( ' ( Z D =.( ~ Z P Z ~ Q A ( ( ;.Q ( ' =.' ( Q Q Q ~ Q ~ Q ( Q ( ( ( ( ( ( ( ~ Q ~ ( ( Q ~ Q Q Q ( Q ~ ( ( Q Q ~ ~ P Z P P K K K K ! C J H H U r 7 $ + + $ r I K H H U K , 7 x.H I 7 q I H J J J Y Y Y Y B a a X.`.].].].]._.X.t p B B p i u H M H 7 $ r q r r r r r r r r r r r r r H r 7 7 r r r r r 7 7 !.                                      ",
"                                      Y.0 7 r r 7 r r $ . . . . . . . . + $ $ + . . + . $ $ + 7 r r N N Y Y J Y t { _.{.[.[.[.]._.{ t p p u u J H J T J y $ e r _ -.H + r H K I I _ q + $ + + 7 T I H r r q r q 4 , e 5 x x x 5 A 6 5 e x e x 5 e x A A x x x x 5 Z 6 x x e x 5 6 x 6 6 x A > 6 5 x x x 5 v x 5 x 6 5 x x 6 x 5 5 v v x x A A 6 x v v v x x x 5 5 5 e 5 5 5 5 x x x e e x v e x 5 5 6 x x 5 5 6 e 5 x 5 5 6 6 6 5 5 e v x q v 8.! _ 7 $ y H H 7 . H x._ ! U I I I H x.` v., 7 H r r [ !.                        U._ H I c 7 + C.! _ ` _ H I U I U [ r . $ r I _ r r I _ _ r H r q 7 , 4 e 5 q 5 5 6 5 x x 5 x v x 5 x v 5 x 5 e e 5 x e x 5 4 4 5 6 5 5 5 e 5 5 5 v v x v z A z A e 6 e 5 x x e 5 x P x Z C Z e Z A v x x x x z x 5 v x x v x v x 5 v v v A x x 5 x 5 x 5 5 5 5 x 5 5 5 6 e e c q e 7 q c , w r r q r r $ + , . , r K K H I H , 7 b.H ! 7 7 I I J J J Y B B Y p a a X.`.[.[.[.{._.X.t p g u u u J J y H 7 @ 7 $ + + + + + + + + + + + + + + + + r r r 7 7 7 7 r T.                                      ",
"                                      Y.r 7 7 r 7 r r $ + $ O + $ $ $ O $ $ $ O + . . . . + $ 7 r M N N N N J p a { _.`.].].[.{._.{ t p p u f f y M J H H $ r 7 _ ] H $ H H H I I U $ . , + + q J r r c K + + . . + > : < < : > > : > > > : < : : > > > > > > < > : < : : : : : : : : : : : > > : : < : : : > : : < > : > < : : : : : < : : < : : : : : : < : : > > > > > : : : : : > : > < : > : > : : > : : > : : > > : > + : : > > > > : + 4 Z K 2 X T I I - + 7 H ! C 6 v 5 6 x K ! ] $ $ H r 7 _ !.                        Z.x.P H c + 7 [ K C A v x A x K q K c $ $ K H H 8 r U H I $ + . . > : + : + > : : : < > : < < : < : < < : > : : : : > > > + > + : : > > : > : < : : < < < : < : : : : < : : : > > < : < > : < : : < < < : : > < < < > > : : < < < : > : : < < : < > : : < : > : : : < < : < : : : > + + + + # 7 q c H r 7 + $ + $ 7 U ! K I c $ 7 v.U ! 7 7 U T T I T ^ Y Y R p a a X.`.].[.[.{.`.X.t p u i u J y H y J r $ $ + + $ $ + + + # + $ $ $ $ $ $ $ 7 U H 7 7 7 7 7 r T.                                      ",
"                                      T.f 7 7 7 7 7 H $ 7 r $ 7 7 e r s H r r 7 r r r 7 r r % q y y N N u y u p a { .._.{.{.{.{.X.{ t p p Y u u u H J H H $ q q _ [ U $ r H H H H H $ + $ + O 7 8 2 y w 3 @ @ : < h h j j j l j j j l l l j j j l n n n n n n b n l l l l l j h j j j j h j j l l n l l n n n l l l l l l l l l n n n n l l l j l l l l l l n l j l l j j j l j j l l l l n l l l l l l l h l l l l l l h < < h h l b S k k 3 @ e C , @ _ I Y - . y C ~ z d.d.d.0.*.v ` ! 2 $ H r 7 _ !.                        U._ C C C $ % [ I A D 0.f.:.D 5 + K K @ @ K I M 7 0 f H + + > 1 h h h k h j j h h h h h j j j j j j j j j j j l l l j h j h h h h j j j j l n n n l l n n j j l j j n n n n n n n n l l n n n n n l n n n l l l j j j j j j j j j j j j j j j j j j j j j j l j j j j j l l j j l l n l k @ . 9 9 r 7 r + + $ + + r H H H K c $ 7 ` ! I 4 7 U I H I T u Y R Y Y i t X._.{.{.{.`.`.X.t p Y f f Y N y 0 f J T U H H C H P H I H I U H H H H U U H _ r 7 r 7 7 7 7 T.                                      ",
"                                      Y.r 7 7 7 7 7 r $ $ $ $ $ 7 7 7 7 7 7 $ $ $ $ $ $ % 7 $ q M M M M y y i p t a X.X._.`.`._.X.p t p p u u u f H H H H $ r r _ _ H $ H H H H I H $ + $ + . $ 8 8 8 i . @ 1 h l h.$XoX%X|.a.i.XXXXi.i.a.a.a.a.a.|.XX%X$XOXXX|.i.a.a.a.a.a.a.r.r.a.a.a.a.a.a.a.a.a.a.i.i.i.i.a.a.a.a.a.i.i.a.a.a.a.i.i.i.i.a.a.a.a.a.a.a.a.i.i.i.i.i.a.a.i.|.|.|.i.i.i.|.XXXX|.i.i.a.a.a.a.i.i.i.i.XXXXi.r.r.r.XX$X$XoX@.j 5 . 5 9 @ @ ^ U I - X 0 C Z h #.@.S b < > K I % $ P s r [ !.                        )._ Z A C O & [ H A b S S b h + # K K @ , K I H - - f s , > z h %.a.i.i.i.a.a.a.a.a.i.i.i.i.i.a.a.a.a.a.a.a.i.i.i.a.r.r.,.%.r.r.a.a.a.a.i.i.|.|.|.i.i.i.a.a.a.a.i..X|.|.|.|.XXXX|.i.i.i.i.i.i.i.a.a.a.a.|.|.i.a.i.i.i.i.a.a.a.a.i.i.i.a.a.a.a.i.a.i.|.XXXX|.i.i..Xa.a.|.OXXX.Xa.|.%XoX$.j 1 + o r r r r + + $ $ + r H H H K H $ r ] H _ 7 7 H _ U I T J Y Y Y B i a X.X.X._.`.X...{ t p N u u J J H r f r y r 7 e 7 7 r q c r H r r r r r r r r r 7 7 7 7 7 8 8 T.                                      ",
"                                      Y.7 7 7 7 0 r r 7 + . . + + + + + O $ $ $ $ + + + . $ % y r M M y y u i u & & t t { a a a t t & B B Y J u r r H H H 4 q e U U r $ H r r H U H $ + $ + . + = 7 r U . 1 h b 7XaXNXgXgXaXpXaXaXpXpXpXpXpXaXaXaXaXgXgXgXgXgXaXaXaXaXaXaXpXpXpXpXpXpXpXpXpXaXaXaXaXaXaXgXgXaXpXpXpXpXpXpXpXpXpXpXaXaXaXaXaXpXpXaXpXpXpXpXaXaXaXaXaXaXaXaXaXaXaXaXaXpXaXaXaXaXaXpXaXaXpXpXpXaXaXaXaXgXgXaXsXsXpXaXNXNXjX|.2.l + 6 9 @ X K C K * . 9 C K *.q.F.B.*.C M y y + # E C r [ !.                        U._ Z Z K $ & R J / *.0.:.*.! r 7 I I , , K K r X 8 s H + 4 < @.7XsXaXaXaXaXaXaXaXaXaXaXaXaXaXaXaXaXaXaXaXaXaXaXaXaXaXsXsXsXsXsXpXaXaXaXaXaXgXgXaXaXpXpXpXpXpXpXaXaXgXgXgXgXgXgXgXgXaXaXaXaXaXaXaXpXpXpXaXaXpXpXaXaXaXaXaXaXpXpXpXpXaXpXpXpXpXaXaXaXaXaXaXaXaXaXpXpXpXaXgXgXaXpXpXgXjX6X@.m 1 @ H r r r . . $ - + H H H H H K , $ U K K r 7 U H I I I J Y Y u Y i & t t a a a t t t & p u u u u u i 0 f y r r r r e 7 r q c r H r r H r r r r r r 7 7 7 7 7 8 7 T.                                      ",
"                                      Y.7 7 7 7 r r r r $ $ $ $ $ O $ 7 7 7 7 $ 7 7 7 7 2 7 r J r r y r y y y u  .t t t t a a a t a a } R Y u y H y H r c 4 , $ $ 7 $ . r H H H H r $ + $ $ . # 9 9 s f . > m %.nXcXxXzXzXzXbXvXMXMXvXvXvXvXvXvXMXMXMXMXMXMXMXMXzXzXzXzXzXvXvXvXvXvXvXzXzXzXvXvXvXvXvXvXvXvXvXvXvXvXvXvXvXbXvXvXvXvXvXvXvXvXMXvXMXvXvXvXvXvXvXvXzXvXvXvXvXvXvXzXzXzXzXzXzXzXzXzXvXvXvXvXbXvXvXvXMXvXvXvXvXvXbXbXvXvXvXBX8X@.l . 6 4 @ X c C A 6 9 U H c Q *.*.*.~ K M i q . 4 P H r [ T.                        U._ P Q P % & g y K F #.D A c 8 8 U I , , J H r . r 0 P . 1 : s.BXvXzXvXMXMXMXvXMXvXvXzXzXzXzXvXzXzXvXzXzXzXzXzXzXzXvXvXvXvXvXvXvXvXvXvXzXzXzXzXzXzXvXvXvXvXMXMXvXMXMXvXMXvXvXvXMXvXvXzXvXvXvXvXvXvXvXMXvXvXvXvXvXvXvXbXbXvXbXvXvXvXbXvXvXvXvXvXvXvXvXzXzXzXzXzXzXzXvXvXzXzXvXvXMXzXbXnX%.n 1 3 U r r r . . $ - $ H H H H H U , . + $ r $ $ W H I J J J J J u Y | & & & t t t t & i i Y Y B p i u y y H M r r r H r r r q r r c r r H H r r r r r r r r 7 7 7 7 Y.                                      ",
"                                      U.7 7 7 7 7 0 7 H H H I I U I I / _ I U H r H U U J U U H y y y r r r y i i Y } } ........} R B R p i y y M r c r H P I K H _ H $ r H H H H f $ $ 7 $ + # 5 9 s s . 1 m @.7XaXfXfXfXfXjXjXfXfXhXfXjXjXhXhXhXhXhXhXhXfXfXfXhXfXfXfXfXfXfXfXfXfXhXhXhXfXfXfXhXhXjXjXjXjXjXjXjXjXjXjXjXjXhXhXhXfXfXfXhXhXhXhXhXhXfXhXhXhXhXhXhXhXfXfXfXfXfXnXfXfXfXfXfXfXfXfXfXfXgXgXgXfXhXhXfXfXfXhXhXjXjXjXjXjXjXdXp.n k . - - & X r C A 5 $ J M x z D F #.D A , w 8 @ 7 H H H [ T.                        Z.^ K Q Q 7 @ f f x z S #.D x 7 $ s H $ $ J H H . 8 r H + 1 : 1.iXjXjXhXhXhXhXhXfXfXfXhXhXfXfXfXfXfXfXfXfXfXfXfXhXhXfXfXfXfXjXjXhXhXhXhXhXfXhXhXfXfXhXhXhXfXfXhXfXfXhXhXhXfXfXfXhXfXfXfXfXfXfXhXhXfXjXfXhXhXhXjXhXhXhXhXhXjXjXjXjXhXhXhXhXfXfXfXfXfXfXfXfXfXfXfXfXfXjXfXfXhXhXfXfXfXhXdX%.n 1 @ K r 0 7 + . $ 7 + c c c H K K , 7 U.-.! I x.H H H I I N y J u J J R p  ....... .} R Y J u u u i u y y y y y H r r r 7 r 7 e q r r r r r r r r r r 7 7 7 7 $ 7 7 Y.                                      ",
"                                      U.7 7 7 7 r r $ 7 7 $ 7 7 9 9 9 r r 7 7 7 7 r r r r r r 7 M N M r r r r r u i p p a { X.{ B u u i i u y y y r r 7 r c r q c _ H . 7 H H H H r $ $ 7 $ + * 5 5 9 r + @ 1 l r.@X@X X X|..X|. X X X|..Xa..X.X|. X X X@X@X=X=X@X@X@X@X X X X X|. X@X@X@X@X@X X.X.X.X.Xa.a.a.a..X.X.X.X|.|.|.|.|.|.|. X X X X|.|..X.X|. X X X X@X@X@X X X X@X@X@X@X X X X X X X X|..X.X.X|. X X@X@X@X@X@X|.|.|..X.Xa.r.n 1 1 . ; - O X r C Z 5 $ T U v z D #.0.*.D > x w . $ H H H [ T.                        V.U C P Q q O y r 5 b #.e.:.v 6 * 0 f + $ H r H - 7 9 c . 1 : n <..X|. X X X X X|.|. X X X X X@X@X@X@X@X@X@X@X@X@X X X|..X.X.X.X|.|.|. X X X X X X X@X@X X X X X X X@X@X@X@X@X@X@X@X@X@X X X@X X@X X|. X X@X|..X.X.X.X.X.Xa.a.a.|.|.|.|.|.|.|. X X X X X X X X X|.|.|. X X X X X@X@X@X%.n j 1 7 r 7 7 7 $ . $ $ + r c r c H r + 7 [ r K r H r H H I I H i N u u i i p a a { { { p p y i i y u u 0 r r q y y H r r r 7 r r r r r r r r r r r f r r 7 7 7 7 $ 7 r Y.                                      ",
"                                      U.7 7 7 7 r 7 $ 7 r 0 r r r r r r r r r r r H 7 7 r r r r y f M r r r y r i u i p B p p p u i u u u y y r y r H H H H c r H _ r . $ r r H r r $ $ 7 $ O - C r q 7 2 @ + < z b b S S b b h l b b b l b b b b b b b b b b b b b b b b b b n n b b b b b b b b b b b b n n n l l n n b b b n n n b b b b b b b b b b b b b S b b S b b b b b S S b b b b b b b n l l n b n b b b b b l l l b @.n l l : + . . 9 = O O r H c 7 O H r v < l S @.S z < x w + $ r r H [ T.                        V.I H P Q 7 O r q 5 b S #.#.h > e r r + $ H r H 7 8 7 r + : : 1 l n n b n b n l n n l l l b b b b b b b b b b b b b b b b l l l b b b b b b b b b b b b b b b b b b b S S S S S S S b b n b b b b b b b b b b b b b n n b b b b b b n n b b b b b b b b b b b b n b b b b n n n n b b h 1 @ . 7 7 7 7 7 $ . $ $ $ r H r r c 7 . $ _ H K I H H H H U J J i y 8 y u u i p p a p p p i i u y f 0 0 y r y r r q r 7 7 r 7 r r r r r r 7 r r r r r r r r r r 7 7 7 7 T.                                      ",
"                                      Y.r 7 7 7 r 7 7 7 H r r r s r r r r r r 7 7 H q r H r r y r r r r q r y i 8 u N u i u p i i i u i w i y r r q c H H H r H U _ r $ 7 r r H r r $ $ 7 $ O $ r 7 U c ^ 2 @ . + + + # # + # + + + # # # # + + # # # + # # # # # # + + . + + + + + > > > > # # + + + + : : + + : : : : + + + + > : # # # # # # + + # # > + + > + > > > + + + + . + > > > > > > > : : : : > > > : + + + + # + + : + + : . . . 9 d 9 = - H H y % O r r K Z v z z z v P x q @ O r r H ] T.                        A._ I ! Q 7 + r q v D z b D v A C s r . $ H r H - $ r 7 ` + . + + . + + + + : + + + > # > + + + + + # # # > # + + + # + + + + + # # # # # # # # > # + . + # # # # > > > > > > > # # # # # > > > > > > > + > + + + + : + + + + : + + # > > # > > + # > > > # # # < : : + + + : : 1 + : 1 @ @ 7 I 8 7 r 7 $ . 7 $ $ 7 K c r H , $ $ [ H H H H H U H H H J y y 8 y u u u f J u u u B i u u y i 9 8 0 7 q 0 y q r H r r 7 r r r r q r 7 r r r r r 7 r r r 7 7 8 7 7 Y.                                      ",
"                                      Y.7 7 7 7 7 r 7 7 r r r 7 r r 9 e r r r r r r r r r r r r e e e r r i i i u u u u u i u u i i i r r r r r r r H H H H r H U _ r . 7 H r r H 7 $ $ 7 $ + $ * 7 7 q w w q , 5 5 5 6 5 5 5 1 # # 4 4 4 4 4 4 q 5 5 4 > 4 4 4 , 6 , , # $ , 4 , 4 7 4 4 4 , 5 6 6 6 > > 6 5 5 > 5 5 5 5 5 5 5 6 5 6 5 4 5 4 5 4 4 4 4 6 6 6 > $ 4 4 , > > , 4 , , , 5 , 4 , 4 > 6 > > > > z > 6 6 6 > 6 6 6 5 5 5 6 6 4 7 q 5 6 6 # 7 r f i $ . 7 M N c w q 4 7 q y y y @ # r r r _ !.                        C.K K K K 7 . i 8 r e e e q r y H H e + , H U H 9 O 7 4 7 c , q 4 4 7 7 7 $ , 7 4 7 4 4 4 4 4 , 4 4 q 5 6 , , , , , , , , , , , 4 6 5 4 6 6 6 5 6 5 q 4 , , 6 6 > > 5 6 > 6 6 6 4 5 5 6 4 5 6 > 6 5 6 > > , 6 , , , 5 5 6 6 5 5 4 4 5 5 5 6 5 6 6 > > 6 # # = 6 5 6 6 4 4 4 - $ 7 , , 2 3 M M 7 $ $ 7 $ + O $ $ + 7 H H r c 7 . $ _ r H H H I H H H r H r H r r y r r f f u i u p p p i i 0 0 0 0 y r q r r r H r r r 7 q r r r 7 7 r r r q 7 7 r 7 7 8 $ 7 7 r T.                                      ",
"                                      T.r r + $ $ 7 7 7 r r r r r 7 7 7 0 7 7 7 r r 7 7 q q q 7 9 9 e r i y u i u u u u u y u y 8 8 8 8 r r r r H r H 7 U , , r U _ r + 7 r r H H r $ $ 7 7 $ + O O O + $ 7 H K Q / / / ( ` ` ` K K I I I ! ! / ' ` ` ( ( ` ( / Q ! I I U I I I U I ! U I ! I _ ` ' ` ( / ` ` ` ` ' ' ' =.=.=.=.' ` ` ' ` ` ` ' ` ` ` ` ` ( / Q ! _ _ ! ! ! _ ` ! ! K -.` x.H c Z Z ( > 5 . Q Q Z x x P / P P ' ] ` / E _ ! c 4 > > # 9 H y y 7 . + % 7 8 7 - $ - 8 8 8 X . O e r r U !.                        C.I K K H 7 @ . 8 8 7 7 % - ; 8 r q 4 $ , c H r $ $ 7 O 7 U I / / I _ _ _ I I _ H H P I _ _ ` ` ! / _ ` ` ` ' ' ` _ ^ ^ ` ` ' ` ! I ! _ _ ! Q ` / ` ' ` _ ! ` ` ` ` -.] ` ` / / ` ` ' ` ` ` ` ! =.' ! K C P / ` Q / _ / _ / _ ` ( ` ( / / / / / ( Q ( ' ' ( / Q Z A Z E / _ W W f s U ! L L c $ $ $ $ O $ $ $ + $ 7 c c r c q + $ _ r H r 7 r r y H y J y H 8 8 r r 0 r y i y u N u i i i 0 0 0 0 0 r r r r r q r r r 7 q r r r 7 0 r r r 7 7 7 r 7 7 $ $ 7 r $ !.                                      ",
"                                      U.7 7 $ I $ 7 7 7 7 r 7 r 9 7 9 r r r 7 7 r r r r r q q q 7 7 7 q q r r r r r r r y r i r r q q q q r r r 7 r r H M $ A.7 H U r + $ r r r r H r 7 $ $ $ + . + o o o O O O # # + + + O O O $ + , $ $ , , 2 , , $ # > , , + $ $ # + # $ $ # + , , + $ 4 , , , , , $ $ $ , , # > # # # # # , , , , , > # , , , , , , , > # + + $ , + + + , , q , + , @ , + + $ $ + $ . . @ + + # + $ $ $ + $ $ O O $ 7 8 3 @ @ , 7 r C r r e . . . X @ + . . . . . @ . 8 y r r r I !.                        v.H r C c r r X . . . . . . . + + . . , e c C H s 4 O $ - $ O * $ $ $ $ , $ $ $ # # # # $ # # # , , , $ , $ $ $ , $ + + , , , , 3 @ , 7 2 , + 2 $ , 2 2 , , , , , @ 2 , , , , $ , , , , , , @ + @ $ $ # + + + + . + $ $ $ $ $ $ , , , , , , , , > + > , , # # # # # # o o = o o = o # o . . . . + + . . O $ $ + r c H c r c q + $ _ r H r 7 r H r r r y y y q 8 i i i 8 8 i y i i i 8 q 7 9 5 5 0 - q r q q q $ 7 7 9 7 7 q e 7 7 7 7 7 7 7 7 7 7 7 $ $ H $ 7 7 T.                                      ",
"                                      T.7 7 + $ 7 7 7 7 7 r r r 7 7 7 r r r r 7 r r r r r r q r q q q q q r 9 r r r r r y r y y r r r q q q r r r r H 7 r H r r H U r + $ r r r 7 H H 7 7 $ $ $ . . . . . . . . . . . . . . . . . . + . . + . + + + + . . . . . . . . . . . . . . . + . . . . . . . . . . . . . . + . . . . . . . . + + + + + + + . . . + + . . . + + . . . + # . . + . . . . $ + . . @ @ . @ + . + + . . . . . + O O X . . X @ @ $ 7 r r r c Z q , $ $ $ $ # # # > $ , 2 H H 7 7 7 U ^.                        A.H r H r c H 7 $ $ $ , , , , , 7 , 7 c H c r r I H $ . . . O . . . . . . . . . # # + . . . . . # + + + + + + + + + . . + + + + @ . . + + . . . . . @ @ + . . . + . + . . + + + . + + + + + @ . . + + + + . + + . . . . . . . + . . + + + + + + , . . . . . # $ + + . . . . . . . . . . . . . . . . + + + $ 7 7 H H c r r r q + $ W r r H r H H f r y r r r r 8 u i u i i y y y r r r 0 9 9 5 5 9 7 q 0 q q 7 % 7 q r 7 e r e e r 0 0 7 r r r 7 r r 7 $ $ 7 7 + T.                                      ",
"                                        r 7 r r 7 7 7 $ 7 7 7 7 7 7 7 9 r 7 7 7 7 7 7 7 q 7 7 7 7 7 7 7 7 7 q 0 0 0 r r y y r r q r r 7 8 8 7 r r 7 7 H r H H r r H r + $ r r 7 r f r r H r r q w q 7 * = * 7 7 , , 3 3 3 7 4 4 9 9 r 9 7 r 0 0 7 r r e 7 7 7 7 O * * * * * - * 7 7 9 9 9 9 * 9 4 7 7 q 7 4 4 4 q e q q 7 7 7 7 7 7 7 9 r r r 9 0 9 9 9 7 7 7 * 4 4 4 4 4 * 4 4 4 7 7 r 7 s 7 r r 4 C 7 c , r r r q 4 e r 7 7 r 7 8 ; ; ; 0 0 q w r r 0 9 q e e C 9 q q q e e x z v v e r r e 9 r 7 I VX                        Z.r r C c C c e e e e x v v v v c r H H H r r r C I H H s 0 f 0 r e 9 e e e e e 9 9 9 4 9 9 e e r r r e 9 7 9 9 9 9 9 9 9 9 9 e e 9 r 7 0 r r 0 r r r f H C r r r 8 q 8 7 7 7 7 7 7 7 7 7 7 q 7 r e q 7 7 7 7 7 7 7 7 7 , 7 7 7 7 7 9 e r e e e e 7 7 e 7 7 9 7 7 q q q 5 5 6 6 , , 7 7 7 $ O = * 7 7 7 7 r H H c r r q q r 7 $ 7 I r 0 r H H r r r r 7 r 7 r 0 y 0 0 i i 8 8 r r 0 r e 9 9 7 7 7 8 7 - 7 7 % 7 7 7 7 7 q e e e 7 7 7 7 7 7 7 7 r 7 $ 7 H 7 $ [                                         ",
"                                        T.r 7 $ 7 7 7 7 7 7 7 7 7 7 7 9 r 7 7 7 7 7 7 7 7 7 7 7 7 7 7 7 7 7 8 q 8 8 q 0 0 0 q 8 - 8 7 7 7 7 7 r 7 r r 0 r r r 7 r H 7 + $ r 7 $ 7 7 7 7 r 7 7 7 q 8 7 8 9 * * $ 7 2 3 q q q 5 7 7 7 9 7 8 0 8 8 7 e r 9 7 7 7 7 $ * 7 7 - 7 9 9 * * 7 9 9 7 * e 7 q q e q 7 7 7 7 7 7 7 7 7 7 7 9 9 9 9 r r r 9 8 7 9 9 9 7 * $ * 4 4 4 * 4 * * 7 * $ * $ 7 - 9 9 4 4 r e r 7 4 e e 4 4 4 4 $ 7 e 8 - ; ; ; 7 4 7 7 0 8 8 r x c 5 5 7 7 7 7 q x 5 x e , c q 9 s 7 7 _                           U.r r r r c q e 4 7 7 q e e x e q 9 r r r r r r r r 7 r 9 $ 7 r r 9 9 9 9 9 9 9 s r e 9 9 9 9 9 r r r 9 7 * * - 7 9 9 9 7 7 9 9 7 7 7 * - 0 8 ; 9 8 8 r r r q 7 r ; 0 9 8 8 4 * 7 7 7 - 7 8 7 7 q 7 q e r 7 7 $ 7 7 7 7 7 7 q 7 * * 7 9 7 7 7 7 7 7 7 8 7 7 8 7 q q q q 4 4 4 4 q 3 2 2 $ O = - $ $ 7 7 7 7 7 7 q q r r q r 7 + 7 H r 7 r r r r r 7 r 7 r 7 r 7 0 - - 0 8 8 8 8 8 7 9 9 7 q q 7 % 8 - $ % % $ 7 7 7 7 7 q q e q 7 7 7 7 7 7 7 7 7 7 7 r $ 7 _ ^.                                        ",
"                                            S.x.x.x.b.b.x.x.x.x.x.8.o.x.x.x.8.] ] ] ] | 3.| | | x.8.8.x.x.x.x.x.+.+.x.+.+.+.+.+.+.x.x.x.x.x.b.v.v.x.x.x.v.x.] v.x.b.x.[ ] x.x.] x.x.x.x.x.] ] x.x.o.-.-.-.8.8.c.x.x.+.x.x.x.x.x.] o.x.o.o.x.o.o.] -.x.-.] -.-.] ] ] ] ] ] ] +.] ] ] x.+.x.x.3.b.x.x.x.x.x.x.x.x.x.x.x.x.x.x.x.x.+.+.x.x.x.x.x.+.] ] ] ] x.+.] ] ] x.x.] x.x.x.] | ] b.-.x.] 3.x.+.] x.+.| 3.x.x.[ x.] [ ] x.x.x.x.x.x.+.o.8.c.c.x.-.x.o.] o.] -.=.8.| | | | | +.b.+.] ] x.x.x.x.b.v.Y.                            C.v.x.c.8.] ] ] | | | +.+.x.x.o.+.+.+.+.+.+.8.] c.c.x.x.b.x.[ x.x.x.x.x.x.c.c.x.x.3.] ] 8.x.-.] ] ] ] ] | +.+.] o.x.+.] ] ] 8.x.8.8.] ] o.] ] x.+.x.x.x.x.8.8.x.] x.x.8.o.] o.8.o.8.o.o.] x.x.x.x.] ] x.] +.+.x.+.+.] ] -.-.x.x.x.x.x.x.x.x.x.-.-.] ] [ ] ] ] ] ] ] [ [ ] -.x.] | 3.3.x.x.] +.x.] ] x.x.x.] [ x.x.x.x.-.-.] _ ] x.x.o.] +.x.x.x.x.b.x.b.x.b.x.x.+.+.x.x.+.+.+.+.+.+.x.b.x.c.x.x.x.+.] ] ] ] 3.x.x.x.x.x.x.x.c.x.x.x.x.x.x.x.x.x.x.] x.x.V.                                            ",
"                                                                                                                                                                                                                                                                                                                                                                                                                                                                                                                                                                                                                                                                                                                                                                                                                                                                                                                                                                                                                                        ",
"                                                                                                                                                                                                                                                                                                                                                                                                                                                                                                                                                                                                                                                                                                                                                                                                                                                                                                                                                                                                                                        ",
"                                                                                                                                                                                                                                                                                                                                                                                                                                                                                                                                                                                                                                                                                                                                                                                                                                                                                                                                                                                                                                        ",
"                                                                                                                                                                                                                                                                                                                                                                                                                                                                                                                                                                                                                                                                                                                                                                                                                                                                                                                                                                                                                                        ",
"                                                                                                                                                                                                                                                                                                                                                                                                                                                                                                                                                                                                                                                                                                                                                                                                                                                                                                                                                                                                                                        "
};
