/* XPM */
static char *_b6bbbaf74504d0ffd06e8a2bf040fa2fKFN8nK5u5NoecM1[] = {
/* columns rows colors chars-per-pixel */
"600 600 256 2 ",
"   c None",
".  c #020204",
"X  c #0A0505",
"o  c #05040A",
"O  c #09060B",
"+  c #06090D",
"@  c #0B090D",
"#  c #0C0807",
"$  c #120D0C",
"%  c #130906",
"&  c #040513",
"*  c #060913",
"=  c #0C0C13",
"-  c #03051B",
";  c #0C0D1A",
":  c #060919",
">  c #110E13",
",  c #110E19",
"<  c #0E111B",
"1  c #0E1015",
"2  c #131215",
"3  c #1A1514",
"4  c #14141B",
"5  c #19161B",
"6  c #1B1A1D",
"7  c #19181B",
"8  c #16110E",
"9  c #221D1D",
"0  c #221A15",
"q  c #24170C",
"w  c #26221E",
"e  c #32281B",
"r  c #060926",
"t  c #0C1124",
"y  c #0C122C",
"u  c #141523",
"i  c #1C1C23",
"p  c #1D1E29",
"a  c #151729",
"s  c #040A34",
"d  c #030B3A",
"f  c #091437",
"g  c #181B35",
"h  c #110E24",
"j  c #211E22",
"k  c #211E2A",
"l  c #211E33",
"z  c #1E2125",
"x  c #1E2029",
"c  c #1C2138",
"v  c #242224",
"b  c #2A2524",
"n  c #2D2926",
"m  c #24232A",
"M  c #29262A",
"N  c #26292C",
"B  c #2C2A2C",
"V  c #322D2C",
"C  c #322B26",
"Z  c #35312E",
"A  c #3A332D",
"S  c #242433",
"D  c #2C2B32",
"F  c #2C2A3A",
"G  c #262638",
"H  c #312E32",
"J  c #312E3B",
"K  c #343234",
"L  c #3A3533",
"P  c #3D3936",
"I  c #35333A",
"U  c #39363B",
"Y  c #3C3A3C",
"T  c #36383C",
"R  c #2F3135",
"E  c #1F211F",
"W  c #423B35",
"Q  c #433D3B",
"!  c #463D39",
"~  c #443A2D",
"^  c #45341C",
"/  c #46413D",
"(  c #4A433D",
")  c #4A4236",
"_  c #544735",
"`  c #695635",
"'  c #030D46",
"]  c #081648",
"[  c #051757",
"{  c #121C49",
"}  c #182548",
"|  c #182857",
" . c #0C2457",
".. c #282A46",
"X. c #343343",
"o. c #3C3B43",
"O. c #393847",
"+. c #2C3255",
"@. c #2E3353",
"#. c #031A67",
"$. c #021C75",
"%. c #000E66",
"&. c #132D68",
"*. c #062778",
"=. c #102F70",
"-. c #273768",
";. c #283A6F",
":. c #211D44",
">. c #413E43",
",. c #413E4A",
"<. c #423F52",
"1. c #314476",
"2. c #3D414D",
"3. c #444244",
"4. c #4A4543",
"5. c #4D4946",
"6. c #45434A",
"7. c #49464B",
"8. c #4D4A4C",
"9. c #47494B",
"0. c #524D4C",
"q. c #524B45",
"w. c #56514E",
"e. c #5A524D",
"r. c #4D4B52",
"t. c #474755",
"y. c #514E52",
"u. c #514E5B",
"i. c #555253",
"p. c #5A5554",
"a. c #5D5956",
"s. c #5A565A",
"d. c #5D5A5B",
"f. c #55535A",
"g. c #4E5158",
"h. c #635D5C",
"j. c #625B56",
"k. c #62564B",
"l. c #69625D",
"z. c #71675E",
"x. c #5B5963",
"c. c #4D5270",
"v. c #625E62",
"b. c #615E6B",
"n. c #625E70",
"m. c #656264",
"M. c #6B6563",
"N. c #6A666A",
"B. c #6D696B",
"V. c #696569",
"C. c #726A65",
"Z. c #736D6B",
"A. c #776D69",
"S. c #7B726D",
"D. c #76716E",
"F. c #6B6A74",
"G. c #726E73",
"H. c #757173",
"J. c #7B7473",
"K. c #7B777B",
"L. c #6E7079",
"P. c #5E6276",
"I. c #837A75",
"U. c #837C7B",
"Y. c #857B76",
"T. c #81766E",
"R. c #8E7547",
"E. c #8B827D",
"W. c #87807D",
"Q. c #91877E",
"!. c #A68E5D",
"~. c #032787",
"^. c #022A97",
"/. c #0F378C",
"(. c #0434A9",
"). c #0337B1",
"_. c #082386",
"`. c #154694",
"'. c #2E4D8F",
"]. c #0E4CB1",
"[. c #2B57A9",
"{. c #3364B3",
"}. c #1A65B9",
"|. c #506496",
" X c #747588",
".X c #4D679E",
"XX c #023BC9",
"oX c #003EE5",
"OX c #074ECF",
"+X c #116CD4",
"@X c #2870D2",
"#X c #0357E9",
"$X c #025AF6",
"%X c #044CE9",
"&X c #0267F8",
"*X c #0377F9",
"=X c #0A6FE9",
"-X c #2675E2",
";X c #4877C5",
":X c #827D83",
">X c #0387FA",
",X c #0497FA",
"<X c #1691EE",
"1X c #2B8DEB",
"2X c #05A7FA",
"3X c #05B7FB",
"4X c #17AFF6",
"5X c #2BA1E5",
"6X c #55A2E6",
"7X c #07C8FB",
"8X c #08D6FC",
"9X c #15D1F9",
"0X c #13E7FD",
"qX c #2AEBFC",
"wX c #38EDFC",
"eX c #2CD1F9",
"rX c #4FEFFB",
"tX c #6FF1FA",
"yX c #5DD3F7",
"uX c #7A849D",
"iX c #8C8483",
"pX c #898588",
"aX c #938A85",
"sX c #948D8B",
"dX c #938A85",
"fX c #9A928D",
"gX c #9C9593",
"hX c #999497",
"jX c #8F8B93",
"kX c #A49D9B",
"lX c #A39A95",
"zX c #A0958F",
"xX c #AAA19D",
"cX c #B1A69E",
"vX c #ABA5A5",
"bX c #B3ACA8",
"nX c #BAB2AD",
"mX c #BBB5B4",
"MX c #AFACB2",
"NX c #9899A6",
"BX c #C3BCB9",
"VX c #C9C1BE",
"CX c #8FF4FB",
"ZX c #ADF6FC",
"AX c #96D0F4",
"SX c #CBC5C3",
"DX c #D3CCC9",
"FX c #DBD6D5",
"GX c #D8D1CE",
"HX c #E2DCDB",
"JX c #CDFCFD",
"KX c #EAE7E6",
"LX c #F8F9F8",
"PX c #ECF5F5",
"IX c #E3DFDF",
"UX c #A5B7D2",
/* pixels */
"                                                                                                                                                                                                                                                                                                                                                                                                                                                                                                                                                                                                                                                                                                                                                                                                                                                                                                                                                                                                                                                                                                                                                                                                                                                ",
"                                                                                                                                                                                                                                                                                                                                                                                                                                                                                                                                                                                                                                                                                                                                                                                                                                                                                                                                                                                                                                                                                                                                                                                                                                                ",
"                                                                                                                                                                                                                                                                                                                                                                                                                                                                                                                                                                                                                                                                                                                                                                                                                                                                                                                                                                                                                                                                                                                                                                                                                                                ",
"                                                                                                                                                                                                                                                                                                                                                                                                                                                                                                                                                                                                                                                                                                                                                                                                                                                                                                                                                                                                                                                                                                                                                                                                                                                ",
"                                                                                                                                                                                                                                                                                                                                                                                                                                                                                                                                                                                                                                                                                                                                                                                                                                                                                                                                                                                                                                                                                                                                                                                                                                                ",
"                                                                                                                                                                                                                                                                                                                                                                                                                                                                                                                                                                                                                                                                                                                                                                                                                                                                                                                                                                                                                                                                                                                                                                                                                                                ",
"                                                                                                                                                                                                                                                                                                                                                                                                                                                                                                                                                                                                                                                                                                                                                                                                                                                                                                                                                                                                                                                                                                                                                                                                                                                ",
"                                                                                                                                                                                                                                                                                                                                                                                                                                                                                                                                                                                                                                                                                                                                                                                                                                                                                                                                                                                                                                                                                                                                                                                                                                                ",
"                                                                                                                                                                                                                                                                                                                                                                                                                                                                                                                                                                                                                                                                                                                                                                                                                                                                                                                                                                                                                                                                                                                                                                                                                                                ",
"                                                                                                                                                                                                                                                                                                                                                                                                                                                                                                                                                                                                                                                                                                                                                                                                                                                                                                                                                                                                                                                                                                                                                                                                                                                ",
"                                                                                                                                                                                                                                                                                                                                                                                                                                                                                                                                                                                                                                                                                                                                                                                                                                                                                                                                                                                                                                                                                                                                                                                                                                                ",
"                                                                                                                                                                                                                                                                                                                                                                                                                                                                                                                                                                                                                                                                                                                                                                                                                                                                                                                                                                                                                                                                                                                                                                                                                                                ",
"                                                                                                                                                                                                                                                                                                                                                                                                                                                                                                                                                                                                                                                                                                                                                                                                                                                                                                                                                                                                                                                                                                                                                                                                                                                ",
"                                                                                                                                                                                                                                                                                                                                                                                                                                                                                                                                                                                                                                                                                                                                                                                                                                                                                                                                                                                                                                                                                                                                                                                                                                                ",
"                                                                                                                                                                                                                                                                                                                                                                                                                                                                                                                                                                                                                                                                                                                                                                                                                                                                                                                                                                                                                                                                                                                                                                                                                                                ",
"                                                                                                                                                                                                                                                                                                                                                                                                                                                                                                                                                                                                                                                                                                                                                                                                                                                                                                                                                                                                                                                                                                                                                                                                                                                ",
"                                                                                                                                                                                                                                                                                                                                                                                                                                                                                                                                                                                                                                                                                                                                                                                                                                                                                                                                                                                                                                                                                                                                                                                                                                                ",
"                                                                                                                                                                                                                                                                                                                                                                                                                                                                                                                                                                                                                                                                                                                                                                                                                                                                                                                                                                                                                                                                                                                                                                                                                                                ",
"                                                                                                                                                                                                                                                                                                                                                                                                                                                                                                                                                                                                                                                                                                                                                                                                                                                                                                                                                                                                                                                                                                                                                                                                                                                ",
"                                                                                                                                                                                                                                                                                                                                                                                                                                                                                                                                                                                                                                                                                                                                                                                                                                                                                                                                                                                                                                                                                                                                                                                                                                                ",
"                                                                                                                                                                                                                                                                                                                                                                                                                                                                                                                                                                                                                                                                                                                                                                                                                                                                                                                                                                                                                                                                                                                                                                                                                                                ",
"                                                                                                                                                                                                                                                                                                                                                                                                                                                                                                                                                                                                                                                                                                                                                                                                                                                                                                                                                                                                                                                                                                                                                                                                                                                ",
"                                                                                                                                                                                                                                                                                                                                                                                                                                                                                                                                                                                                                                                                                                                                                                                                                                                                                                                                                                                                                                                                                                                                                                                                                                                ",
"                                                                                                                                                                                                                                                                                                                                                                                                                                                                                                                                                                                                                                                                                                                                                                                                                                                                                                                                                                                                                                                                                                                                                                                                                                                ",
"                                                                                                                                                                                                                                                                                                                                                                                                                                                                                                                                                                                                                                                                                                                                                                                                                                                                                                                                                                                                                                                                                                                                                                                                                                                ",
"                                                                                                                                                                                                                                                                                                                                                                                                                                                                                                                                                                                                                                                                                                                                                                                                                                                                                                                                                                                                                                                                                                                                                                                                                                                ",
"                                                                                                                                                                                                                                                                                                                                                                                                                                                                                                                                                                                                                                                                                                                                                                                                                                                                                                                                                                                                                                                                                                                                                                                                                                                ",
"                                                                                                                                                                                                                                                                                                                                                                                                                                                                                                                                                                                                                                                                                                                                                                                                                                                                                                                                                                                                                                                                                                                                                                                                                                                ",
"                                                                                                                                                                                                                                                                                                                                                                                                                                                                                                                                                                                                                                                                                                                                                                                                                                                                                                                                                                                                                                                                                                                                                                                                                                                ",
"                                                                                                                                                                                                                                                                                                                                                                                                                                                                                                                                                                                                                                                                                                                                                                                                                                                                                                                                                                                                                                                                                                                                                                                                                                                ",
"                                                                                                                                                                                                                                                                                                                                                                                                                                                                                                                                                                                                                                                                                                                                                                                                                                                                                                                                                                                                                                                                                                                                                                                                                                                ",
"                                                                                                                                                                                                                                                                                                                                                                                                                                                                                                                                                                                                                                                                                                                                                                                                                                                                                                                                                                                                                                                                                                                                                                                                                                                ",
"                                                                                                                                                                                                                                                                                                                                                                                                                                                                                                                                                                                                                                                                                                                                                                                                                                                                                                                                                                                                                                                                                                                                                                                                                                                ",
"                                                                                                                                                                                                                                                                                                                                                                                                                                                                                                                                                                                                                                                                                                                                                                                                                                                                                                                                                                                                                                                                                                                                                                                                                                                ",
"                                                                                                                                                                                                                                                                                                                                                                                                                                                                                                                                                                                                                                                                                                                                                                                                                                                                                                                                                                                                                                                                                                                                                                                                                                                ",
"                                                                                                                                                                                                                                                                                                                                                                                                                                                                                                                                                                                                                                                                                                                                                                                                                                                                                                                                                                                                                                                                                                                                                                                                                                                ",
"                                                                                                                                                                                                                                                                                                                                                                                                                                                                                                                                                                                                                                                                                                                                                                                                                                                                                                                                                                                                                                                                                                                                                                                                                                                ",
"                                                                                                                                                                                                                                                                                                                                                                                                                                                                                                                                                                                                                                                                                                                                                                                                                                                                                                                                                                                                                                                                                                                                                                                                                                                ",
"                                                                                                                                                                                                                                                                                                                                                                                                                                                                                                                                                                                                                                                                                                                                                                                                                                                                                                                                                                                                                                                                                                                                                                                                                                                ",
"                                                                                                                                                                                                                                                                                                                                                                                                                                                                                                                                                                                                                                                                                                                                                                                                                                                                                                                                                                                                                                                                                                                                                                                                                                                ",
"                                                                                                                                                                                                                                                                                                                                                                                                                                                                                                                                                                                                                                                                                                                                                                                                                                                                                                                                                                                                                                                                                                                                                                                                                                                ",
"                                                                                                                                                                                                                                                                                                                                                                                                                                                                                                                                                                                                                                                                                                                                                                                                                                                                                                                                                                                                                                                                                                                                                                                                                                                ",
"                                                                                                                                                                                                                                                                                                                                                                                                                                                                                                                                                                                                                                                                                                                                                                                                                                                                                                                                                                                                                                                                                                                                                                                                                                                ",
"                                                                                                                                                                                                                                                                                                                                                                                                                                                                                                                                                                                                                                                                                                                                                                                                                                                                                                                                                                                                                                                                                                                                                                                                                                                ",
"                                                                                                                                                                                                                                                                                                                                                                                                                                                                                                                                                                                                                                                                                                                                                                                                                                                                                                                                                                                                                                                                                                                                                                                                                                                ",
"                                                                                                                                                                                                                                                                                                                                                                                                                                                                                                                                                                                                                                                                                                                                                                                                                                                                                                                                                                                                                                                                                                                                                                                                                                                ",
"                                                                                                                                                                                                                                                                                                                                                                                                                                                                                                                                                                                                                                                                                                                                                                                                                                                                                                                                                                                                                                                                                                                                                                                                                                                ",
"                                                                                                                                                                                                                                                                                                                                                                                                                                                                                                                                                                                                                                                                                                                                                                                                                                                                                                                                                                                                                                                                                                                                                                                                                                                ",
"                                                                                                                                                                                                                                                                                                                                                                                                                                                                                                                                                                                                                                                                                                                                                                                                                                                                                                                                                                                                                                                                                                                                                                                                                                                ",
"                                                                                                                                                                                                                                                                                                                                                                                                                                                                                                                                                                                                                                                                                                                                                                                                                                                                                                                                                                                                                                                                                                                                                                                                                                                ",
"                                                                                                                                                                                                                                                                                                                                                                                                                                                                                                                                                                                                                                                                                                                                                                                                                                                                                                                                                                                                                                                                                                                                                                                                                                                ",
"                                                                                                                                                                                                                                                                                                                                                                                                                                                                                                                                                                                                                                                                                                                                                                                                                                                                                                                                                                                                                                                                                                                                                                                                                                                ",
"                                                                                                                                                                                                                                                                                                                                                                                                                                                                                                                                                                                                                                                                                                                                                                                                                                                                                                                                                                                                                                                                                                                                                                                                                                                ",
"                                                                                                                                                                                                                                                                                                                                                                                                                                                                                                                                                                                                                                                                                                                                                                                                                                                                                                                                                                                                                                                                                                                                                                                                                                                ",
"                                                                                                                                                                                                                                                                                                                                                                                                                                                                                                                                                                                                                                                                                                                                                                                                                                                                                                                                                                                                                                                                                                                                                                                                                                                ",
"                                                                                                                                                                                                                                                                                                                                                                                                                                                                                                                                                                                                                                                                                                                                                                                                                                                                                                                                                                                                                                                                                                                                                                                                                                                ",
"                                                                                                                                                                                                                                                                                                                                                                                                                                                                                                                                                                                                                                                                                                                                                                                                                                                                                                                                                                                                                                                                                                                                                                                                                                                ",
"                                                                                                                                                                                                                                                                                                                                                                                                                                                                                                                                                                                                                                                                                                                                                                                                                                                                                                                                                                                                                                                                                                                                                                                                                                                ",
"                                                                                                                                                                                                                                                                                                                                                                                                                                                                                                                                                                                                                                                                                                                                                                                                                                                                                                                                                                                                                                                                                                                                                                                                                                                ",
"                                                                                                                                                                                                                                                                                                                                                                                                                                                                                                                                                                                                                                                                                                                                                                                                                                                                                                                                                                                                                                                                                                                                                                                                                                                ",
"                                                                                                                                                                                                                                                                                                                                                                                                                                                                                                                                                                                                                                                                                                                                                                                                                                                                                                                                                                                                                                                                                                                                                                                                                                                ",
"                                                                                                                                                                                                                                                                                                                                                                                                                                                                                                                                                                                                                                                                                                                                                                                                                                                                                                                                                                                                                                                                                                                                                                                                                                                ",
"                                                                                                                                                                                                                                                                                                                                                                                                                                                                                                                                                                                                                                                                                                                                                                                                                                                                                                                                                                                                                                                                                                                                                                                                                                                ",
"                                                                                                                                                                                                                                                                                                                                                                                                                                                                                                                                                                                                                                                                                                                                                                                                                                                                                                                                                                                                                                                                                                                                                                                                                                                ",
"                                                                                                                                                                                                                                                                                                                                                                                                                                                                                                                                                                                                                                                                                                                                                                                                                                                                                                                                                                                                                                                                                                                                                                                                                                                ",
"                                                                                                                                                                                                                                                                                                                                                                                                                                                                                                                                                                                                                                                                                                                                                                                                                                                                                                                                                                                                                                                                                                                                                                                                                                                ",
"                                                                                                                                                                                                                                                                                                                                                                                                                                                                                                                                                                                                                                                                                                                                                                                                                                                                                                                                                                                                                                                                                                                                                                                                                                                ",
"                                                                                                                                                                                                                                                                                                                                                                                                                                                                                                                                                                                                                                                                                                                                                                                                                                                                                                                                                                                                                                                                                                                                                                                                                                                ",
"                                                                                                                                                                                                                                                                                                                                                                                                                                                                                                                                                                                                                                                                                                                                                                                                                                                                                                                                                                                                                                                                                                                                                                                                                                                ",
"                                                                                                                                                                                                                                                                                                                                                                                                                                                                                                                                                                                                                                                                                                                                                                                                                                                                                                                                                                                                                                                                                                                                                                                                                                                ",
"                                                                                                                                                                                                                                                                                                                                                                                                                                                                                                                                                                                                                                                                                                                                                                                                                                                                                                                                                                                                                                                                                                                                                                                                                                                ",
"                                                                                                                                                                                                                                                                                                                                                                                                                                                                                                                                                                                                                                                                                                                                                                                                                                                                                                                                                                                                                                                                                                                                                                                                                                                ",
"                                                                                                                                                                                                                                                                                                                                                                                                                                                                                                                                                                                                                                                                                                                                                                                                                                                                                                                                                                                                                                                                                                                                                                                                                                                ",
"                                                                                                                                                                                                                                                                                                                                                                                                                                                                                                                                                                                                                                                                                                                                                                                                                                                                                                                                                                                                                                                                                                                                                                                                                                                ",
"                                                                                                                                                                                                                                                                                                                                                                                                                                                                                                                                                                                                                                                                                                                                                                                                                                                                                                                                                                                                                                                                                                                                                                                                                                                ",
"                                                                                                                                                                                                                                                                                                                                                                                                                                                                                                                                                                                                                                                                                                                                                                                                                                                                                                                                                                                                                                                                                                                                                                                                                                                ",
"                                                                                                                                                                                                                                                                                                                                                                                                                                                                                                                                                                                                                                                                                                                                                                                                                                                                                                                                                                                                                                                                                                                                                                                                                                                ",
"                                                                                                                                                                                                                                                                                                                                                                                                                                                                                                                                                                                                                                                                                                                                                                                                                                                                                                                                                                                                                                                                                                                                                                                                                                                ",
"                                                                                                                                                                                                                                                                                                                                                                                                                                                                                                                                                                                                                                                                                                                                                                                                                                                                                                                                                                                                                                                                                                                                                                                                                                                ",
"                                                                                                                                                                                                                                                                                                                                                                                                                                                                                                                                                                                                                                                                                                                                                                                                                                                                                                                                                                                                                                                                                                                                                                                                                                                ",
"                                                                                                                                                                                                                                                                                                                                                                                                                                                                                                                                                                                                                                                                                                                                                                                                                                                                                                                                                                                                                                                                                                                                                                                                                                                ",
"                                                                                                                                                                                                                                                                                                                                                                                                                                                                                                                                                                                                                                                                                                                                                                                                                                                                                                                                                                                                                                                                                                                                                                                                                                                ",
"                                                                                                                                                                                                                                                                                                                                                                                                                                                                                                                                                                                                                                                                                                                                                                                                                                                                                                                                                                                                                                                                                                                                                                                                                                                ",
"                                                                                                                                                                                                                                                                                                                                                                                                                                                                                                                                                                                                                                                                                                                                                                                                                                                                                                                                                                                                                                                                                                                                                                                                                                                ",
"                                                                                                                                                                                                                                                                                                                                                                                                                                                                                                                                                                                                                                                                                                                                                                                                                                                                                                                                                                                                                                                                                                                                                                                                                                                ",
"                                                                                                                                                                                                                                                                                                                                                                                                                                                                                                                                                                                                                                                                                                                                                                                                                                                                                                                                                                                                                                                                                                                                                                                                                                                ",
"                                                                                                                                                                                                                                                                                                                                                                                                                                                                                                                                                                                                                                                                                                                                                                                                                                                                                                                                                                                                                                                                                                                                                                                                                                                ",
"                                                                                                                                                                                                                                                                                                                                                                                                                                                                                                                                                                                                                                                                                                                                                                                                                                                                                                                                                                                                                                                                                                                                                                                                                                                ",
"                                                                                                                                                                                                                                                                                                                                                                                                                                                                                                                                                                                                                                                                                                                                                                                                                                                                                                                                                                                                                                                                                                                                                                                                                                                ",
"                                                                                                                                                                                                                                                                                                                                                                                                                                                                                                                                                                                                                                                                                                                                                                                                                                                                                                                                                                                                                                                                                                                                                                                                                                                ",
"                                                                                                                                                                                                                                                                                                                                                                                                                                                                                                                                                                                                                                                                                                                                                                                                                                                                                                                                                                                                                                                                                                                                                                                                                                                ",
"                                                                                                                                                                                                                                                                                                                                                                                                                                                                                                                                                                                                                                                                                                                                                                                                                                                                                                                                                                                                                                                                                                                                                                                                                                                ",
"                                                                                                                                                                                                                                                                                                                                                                                                                                                                                                                                                                                                                                                                                                                                                                                                                                                                                                                                                                                                                                                                                                                                                                                                                                                ",
"                                                                                                                                                                                                                                                                                                                                                                                                                                                                                                                                                                                                                                                                                                                                                                                                                                                                                                                                                                                                                                                                                                                                                                                                                                                ",
"                                                                                                                                                                                                                                                                                                                                                                                                                                                                                                                                                                                                                                                                                                                                                                                                                                                                                                                                                                                                                                                                                                                                                                                                                                                ",
"                                                                                                                                                                                                                                                                                                                                                                                                                                                                                                                                                                                                                                                                                                                                                                                                                                                                                                                                                                                                                                                                                                                                                                                                                                                ",
"                                                                                                                                                                                                                                                                                                                                                                                                                                                                                                                                                                                                                                                                                                                                                                                                                                                                                                                                                                                                                                                                                                                                                                                                                                                ",
"                                                                                                                                                                                                                                                                                                                                                                                                                                                                                                                                                                                                                                                                                                                                                                                                                                                                                                                                                                                                                                                                                                                                                                                                                                                ",
"                                                                                                                                                                                                                                                                                                                                                                                                                                                                                                                                                                                                                                                                                                                                                                                                                                                                                                                                                                                                                                                                                                                                                                                                                                                ",
"                                                                                                                                                                                                                                                                                                                                                                                                                                                                                                                                                                                                                                                                                                                                                                                                                                                                                                                                                                                                                                                                                                                                                                                                                                                ",
"                                                                                                                                                                                                                                                                                                                                                                                                                                                                                                                                                                                                                                                                                                                                                                                                                                                                                                                                                                                                                                                                                                                                                                                                                                                ",
"                                                                                                                                                                                                                                                                                                                                                                                                                                                                                                                                                                                                                                                                                                                                                                                                                                                                                                                                                                                                                                                                                                                                                                                                                                                ",
"                                                                                                                                                                                                                                                                                                                                                                                                                                                                                                                                                                                                                                                                                                                                                                                                                                                                                                                                                                                                                                                                                                                                                                                                                                                ",
"                                                                                                                                                                                                                                                                                                                                                                                                                                                                                                                                                                                                                                                                                                                                                                                                                                                                                                                                                                                                                                                                                                                                                                                                                                                ",
"                                                                                                                                                                                                                                                                                                                                                                                                                                                                                                                                                                                                                                                                                                                                                                                                                                                                                                                                                                                                                                                                                                                                                                                                                                                ",
"                                                                                                                                                                                                                                                                                                                                                                                                                                                                                                                                                                                                                                                                                                                                                                                                                                                                                                                                                                                                                                                                                                                                                                                                                                                ",
"                                                                                                                                                                                                                                                                                                                                                                                                                                                                                                                                                                                                                                                                                                                                                                                                                                                                                                                                                                                                                                                                                                                                                                                                                                                ",
"                                                                                                                                                                                                                                                                                                                                                                                                                                                                                                                                                                                                                                                                                                                                                                                                                                                                                                                                                                                                                                                                                                                                                                                                                                                ",
"                                                                                                                                                                                                                                                                                                                                                                                                                                                                                                                                                                                                                                                                                                                                                                                                                                                                                                                                                                                                                                                                                                                                                                                                                                                ",
"                                                                                                                                                                                                                                                                                                                                                                                                                                                                                                                                                                                                                                                                                                                                                                                                                                                                                                                                                                                                                                                                                                                                                                                                                                                ",
"                                                                                                                                                                                                                                                                                                                                                                                                                                                                                                                                                                                                                                                                                                                                                                                                                                                                                                                                                                                                                                                                                                                                                                                                                                                ",
"                                                                                                                                                                                                                                                                                                                                                                                                                                                                                                                                                                                                                                                                                                                                                                                                                                                                                                                                                                                                                                                                                                                                                                                                                                                ",
"                                                                                                                                                                                                                                                                                                                                                                                                                                                                                                                                                                                                                                                                                                                                                                                                                                                                                                                                                                                                                                                                                                                                                                                                                                                ",
"                                                                                                                                                                                                                                                                                                                                                                                                                                                                                                                                                                                                                                                                                                                                                                                                                                                                                                                                                                                                                                                                                                                                                                                                                                                ",
"                                                                                                                                                                                                                                                                                                                                                                                                                                                                                                                                                                                                                                                                                                                                                                                                                                                                                                                                                                                                                                                                                                                                                                                                                                                ",
"                                                                                                                                                                                                                                                                                                                                                                                                                                                                                                                                                                                                                                                                                                                                                                                                                                                                                                                                                                                                                                                                                                                                                                                                                                                ",
"                                                                                                                                                                                                                                                                                                                                                                                                                                                                                                                                                                                                                                                                                                                                                                                                                                                                                                                                                                                                                                                                                                                                                                                                                                                ",
"                                                                                                                                                                                                                                                                                                                                                                                                                                                                                                                                                                                                                                                                                                                                                                                                                                                                                                                                                                                                                                                                                                                                                                                                                                                ",
"                                                                                                                                                                                                                                                                                                                                                                                                                                                                                                                                                                                                                                                                                                                                                                                                                                                                                                                                                                                                                                                                                                                                                                                                                                                ",
"                                                                                                                                                                                                                                                                                                                                                                                                                                                                                                                                                                                                                                                                                                                                                                                                                                                                                                                                                                                                                                                                                                                                                                                                                                                ",
"                                                                                                                                                                                                                                                                                                                                                                                                                                                                                                                                                                                                                                                                                                                                                                                                                                                                                                                                                                                                                                                                                                                                                                                                                                                ",
"                                                                                                                                                                                                                                                                                                                                                                                                                                                                                                                                                                                                                                                                                                                                                                                                                                                                                                                                                                                                                                                                                                                                                                                                                                                ",
"                                                                                                                                                                                                                                                                                                                                                                                                                                                                                                                                                                                                                                                                                                                                                                                                                                                                                                                                                                                                                                                                                                                                                                                                                                                ",
"                                                                                                                                                                                                                                                                                                                                                                                                                                                                                                                                                                                                                                                                                                                                                                                                                                                                                                                                                                                                                                                                                                                                                                                                                                                ",
"                                                                                                                                                                                                                                                                                                                                                                                                                                                                                                                                                                                                                                                                                                                                                                                                                                                                                                                                                                                                                                                                                                                                                                                                                                                ",
"                                                                                                                                                                                                                                                                                                                                                                                                                                                                                                                                                                                                                                                                                                                                                                                                                                                                                                                                                                                                                                                                                                                                                                                                                                                ",
"                                                                                                                                                                                                                                                                                                                                                                                                                                                                                                                                                                                                                                                                                                                                                                                                                                                                                                                                                                                                                                                                                                                                                                                                                                                ",
"                                                                                                                                                                                                                                                                                                                                                                                                                                                                                                                                                                                                                                                                                                                                                                                                                                                                                                                                                                                                                                                                                                                                                                                                                                                ",
"                                                                                                                                                                                                                                                                                                                                                                                                                                                                                                                                                                                                                                                                                                                                                                                                                                                                                                                                                                                                                                                                                                                                                                                                                                                ",
"                                                                                                                                                                                                                                                                                                                                                                                                                                                                                                                                                                                                                                                                                                                                                                                                                                                                                                                                                                                                                                                                                                                                                                                                                                                ",
"                                                                                                                                                                                                                                                                                                                                                                                                                                                                                                                                                                                                                                                                                                                                                                                                                                                                                                                                                                                                                                                                                                                                                                                                                                                ",
"                                                                                                                                                                                                                                                                                                                                                                                                                                                                                                                                                                                                                                                                                                                                                                                                                                                                                                                                                                                                                                                                                                                                                                                                                                                ",
"                                                                                                                                                                                                                                                                                                                                                                                                                                                                                                                                                                                                                                                                                                                                                                                                                                                                                                                                                                                                                                                                                                                                                                                                                                                ",
"                                                                                                                                                                                                                                                                                                                                                                                                                                                                                                                                                                                                                                                                                                                                                                                                                                                                                                                                                                                                                                                                                                                                                                                                                                                ",
"                                                                                                                                                                                                                                                                                                                                                                                                                                                                                                                                                                                                                                                                                                                                                                                                                                                                                                                                                                                                                                                                                                                                                                                                                                                ",
"                                                                                                                                                                                                                                                                                                                                                                                                                                                                                                                                                                                                                                                                                                                                                                                                                                                                                                                                                                                                                                                                                                                                                                                                                                                ",
"                                                                                                                                                                                                                                                                                                                                                                                                                                                                                                                                                                                                                                                                                                                                                                                                                                                                                                                                                                                                                                                                                                                                                                                                                                                ",
"                                                                                                                                                                                                                                                                                                                                                                                                                                                                                                                                                                                                                                                                                                                                                                                                                                                                                                                                                                                                                                                                                                                                                                                                                                                ",
"                                                                                                                                                                                                                                                                                                                                                                                                                                                                                                                                                                                                                                                                                                                                                                                                                                                                                                                                                                                                                                                                                                                                                                                                                                                ",
"                                                                                                                                                                                                                                                                                                                                                                                                                                                                                                                                                                                                                                                                                                                                                                                                                                                                                                                                                                                                                                                                                                                                                                                                                                                ",
"                                                                                                                                                                                                                                                                                                                                                                                                                                                                                                                                                                                                                                                                                                                                                                                                                                                                                                                                                                                                                                                                                                                                                                                                                                                ",
"                                                                                                                                                                                                                                                                                                                                                                                                                                                                                                                                                                                                                                                                                                                                                                                                                                                                                                                                                                                                                                                                                                                                                                                                                                                ",
"                                                                                                                                                                                                                                                                                                                                                                                                                                                                                                                                                                                                                                                                                                                                                                                                                                                                                                                                                                                                                                                                                                                                                                                                                                                ",
"                                                                                                                                                                                                                                                                                                                                                                                                                                                                                                                                                                                                                                                                                                                                                                                                                                                                                                                                                                                                                                                                                                                                                                                                                                                ",
"                                                                                                                                                                                                                                                                                                                                                                                                                                                                                                                                                                                                                                                                                                                                                                                                                                                                                                                                                                                                                                                                                                                                                                                                                                                ",
"                                                                                                                                                                                                                                                                                                                                                                                                                                                                                                                                                                                                                                                                                                                                                                                                                                                                                                                                                                                                                                                                                                                                                                                                                                                ",
"                                                                                                                                                                                                                                                                                                                                                                                                                                                                                                                                                                                                                                                                                                                                                                                                                                                                                                                                                                                                                                                                                                                                                                                                                                                ",
"                                                                                                                                                                                                                                                                                                                                                                                                                                                                                                                                                                                                                                                                                                                                                                                                                                                                                                                                                                                                                                                                                                                                                                                                                                                ",
"                                                                                                                                                                                                                                                                                                                                                                                                                                                                                                                                                                                                                                                                                                                                                                                                                                                                                                                                                                                                                                                                                                                                                                                                                                                ",
"                                                                                                                                                                                                                                                                                                                                                                                                                                                                                                                                                                                                                                                                                                                                                                                                                                                                                                                                                                                                                                                                                                                                                                                                                                                ",
"                                                                                                                                                                                                                                                                                                                                                                                                                                                                                                                                                                                                                                                                                                                                                                                                                                                                                                                                                                                                                                                                                                                                                                                                                                                ",
"                                                                                                                                                                                                                                                                                                                                                                                                                                                                                                                                                                                                                                                                                                                                                                                                                                                                                                                                                                                                                                                                                                                                                                                                                                                ",
"                                                                                                                                                                                                                                                                                                                                                                                                                                                                                                                                                                                                                                                                                                                                                                                                                                                                                                                                                                                                                                                                                                                                                                                                                                                ",
"                                                                                                                                                                                                                                                                                                                                                                                                                                                                                                                                                                                                                                                                                                                                                                                                                                                                                                                                                                                                                                                                                                                                                                                                                                                ",
"                                                                                                                                                                                                                                                                                                                                                                                                                                                                                                                                                                                                                                                                                                                                                                                                                                                                                                                                                                                                                                                                                                                                                                                                                                                ",
"                                                                                                                                                                                                                                                                                                                                                                                                                                                                                                                                                                                                                                                                                                                                                                                                                                                                                                                                                                                                                                                                                                                                                                                                                                                ",
"                                                                                                                                                                                                                                                                                                                                                                                                                                                                                                                                                                                                                                                                                                                                                                                                                                                                                                                                                                                                                                                                                                                                                                                                                                                ",
"                                                                                                                                                                                                                                                                                                                                                                                                                                                                                                                                                                                                                                                                                                                                                                                                                                                                                                                                                                                                                                                                                                                                                                                                                                                ",
"                                                                                                                                                                                                                                                                                                                                                                                                                                                                                                                                                                                                                                                                                                                                                                                                                                                                                                                                                                                                                                                                                                                                                                                                                                                ",
"                                                                                                                                                                                                                                                                                                                                                                                                                                                                                                                                                                                                                                                                                                                                                                                                                                                                                                                                                                                                                                                                                                                                                                                                                                                ",
"                                                                                                                                                                                                                                                                                                                                                                                                                                                                                                                                                                                                                                                                                                                                                                                                                                                                                                                                                                                                                                                                                                                                                                                                                                                ",
"                                                                                                                                                                                                                                                                                                                                                                                                                                                                                                                                                                                                                                                                                                                                                                                                                                                                                                                                                                                                                                                                                                                                                                                                                                                ",
"                                                                                                                                                                                                                                                                                                                                                                                                                                                                                                                                                                                                                                                                                                                                                                                                                                                                                                                                                                                                                                                                                                                                                                                                                                                ",
"                                                                                                                                                                                                                                                                                                                                                                                                                                                                                                                                                                                                                                                                                                                                                                                                                                                                                                                                                                                                                                                                                                                                                                                                                                                ",
"                                                                                                                                                                                                                                                                                                                                                                                                                                                                                                                                                                                                                                                                                                                                                                                                                                                                                                                                                                                                                                                                                                                                                                                                                                                ",
"                                                                                                                                                                                                                                                                                                                                                                                                                                                                                                                                                                                                                                                                                                                                                                                                                                                                                                                                                                                                                                                                                                                                                                                                                                                ",
"                                                                                                                                                                                                                                                                                                                                                                                                                                                                                                                                                                                                                                                                                                                                                                                                                                                                                                                                                                                                                                                                                                                                                                                                                                                ",
"                                                                                                                                                                                                                                                                                                                                                                                                                                                                                                                                                                                                                                                                                                                                                                                                                                                                                                                                                                                                                                                                                                                                                                                                                                                ",
"                                                                                                                                                                                                                                                                                                                                                                                                                                                                                                                                                                                                                                                                                                                                                                                                                                                                                                                                                                                                                                                                                                                                                                                                                                                ",
"                                                                                                                                                                                                                                                                                                                                                                                                                                                                                                                                                                                                                                                                                                                                                                                                                                                                                                                                                                                                                                                                                                                                                                                                                                                ",
"                                                                                                                                                                                                                                                                                                                                                                                                                                                                                                                                                                                                                                                                                                                                                                                                                                                                                                                                                                                                                                                                                                                                                                                                                                                ",
"                                                                                                                                                                                                                                                                                                                                                                                                                                                                                                                                                                                                                                                                                                                                                                                                                                                                                                                                                                                                                                                                                                                                                                                                                                                ",
"                                                                                                                                                                                                                                                                                                                                                                                                                                                                                                                                                                                                                                                                                                                                                                                                                                                                                                                                                                                                                                                                                                                                                                                                                                                ",
"                                                                                                                                                                                                                                                                                                                                                                                                                                                                                                                                                                                                                                                                                                                                                                                                                                                                                                                                                                                                                                                                                                                                                                                                                                                ",
"                                                                                                                                                                                                                                                                                                                                                                                                                                                                                                                                                                                                                                                                                                                                                                                                                                                                                                                                                                                                                                                                                                                                                                                                                                                ",
"                                                                                                                                                                                                                                                                                                                                                                                                                                                                                                                                                                                                                                                                                                                                                                                                                                                                                                                                                                                                                                                                                                                                                                                                                                                ",
"                                                                                                                                                                                                                                                                                                                                                                                                                                                                                                                                                                                                                                                                                                                                                                                                                                                                                                                                                                                                                                                                                                                                                                                                                                                ",
"                                                                                                                                                                                                                                                                                                                                                                                                                                                                                                                                                                                                                                                                                                                                                                                                                                                                                                                                                                                                                                                                                                                                                                                                                                                ",
"                                                                                                                                                                                                                                                                                                                                                                                                                                                                                                                                                                                                                                                                                                                                                                                                                                                                                                                                                                                                                                                                                                                                                                                                                                                ",
"                                                                                                                                                                                                                                                                                                                                                                                                                                                                                                                                                                                                                                                                                                                                                                                                                                                                                                                                                                                                                                                                                                                                                                                                                                                ",
"                                                                                                                                                                                                                                                                                                                                                                                                                                                                                                                                                                                                                                                                                                                                                                                                                                                                                                                                                                                                                                                                                                                                                                                                                                                ",
"                                                                                                                                                                                                                                                                                                                                                                                                                                                                                                                                                                                                                                                                                                                                                                                                                                                                                                                                                                                                                                                                                                                                                                                                                                                ",
"                                                                                                                                                                                                                                                                                                                                                                                                                                                                                                                                                                                                                                                                                                                                                                                                                                                                                                                                                                                                                                                                                                                                                                                                                                                ",
"                                                                                                                                                                                                                                                                                                                                                                                                                                                                                                                                Z.pXJ.J.m.h.j.h.h.v.h.h.h.h.d.h.h.d.d.d.a.a.a.h.d.d.d.d.d.d.a.a.i.0.0.N.                                                                                                                                                                                                                                                                                                                                                                                                                                                                                                                                                                                                                                        ",
"                                                                                                                                                                                                                                                                                                                                                                                                                                                                                                                              W.aXmXHXDXSXBXmXbXbXnXbXvXbXvXvXmXVXmXvXvXvXvXvXMXvXvXvXvXvXvXhXhXhXhXhXsXiX%                                                                                                                                                                                                                                                                                                                                                                                                                                                                                                                                                                                                                                     ",
"                                                                                                                                                                                                                                                                                                                                                                                                                                                                                                                            H.U.U.K.iXmXKXFXmXvXvXGXMXkXfXjXjXjXhXhXpXhXgXjXjXjXpXhXhXpXpX:XjXjXjXhXhXsXU.p.                                                                                                                                                                                                                                                                                                                                                                                                                                                                                                                                                                                                                                    ",
"                                                                                                                                                                                                                                                                                                                                                                                                                                                                                                                          w.U.U.K.D.B.GXPXFXSXvXvXFXmXhXjXsXpXjXhXhXhXkXkXjXZ.G.K.pXjX:XN.G.hXpXjXvXvXmXK.v.4.                                                                                                                                                                                                                                                                                                                                                                                                                                                                                                                                                                                                                                  ",
"                                                                                                                                                                                                                                                                                                                                                                                                                                                                                                                          Z.Z.H.D.pXPXSXY V v v b K D D D B D D I Y Y Y U U U K K K H K D D N v M D H b B K.d.5.                                                                                                                                                                                                                                                                                                                                                                                                                                                                                                                                                                                                                                ",
"                                                                                                                                                                                                                                                                                                                                                                                                                                                                                                                      p.C.C.Z.N.mXFXsXG.Q B n 9 j v M M v j j j j M M M M M M M v m M v j v i 5 j M B v B p.a.h.4.                                                                                                                                                                                                                                                                                                                                                                                                                                                                                                                                                                                                                              ",
"                                                                                                                                                                                                                                                                                                                                                                                                                                                                                                                      C.B.Z.Z.J.mXKXiX4.Z b 6 6 6 6 B M v i i j > 3 5 6 6 6 i i 4 5 5 5 5 5 4 4 i b M M M B a.m.M.U                                                                                                                                                                                                                                                                                                                                                                                                                                                                                                                                                                                                                             ",
"                                                                                                                                                                                                                                                                                                                                                                                                                                                                                                                  8.Z.N.M.M.Z.KXDX5./ K b b 9 X . . . . . o o o o o o o o o o o o o o o o o . . o o v D B M j 4.U.d.3.                                                                                                                                                                                                                                                                                                                                                                                                                                                                                                                                                                                                                          ",
"                                                                                                                                                                                                                                                                                                                                                                                                                                                                                                                  a.C.N.M.K.BXnXC.Q K V v 3 # . X . . . . . o o o o o o o o o o o o o o o . o . o o = # j M j H / d.a.L                                                                                                                                                                                                                                                                                                                                                                                                                                                                                                                                                                                                                         ",
"                                                                                                                                                                                                                                                                                                                                                                                                                                                                                                                h.N.J.J.J.lXKXnXL L n v B @ X o o o o + @ + + + o . . . o o o o o + + + + + # . . . . . 5 M v v w p.a.4.L                                                                                                                                                                                                                                                                                                                                                                                                                                                                                                                                                                                                                       ",
"                                                                                                                                                                                                                                                                                                                                                                                                                                                                                                              3 0.j.iXJ.VXLXiXi.b 9 b v = . + o . @ m m m i u u 7 = = = = : : u 4 u u u i i i = . . . . o 6 V M K b / j.M.d.                                                                                                                                                                                                                                                                                                                                                                                                                                                                                                                                                                                                                    ",
"                                                                                                                                                                                                                                                                                                                                                                                                                                                                                                            0.H.W.S.Q L 0.G.0.K b 6 v 5 o . . v Y o.B B K D D D N m z D S S S S S F F D N i D M > o . . . # 6 M B B K 0.h.h.                                                                                                                                                                                                                                                                                                                                                                                                                                                                                                                                                                                                                    ",
"                                                                                                                                                                                                                                                                                                                                                                                                                                                                                                            / N.C.D.A P K C v 6 v 6 j . o o 2 m K N i m H M M M M M v D N m m m i N M M N i M m 6 4 + . . . X M H H v 0.i.4.4.2                                                                                                                                                                                                                                                                                                                                                                                                                                                                                                                                                                                                                 ",
"                                                                                                                                                                                                                                                                                                                                                                                                                                                                                                            V K Y Q M.W.8.b b j v 6 . . o @ M v m o + o o . . o . . . . o o . . o + * * o o o 2 z N = o . . . # H L j 0.B 9 M 3                                                                                                                                                                                                                                                                                                                                                                                                                                                                                                                                                                                                                 ",
"                                                                                                                                                                                                                                                                                                                                                                                                                                                                                                            H Y Y Q Y kXi.b M M 2 + . . @ R o.v 2 # # o o . . X X . . . o o o . o o + + o o o + 1 i m 4 @ . . . > 6 B U i j I 5                                                                                                                                                                                                                                                                                                                                                                                                                                                                                                                                                                                                                 ",
"                                                                                                                                                                                                                                                                                                                                                                                                                                                                                                            H Y Y Q P kXi.6 M B = . . o B ,.N < = # X X o + & & : : r r s s r r - & + + + o o o o 4 m i 4 o X X . > H M v v K 3                                                                                                                                                                                                                                                                                                                                                                                                                                                                                                                                                                                                                 ",
"                                                                                                                                                                                                                                                                                                                                                                                                                                                                                                            V P P Q P hXi.5 v M = o . i D I i ; * - & - - r s f ] ] [ #.#.#.[ [ ' ' s - - r r - o o u X.D # # o . > H B v v K 2                                                                                                                                                                                                                                                                                                                                                                                                                                                                                                                                                                                                                 ",
"                                                                                                                                                                                                                                                                                                                                                                                                                                                                                                            V Y P Q Y hXp.5 v M = o . i m i & & & ' d s r *.`.].}.OX+X1X1X+X].OX}.].*.s r d =.s o . + h u * # . . > H B v v K 2                                                                                                                                                                                                                                                                                                                                                                                                                                                                                                                                                                                                                 ",
"                                                                                                                                                                                                                                                                                                                                                                                                                                                                                                            B Y P Q Q xXd.6 v B = o . i p 6 . & s /.&.s r `.+X+X+X<X5XeXyXeX+X+X+X@X`.r r ] OX#.- * o u a - o o . = H B b v B >                                                                                                                                                                                                                                                                                                                                                                                                                                                                                                                                                                                                                 ",
"                                                                                                                                                                                                                                                                                                                                                                                                                                                                                                            b L L Q Q xXd.v B B = . o u i 6 o r ] @X=.s s ' ' ] f ]  . . . . .] ] ] s - r [ @X(.] - + 4 a - o . . 2 I K B v M @                                                                                                                                                                                                                                                                                                                                                                                                                                                                                                                                                                                                                 ",
"                                                                                                                                                                                                                                                                                                                                                                                                                                                                                                            M L L L P xXd.b I B = o o i x i o s [ &.d s s y s s r r r y y y f s r - : t r ] /.~. .- * 4 a - o . . 2 I H D N N +                                                                                                                                                                                                                                                                                                                                                                                                                                                                                                                                                                                                                 ",
"                                                                                                                                                                                                                                                                                                                                                                                                                                                                                                            b Y L L Q vXh.M N B = o o u p i o r f r r d d ' ' [ ' d ' ' d f s s s s ' [ ' r s [ ] - = u p : o o . 5 T I o.B M =                                                                                                                                                                                                                                                                                                                                                                                                                                                                                                                                                                                                                 ",
"                                                                                                                                                                                                                                                                                                                                                                                                                                                                                                            v V P L 3.vXM.M M B = o . u g i . . - r r ] #.`.OXOX].OX}.}.}.].].].].OX].].#.d t r r + * a p h & o . 5 T I I B i =                                                                                                                                                                                                                                                                                                                                                                                                                                                                                                                                                                                                                 ",
"                                                                                                                                                                                                                                                                                                                                                                                                                                                                                                            M Q P Q / kXM.M N D = o . u g m o - r r ] *.1X<X1X1X<X<X<X1X1X1X1X1X1X1X<X<X~.' r - & & * g X.h * . . 5 o.Y K M v =                                                                                                                                                                                                                                                                                                                                                                                                                                                                                                                                                                                                                 ",
"                                                                                                                                                                                                                                                                                                                                                                                                                                                                                                            B Q Y / / kXM.b M D = o . u g S & r s d #.`.1X].*.*.*.*.*.*.=.&.&.#.=.^.OX1X].*.d s & & & g X.u : . . 4 3.o.B j M =                                                                                                                                                                                                                                                                                                                                                                                                                                                                                                                                                                                                                 ",
"                                                                                                                                                                                                                                                                                                                                                                                                                                                                                                            B Q Q Q Q kXl.w v B @ o . u S G & s ] *.}.-X].$.d s s s s s s s s s ' [ *./.-X+X/.] : & - g O.u = . . 6 >.Y M 6 B =                                                                                                                                                                                                                                                                                                                                                                                                                                                                                                                                                                                                                 ",
"                                                                                                                                                                                                                                                                                                                                                                                                                                                                                                            Q / L Q Y lXd.6 M H @ . . a G G - d #.].+X+X~.] s r s s ] ] ] d s s s s s [ @X+X+X#.y + - g O.u ; . . 6 3.K j 6 H $                                                                                                                                                                                                                                                                                                                                                                                                                                                                                                                                                                                                                 ",
"                                                                                                                                                                                                                                                                                                                                                                                                                                                                                                        5 s.a./ Z P L hXp.6 B V # . . a G G & ' *.1X+X`.s s s r s d #.*.$.#.[ d r r : s `.].<X`.] & o c @.u = o o v o.D i 6 V $                                                                                                                                                                                                                                                                                                                                                                                                                                                                                                                                                                                                                 ",
"                                                                                                                                                                                                                                                                                                                                                                                                                                                                                                        2 P / 8.b C L gXp.v V V 2 . o g ..G - ' *.5X/.' r r r r : d ].#X#X^.#.] s - & - s /.<X].[ & o G @.t = o o v Y B i 6 M =                                                                                                                                                                                                                                                                                                                                                                                                                                                                                                                                                                                                                 ",
"                                                                                                                                                                                                                                                                                                                                                                                                                                                                                                        2 Z Y 4.w n L fXa.V L Z 2 o & p ..G & d *.<X=.s r r r r ' $.OX&X$XXX~.#.s - & - r =.<X].[ - & G @.t = o o v Y B v v I 2                                                                                                                                                                                                                                                                                                                                                                                                                                                                                                                                                                                                                 ",
"                                                                                                                                                                                                                                                                                                                                                                                                                                                                                              #         2 V Z L w b L fXj.Y 5.3.3 o o a ..G o s #.<X=.s r r r s [ ^.=X<X1XOX(.$.s r - - r =.<X]. .- - c @.t ; . o 6 H V D K Y 5                                                                                                                                                                                                                                                                                                                                                                                                                                                                                                                                                                                                                 ",
"                                                                                                                                                                                                                                                                                                                                                                                                                                                                                          iXiXB.j.p.% # 3 B B n b A Q aXBXmXaXsXv = & a ..S o r #.<X=.s r r r s #.).=X6XCX+X].$.s r r - r &.<X`. .- - ..@.t ; o . B 8.DX:Xf.G.K                                                                                                                                                                                                                                                                                                                                                                                                                                                                                                                                                                                                                 ",
"                                                                                                                                                                                                                                                                                                                                                                                                                                                                                        Q Z.fXiXM.w.0.V @ 2 b n C A L p.nXmXW.aXV @ o a } G o r #.<X=.s r r y s #.].=X6XCX1X].*.s s r - r &.<X`. .- - ..@.t ; . o @ K BX XN.N.K                                                                                                                                                                                                                                                                                                                                                                                                                                                                                                                                                                                                                 ",
"                                                                                                                                                                                                                                                                                                                                                                                                                                                                                    6 U U 4.W.vXH.l.h.Y 3 X 6 V L L L Z bXSXiXiXQ v o ; g c . r #.<X=.s r r f ] #.).*X6XCX<X}.*.' f s r r &.<X`. .- - ..@.t ; . + O N hXjXG.G.K 2                                                                                                                                                                                                                                                                                                                                                                                                                                                                                                                                                                                                               ",
"                                                                                                                                                                                                                                                                                                                                                                                                                                                                                  $ M.U.b K L 4.hXmXi.b v X . B K L L P mXFXaXU.J.h.o ; g c o s #.<X=.s r r r ] [ $.%X6XCX+X(.[ r f y r r &.<X`. .- - ..@.r * . o ; p F.vXhXB.f.L X .                                                                                                                                                                                                                                                                                                                                                                                                                                                                                                                                                                                                           ",
"                                                                                                                                                                                                                                                                                                                                                                                                                                                                                  Q M.sXB.B B / / N.vXvXsXU.3.. B 4.L L mXKXiXiXK.N.. & g g & s *.<X=.d s s s s ] [ OX-X5X].~.' r s s r r &.<X/. .- : ..O.r ; o . = i X.FXMXN.M.L # b K                                                                                                                                                                                                                                                                                                                                                                                                                                                                                                                                                                                                         ",
"                                                                                                                                                                                                                                                                                                                                                                                                                                                                              @ 6 Y d.iXBX0.V n w / DXkXhXsX7.X B 4.P V nXFXiXiXK.m.. * g c - d *.<X/.s r s s s s [ (.#X1X(.#.d r s s r r &.<X/. .- - c ..t t o . 4 p l HXSXB.m.K @ L L L                                                                                                                                                                                                                                                                                                                                                                                                                                                                                                                                                                                                       ",
"                                                                                                                                                                                                                                                                                                                                                                                                                                                                              X 6 K L Q J.bXbXb 2 / DXm.L K b . M / C b nXGXsXiXK.N.. o y g - ' *.5X`.' s s r r s ' $.(.(.~.[ s r r r s r *.<X~. .& ; g G t < o . 4 p a FXSXm.m.3.2 s.B.L.a.                                                                                                                                                                                                                                                                                                                                                                                                                                                                                                                                                                                                    ",
"                                                                                                                                                                                                                                                                                                                                                                                                                                                                              X 6 K K K 8.d.W.sXkXM.5.B w K v . b Q w w U.nXGXJ.pXB.. X y g - ' *.-X+X@X' s r r y s  .$.#.[ ' s s r s d `.}.=X*.] - : a ..t t o . 4 u : FXBXB.G.i.v i t.L.f..                                                                                                                                                                                                                                                                                                                                                                                                                                                                                                                                                                                                   ",
"                                                                                                                                                                                                                                                                                                                                                                                                                                                                              X 6 K K b K Y D.fXkXJ.v B B B j . v Q b b 5.C.FXU.K.U.N.# y g & d $.OX=X-X*.] y y y y f s r r s s d s ' #.].+X+X#.s - + a F t t o . 4 u - gXMXU.K.d.U 5 6.b.o..                                                                                                                                                                                                                                                                                                                                                                                                                                                                                                                                                                                                   ",
"                                                                                                                                                                                                                                                                                                                                                                                                                                                                              X 6 U B @ b V Z p.kXU.2 U I Y j . 9 Y 9 v b h.KXW.U.iXiX$ f g & r ' #.OX=X+X*.d d ' d y r s s d ' ' ] #.~.-X+X%.' r - * p G t t o o 4 h : N.pXhXK.N.3.2 D X.M o                                                                                                                                                                                                                                                                                                                                                                                                                                                                                                                                                                                                   ",
"                                                                                                                                                                                                                                                                                                                                                                                                                                                                              X 6 U B . $ B b 4.A.a.6 M v K i o 6 3.P K B d.KXgXaXiXiX@ y y - r d [ *.(.+X@X}.@X@X@X@X1X1X1X@XOX+X@X-X-X^.~.' r r & + u g t t o . ; u : K B.DXpXZ.8.> m F m o                                                                                                                                                                                                                                                                                                                                                                                                                                                                                                                                                                                                   ",
"                                                                                                                                                                                                                                                                                                                                                                                                                                                                              2 9 L b . # v 0 L h./ j i 4 K j o 3 4.Y Z Z d.PXbXgXgXsX; t y } r r d ' #.@X@X@X+X-X-X-X-X-X@X@XOX+X+X+X@X*.[ r r s r o S X.g t o . ; u ; 1 N.KXhXpXpX@ 6 D i o                                                                                                                                                                                                                                                                                                                                                                                                                                                                                                                                                                                                   ",
"                                                                                                                                                                                                                                                                                                                                                                                                                                                                              X 9 L n . # # X Q j.P 5 5 5 K j # v 5.Z Z Z d.KXmXvXfXgXB ; g ;.] r r r ' #.~._.$.$.$.$.$.$.$.$.$.$.*.*.#.d r r r r - o 2.P.g t . . ; u ; @ Z.PXhXpXK.= i G i o                                                                                                                                                                                                                                                                                                                                                                                                                                                                                                                                                                                                   ",
"                                                                                                                                                                                                                                                                                                                                                                                                                                                                            % > 3 K n . X . # 3.j.L 5 2 4 R 7 # w 0.L Z Z 8.mXmXnXhXsXfXQ s &.[ f - - - s d d s s s s s s s s s r r s s r r r r - - - O.x.g ; . . = u = o B.LXhXjXsX8.M u 6 o                                                                                                                                                                                                                                                                                                                                                                                                                                                                                                                                                                                                   ",
"                                                                                                                                                                                                                                                                                                                                                                                                                                                                    Y U L K Q 5 6 Q n . X X $ 4.h.L 2 = = D 5 # 9 5.K Z V L d.SXSXvXgXdX/ : { } | - & + + & o - r r s s s ' ' d d r r & & - r - & ; t.O.X.t & . . = i 1 O v.SXjXsXhXs.6 5 = .                                                                                                                                                                                                                                                                                                                                                                                                                                                                                                                                                                                                   ",
"                                                                                                                                                                                                                                                                                                                                                                                                                                                          $ H.pXiXJ.J.D.D.D.U.L 9 4.V 9 # # 3 4.h.K = * * N 5 o 6 / V Z Z Z b SXKXxXfXsX>.# + c '.s & + o y d ] #.=.=././.~.*.*.*.$.[ r - - r r ; p n.O.t r & . . = i u = r.sXkXhXpXM.m o o .                                                                                                                                                                                                                                                                                                                                                                                                                                                                                                                                                                                                   ",
"                                                                                                                                                                                                                                                                                                                                                                                                                                                        B.gXfXsXJ.U.J.D.D.D.N.Q 2 Z p.J.3 # 3 4.M.K = : ; M 4 . 6 3.v b B V V SXPXkXsXgX7.o . r ] -.g - a | -.=./.`.`.`.`.`./.~.~./.&.| f ........@.g a & & o . . @ u i 2 B H GXmXK.iXD # . o                                                                                                                                                                                                                                                                                                                                                                                                                                                                                                                                                                                                   ",
"                                                                                                                                                                                                                                                                                                                                                                                                                                                    @ S.C.U.S.aXaXsXK.A.D.Z.m.3.% b / j.e.Z $ / h.K = : * = = o 3 3.v B Z Z V kXKXmXvXkXd.Y . : g } t r y { {  .-.;.;.;.;.;.&.&.| | | } ........g g g : & o . X . @ 6 i u D 6 GXSXsXhXa.v . .                                                                                                                                                                                                                                                                                                                                                                                                                                                                                                                                                                                                   ",
"                                                                                                                                                                                                                                                                                                                                                                                                                                                  3 L U.J.S.Z.S.aXkXU.K.M.m.M.Q . V P j.j.Q b 3.h.B 4 4 4 = @ o 5 3.b V V K B hXPXPXPXSXjXv.. o = ; & t t t t t t t t t t a a a a h t t t t t u u u < * o . X O $ O = i m B 3 DXFXSXmXG.B . .                                                                                                                                                                                                                                                                                                                                                                                                                                                                                                                                                                                                   ",
"                                                                                                                                                                                                                                                                                                                                                                                                                                                3 4.kXaXA.C.Z.S.S.lXVXDX3.B M v X X 3 V p.e.M.0.y.M 4 4 4 = # @ 6 5.B V V V B Z.aXiXU.Z.N.i.# . X O O + + + o + + O & & + + + O O O O o o o . . . . + + . X 2 9 b @ O 4 i m > vX:X3.3.3.B . X                                                                                                                                                                                                                                                                                                                                                                                                                                                                                                                                                                                                   ",
"                                                                                                                                                                                                                                                                                                                                                                                                                                              M.5.Q w.iXkXiXJ.J.J.gXS.l.v 9 2 # X . o 8 / 4.M.h.3.> @ * 4 @ . 2 i.p.9 n n V B h.U.C.i.a.7.U X X O o p X.....| | ..} | ............................I I D j . X b L M 6 @ 5 6 @ H.f.B K H j . X                                                                                                                                                                                                                                                                                                                                                                                                                                                                                                                                                                                                   ",
"                                                                                                                                                                                                                                                                                                                                                                                                                                            :XZ.4.K 3.j.hXgXZ.H.K.K.8.8.5.4.P K V # # X 9 V M.d.K 2 + = = o O 6 i.0.9 w Z V n h.K.i.V K H b . O 2 i S ..t.|.|.'.1.'.'.'.'.'.'.1.1.1.1.1.1.1.1.1.1.+.,.U B > X b o.8.H 5 > = o 0.>.i v B 6 . X                                                                                                                                                                                                                                                                                                                                                                                                                                                                                                                                                                                                   ",
"                                                                                                                                                                                                                                                                                                                                                                                                                                          kXJ.d.b 6 Z P P h.aXBXvX6 N.gXhXsXiXJ.Z.M 8 . $ 3 7.V j = = = o . v H / 4.9 # b n n a.U.i.B B M j . 2 D I G ; p UXNX'.'.'..X.X.X.X'.'.'.'.'..X.X.X'.'.1.+.u.d.d.y.6 o P sXw.U = . X 0.>.i v B 6 . X                                                                                                                                                                                                                                                                                                                                                                                                                                                                                                                                                                                                   ",
"                                                                                                                                                                                                                                                                                                                                                                                                                                        vXlXH.Y @ # L Q P U U.U.V U.pXU.iXiXU.U.sXkXU.v # $ U j 4 4 = * o . 2 6 Q / 6 X $ $ 0 h.U.i.H 9 j i . X M K.x.r.u O.mXNX X X XuX X X X X X X XjXpX X XjXpXK.H.H.pX:XY K > L U.iX2 o o i.3.v M B 5 . #                                                                                                                                                                                                                                                                                                                                                                                                                                                                                                                                                                                                   ",
"                                                                                                                                                                                                                                                                                                                                                                                                                                      d.sXvXK.Q # # B K L / 7.8.L kXgXiXiXiXU.U.U.lXsXiXn v 3 O 2 o X X . . 6 6 / / 6 b 2 % b h.U.w.K K H v . . 2 x.t.t.u * kXMXmXpXjXpXpX X X:X X XuXjXuX XK. X X XH.G.pXjX7.Y 2 6 Z.Z.2 . # i.3.v M B 6 . @ 2 2                                                                                                                                                                                                                                                                                                                                                                                                                                                                                                                                                                                               ",
"                                                                                                                                                                                                                                                                                                                                                                                                                                    @ 3.i.xXgXY $ 3 3 6 Z 4.$ L M.K.kXFXU.U.U.K.U.U.gXBXZ.a.9 X o o . . . . 6 9 3./ 3 3.V # w l.K.0.D H H M . . o J O.O.4 = B hXvX6.6.6.3.o.>.>.>.3.6.6.6.6.3.6.o.O.Y Y o.6.Y U . # Y U 2 . # i.3.M N B 7 # B M B v @                                                                                                                                                                                                                                                                                                                                                                                                                                                                                                                                                                                           ",
"                                                                                                                                                                                                                                                                                                                                                                                                                                    @ B U 8.w.6 Q U.U.w v Z 3 b 0.0.a.H.BXsXI.J.U.U.iXW.SXDXh.L v . X X . . 9 n 3.Q V p.Z X 8 d.U.8.v 5 H M . . + D S u o o B b i 2 > > 2 4 4 4 4 4 6 i i i 6 5 5 5 5 6 i D v b o o U I 2 . . i.8.M M D i o I T o.>.3.P                                                                                                                                                                                                                                                                                                                                                                                                                                                                                                                                                                                         ",
"                                                                                                                                                                                                                                                                                                                                                                                                                                    o M L Y 3.6 Q U.iXZ.4.b n L / 3.w.h.kXdXsXI.U.W.W.W.kXSXvXC./ 9 3 # X . 9 B V V P 5.w # $ i.J.7.9 b H M . . + D p 4 . o v j i = @ 2 5 6 4 4 7 i i i i i 5 5 4 4 = = 1 D v 6 o . I D > . . i.8.N N I z o M H Y 6.3.Y K                                                                                                                                                                                                                                                                                                                                                                                                                                                                                                                                                                                       ",
"                                                                                                                                                                                                                                                                                                                                                                                                                                    . B K K Y $ U K.U.sXN.Z L Q P 3.4.i.P W.nXiXU.U.W.iXiXaXHXxXJ./ 0 $ # . 2 b v b L L 9 $ 9 0.J.0.7.U H B . . + D p 4 . . 6 6 6 X . o 2 2 2 2 2 = = : o o o . . . . . o K v 6 o . U K = . . i.8.D I T i + 4 2 D o.Y 3.9.R                                                                                                                                                                                                                                                                                                                                                                                                                                                                                                                                                                                     ",
"                                                                                                                                                                                                                                                                                                                                                                                                                                    . 9 b B K @ b 4.a.U.gXlX/ w Z Q 3.5.4.4.w.bXgXU.iXiXiXsXY.mXnXgXe.W K $ # # . 9 n w Z P Q 8.J.a.U H H B . . + D i 4 . . o o . . . o @ # # # o o o o # # o o o o o o o 5 i i o o I K = . . i.8.R I T i o p G : = 2 z D m                                                                                                                                                                                                                                                                                                                                                                                                                                                                                                                                                                                     ",
"                                                                                                                                                                                                                                                                                                                                                                                                                                    . B I B K # b / / a.J.fXJ.j.3 P Q 5.5.4.w.h.gXgXfXiXiXiXI.sXvXnXfXA.Q n 3 X X # % v V Z W 5.U.0.v b K B . . + m u 4 . . o 6 K 6 4 4 4 5 5 5 5 6 5 6 6 2 > > > = = o # m i i o o K K = . # r.6.N b I 6 o g @...S 1 u X.D $                                                                                                                                                                                                                                                                                                                                                                                                                                                                                                                                                                                   ",
"                                                                                                                                                                                                                                                                                                                                                                                                                                    . b Y L K . 9 P L L j.aXiXJ.L n L Y 3./ 5.L h.nXgXiXiXiXI.U.J.mXmXfX5.L b % $ X . > v n Z Q Z.4.v B K M . . + i i 4 . . . 5.N.Y b M B D D H K L L K H M v v v M m 4 = f.M i o o m B @ o # 7.I i i I 6 o a +.1.@.t u X.D $                                                                                                                                                                                                                                                                                                                                                                                                                                                                                                                                                                                   ",
"                                                                                                                                                                                                                                                                                                                                                                                                                                    . j B 3.V . i Q V L C / M.J.xXC.w b Q 5.4.4.Q 4.kXBXU.iXU.E.E.gXb 8 % % 8 % $ X X . $ b n V w.Q b B K v . . . i i i + . @ Y h.DXU.J.U.jXjXjXpXpXpX:XH.G.N.m.h.d.d.f.7.hXo.4 o + M M # o @ o.I j B D 4 o ; X.-.1.t.t.X.m $                                                                                                                                                                                                                                                                                                                                                                                                                                                                                                                                                                                   ",
"                                                                                                                                                                                                                                                                                                                                                                                                                                    . v B M v . i Y B n V Z P j.E.iXU.V L A Q Q / / w.N.vXfXsXfXE.C 9 q.fXxXvXxXw./ P X # % 0 V w.Q b B 6 > . . . 2 = = . . > U i.hXh.d.s.m.m.s.f.f.s.s.f.f.y.y.y.y.i.r.r.r.D 4 . . i 2 o o @ B M i i m = . . 4 p ..@.@.@.p %                                                                                                                                                                                                                                                                                                                                                                                                                                                                                                                                                                                   ",
"                                                                                                                                                                                                                                                                                                                                                                                                                                    . v M B v . 9 Q n M b V A W p.W.fXp.P V Z P W Q Q L vXsXbXlXI.0 V T.bXmXVXBXI.S.h.W b $ $ 9 Y V j v 2 o . . . o o X . # = Y i.v.B v B B B B M j j v v v v v M D D D H D v 5 . . @ @ . o @ 5 i 5 = @ # . . o ; S ....X.a @                                                                                                                                                                                                                                                                                                                                                                                                                                                                                                                                                                                   ",
"                                                                                                                                                                                                                                                                                                                                                                                                                                    . v B B v . 9 P V B n V A A Z ( J.vXM.w 9 n K W P W Q iXGXC X L xXfXfXsXmXKXHXxXU.j.w.Q # X 2 > 3 3 o . . . . . . X X # 2 >.6.5 6 i j j j i i 6 i i i i 4 4 u 4 4 4 4 4 v 5 . . . . . . o # @ o o . . . . o * ; & o & & o X                                                                                                                                                                                                                                                                                                                                                                                                                                                                                                                                                                                 ",
"                                                                                                                                                                                                                                                                                                                                                                                                                                    . v B B v . 6 P 0 L L Z n V W Q e.C.I.I.l.B 9 b A W / 4.w.8 l.BXkXfXfXfXkXxXFXKXFXlXiXA.Q V X O o X . . . . . . X X . . . H U 5 5 6 6 5 5 5 5 5 4 5 4 4 5 5 5 4 5 5 2 2 2 2 . . . . . . o o o # @ o + 6 6 u p S J J J O.I o.0.Y                                                                                                                                                                                                                                                                                                                                                                                                                                                                                                                                                                             ",
"                                                                                                                                                                                                                                                                                                                                                                                                                                    X v B B j . 6 L 9 P K L n V V Q 5.4.S.fXK.Q A 9 C W 4./ % V l.mXmXcXfXgXfXdXFXHXKXbXfXI.j.0.L U K D B D D B j L Y L 2 + o 5 6 2 = = = = = = = = = = = = = = = O O @ @ # @ . . . 2 6 6 5 6 6 6 5 2 6 6 b M N D D O.O.,.6.t.f.x.y.B                                                                                                                                                                                                                                                                                                                                                                                                                                                                                                                                                                           ",
"                                                                                                                                                                                                                                                                                                                                                                                                                                    # v B B j . 6 L 5.6 6 Y n V V P Q 5.Q l.lXaXW Z V W / L 3 Q q.C.HXVXfXgXfXlXgXmXLXLXFXsXsXiXJ.K.M.p.5.q.5.P b 4.0.i.4.. X . . . . . . . . . . . . . . . . . . . . . . . . . . X 8.h.>.Y 3.3.3.3.o.K U D D D J X.O.t.f.u.t.u.x.d.m.N.v                                                                                                                                                                                                                                                                                                                                                                                                                                                                                                                                                                       ",
"                                                                                                                                                                                                                                                                                                                                                                                                                                    # v B B 9 . 6 L 4.3 2 @ B Z Z Z L P W Q p.sXiXM.j.4.w % b 4.4.4.w.kXBXgXlXzXxXbXmXKXHXGXFXDXmXmXbXlXhXhXfXK.pXaXjXjXjX:X2 Z.fXU.K.H.G.N.B.B.M.M.M.m.m.M.M.N.N.N.N.B.B.B.B.d.7.$ hXSXsXjXpXpXpXjXN.jXhXpXjXpX:XpXpXpXpXpXjXhXjX XK.H.N.B.                                                                                                                                                                                                                                                                                                                                                                                                                                                                                                                                                                    ",
"                                                                                                                                                                                                                                                                                                                                                                                                                                    # j B V 9 . 6 L 4.3 . X B K Z Z V A A Q 4.I.iXW.J.4.w 8 A Q Q ( Q U.mXzXfXlXkXxXvXKXPXPXKXHXSXSXmXbXvXvXkXjXhXvXvXvXvXiXv H.hXjXpXK.K.G.H.K.H.H.H.H.H.H.D.G.G.L.G.G.B.H.L.m.3.2 hXSXhXpXpXpXpX:XG.jXhXjXjXjXjXjXjXjXjXpXhXhXjX:XK.K.N.B.m.2 V                                                                                                                                                                                                                                                                                                                                                                                                                                                                                                                                                               ",
"                                                                                                                                                                                                                                                                                                                                                                                                                                    # v b B 6 X 9 K 4.3 . . B V L V b Z Z L P Q 0.bXBX0 # V j.W P Q / / q.FXbXfXxXvXmXLXLXPXd.Y B v B v B D M m v D D D B m o.K D B M M v M B M v i i j m M m m m m S G G G G D I U N u p k p p k i m p m m D S G G D F D D O.O.U K D B I r.d.m.pX                                                                                                                                                                                                                                                                                                                                                                                                                                                                                                                                                              ",
"                                                                                                                                                                                                                                                                                                                                                                                                                                    O b b B 6 X 9 K 4.2 . . B V 2 b V K L P Q ( q.S.dX# i.h.0./ W W Z / 5.M.xXSXkXBXFXLXmXsX3.T B D D D D G m m i m S p p i G G G S S S S G G G S S S S G S S S m S S S S m m m p p p u i i i u u u u u p S S G G G G G G i u 6.o.M M M B H Q y.s.s.                                                                                                                                                                                                                                                                                                                                                                                                                                                                                                                                                            ",
"                                                                                                                                                                                                                                                                                                                                                                                                                                    @ b M B 6 . w K 4.5 . . n P # n Z L P Q / 4.w.w.p.. sXiXh.5./ Q C A P L iXDXmXIXKXHXpXo.H D D N m p i a a p i p p p p p p p a u a p m G G G S S S p p p p p p p p u u g g u u u ; : ; ; ; ; ; ; : ; h u u a g p p i i 1 o I I B M M B D D >.>.y.m.                                                                                                                                                                                                                                                                                                                                                                                                                                                                                                                                                          ",
"                                                                                                                                                                                                                                                                                                                                                                                                                                    @ 6 b M 3 . w K i.5 . . A A # . 3 Q Q Q / / p.L n X W.SXDXj.0.4.W A W W P Q KXLXLXf.o.D B N D B D i 4 @ = ; = = : & & & & & = = : ; ; ; ; ; ; ; ; ; = : : : : : : : = = & : : ; & & O O o o + o + + + + & + * * * + o o o + 5 3.M B M B N m y.6.3.B                                                                                                                                                                                                                                                                                                                                                                                                                                                                                                                                                         ",
"                                                                                                                                                                                                                                                                                                                                                                                                                                    # 6 b b 3 . w K i.5 . # ~ ) # . # $ Q / / / 0.9 3 V q.sXBXmXsXW 5.4.W W 4.0.KXSXB.o.B M m m K j o . . . . . . . . . . . . . . . . . . . . . o . . . . . . . . . . . . . . . . . . . . . . . . . . . . . . . . . o o o o o # o 6 o.D M M N N M D o.K                                                                                                                                                                                                                                                                                                                                                                                                                                                                                                                                                         ",
"                                                                                                                                                                                                                                                                                                                                                                                                                                    $ i v v 6 . w K a.6 # # q.q.# . . 9 b V Q 5.0.3 % Q W j.aXnXbXiX4.0./ / 4.M.mXhX>.D N m m B 5 @ . 3.hXhXx.b.x.f.d.r.r.r.r.r.y.d.d.f.y.f.s.x.m.m.x.x.h.d.d.v.v.v.h.v.i.f.f.f.x.f.f.s.x.x.s.y.7.7.y.r.f.f.i.f.y.y.f.s.D M . o X o H I R i M S M N I K                                                                                                                                                                                                                                                                                                                                                                                                                                                                                                                                                         ",
"                                                                                                                                                                                                                                                                                                                                                                                                                $ $ # % X X o X X X X i v B 6 . 9 Z a.6 o # q.q.X . $ Z X 9 P 5.4.8 % P L L L lXmXBXd.0.0.5.d.K.pXN.B N D M M M o @ = K.mXvXL.L.L.L.L.L.L.L.F.L.L.G.K.L.L.L.L.L.K.F.G.L.L.L.K.B.F.G.G.N.m.L.L.F.L.F.N.V.m.m.x.d.i.s.x.N.m.m.m.v.d.d.f.f.6.3.O o o o 2 U D N x N N N D o.y.@                                                                                                                                                                                                                                                                                                                                                                                                                                                                                                                                                     ",
"                                                                                                                                                                                                                                                                                                                                                                                                                B Y Y Y Y U K K B j . i v b 5 . M 3.h.v o # q.q.# . w / . X 6 4.5.2 # L L L Q L N.SXFXsXW 5.H.vXH K D D D B i . o 4 K HXK.U U Y o.y.F.L.s.f.f.f.7.X.x.x.f.t.<.6.u.6.t.f.f.f.x.f.u.u.x.t.6.x.x.f.F.u.,.X.O.O.O.O.X.U U 6.O.O.O.O.X.T D D >.7.2 @ o o o . U f.m M M B D I U X                                                                                                                                                                                                                                                                                                                                                                                                                                                                                                                                                     ",
"                                                                                                                                                                                                                                                                                                                                                                                                            # v 3.K.N.i.r.6.>.Y I M . 6 v M 6 . K y.5.3 . X e.q.# . w 4.. X 9 P Q $ . K Z L P Q 4.M.SXkXZ.4.kXDXJ D M N K i # . 4 N B SXd.v 5 5 v I r.6.I I I I J J I X.O.X.X.O.X.D X.6.t.t.O.X.X.X.O.O.X.O.O.X...X...F J F F J J F J J X.X.J D O.O.u i Y 6.D 6 o o o o U r.S D B D I D H O                                                                                                                                                                                                                                                                                                                                                                                                                                                                                                                                                     ",
"                                                                                                                                                                                                                                                                                                                                                                                                          B 3.4.>.H.K.f.r.6.Y I D m . 5 M N 6 . L a.Q $ . . q.q.. X v 5.. X 3 V Z # . V V V Q 4.4./ fXkXlXZ.hXbXD S N M K 5 o . 4 i K kXx.B 6 4 i D o.D i B D D D D D B S N D D N D D J J J F G G G S D G D J J G G G G S S S S D G G G G G G S J O.u u H Y T z . o o o K D D D D I I D D 6 6                                                                                                                                                                                                                                                                                                                                                                                                                                                                                                                                                   ",
"                                                                                                                                                                                                                                                                                                                                                                                                        9 h.m.5.>.o.U.DXr.I i 4 4 = . 6 M B 6 . K 4.L # o . 4.W o X b 0.. X 3 L Q $ . K K P P / / 4.Q I.VXIXiXm D N m M R 4 o . 6 v M sXx.6.i v I K D v i v M M b v i 6 i i i 5 4 4 6 i D M D D N m v i i B B B m m m m i i v b M M M N N S D G D D D M M H 6.b # o o o p D I I D D m i D L B X                                                                                                                                                                                                                                                                                                                                                                                                                                                                                                                                                 ",
"                                                                                                                                                                                                                                                                                                                                                                                                      b 4.3.4.>.U B.v.d.o.D u 4 2 = . 2 j B 6 . K 4./ $ . . ( W . . B w.X X 3 L / $ X L L Y Y Y Q P 4.w.C.xXi.B k m m N D 4 # . i M B sXm.o.B D o.D B N 2 o . . . . . . . . . . . . . @ i 4 2 2 = = = = @ . 4 i 2 o . . . . o o # # X X X + X i S N S M M R r.v # o o o 4 6 ,.O.M M i D I H j X                                                                                                                                                                                                                                                                                                                                                                                                                                                                                                                                                 ",
"                                                                                                                                                                                                                                                                                                                                                                                                    v 9 B I Q Q Y pXN.m x v N 4 2 @ . @ 2 M 5 . L 8.0.$ . X / Q . . n e.X O 2 Q q.8 X b V Y Y Y L Q 5./ Q fX4.M a x S m D 4 o o i M N hXx.I D D I D D N 5 v K.B.x.d.d.a.d.d.d.i.i.d.h.. @ = M.N.3.D > . Y m.o.2 o f.f.8.>.Y Y Y Y Q Q 7.7.7.> v S D M M M I r.B = o o + + = 6.o.i m M D o.D 6 X                                                                                                                                                                                                                                                                                                                                                                                                                                                                                                                                                 ",
"                                                                                                                                                                                                                                                                                                                                                                                                  7.hXU 6 b M 7.pXB i S S m 4 4 2 . . @ 2 2 > o b Y 0.> . # ( ) . X Z e.X @ 2 4.w.3 o . n Q Y Y T P 3.3.Q sX3.M m p p S D 4 o o i M N hXx.I I o.N N D D 4 M  XH.m.V.M.m.N.B.B.B.N.M.h.. 5 B sXkXK.I 5 M s.hXf.5 @ B.B.Z.d.s.s.s.s.d.d.m.m.N.2 i B M B M N I r.D 6 o o o o = 6.U i m N m M D 6 #                                                                                                                                                                                                                                                                                                                                                                                                                                                                                                                                                 ",
"                                                                                                                                                                                                                                                                                                                                                                                                  7.m.v.m.2 j 3.i.D v 6 N i 4 = = . . o 2 6 @ . 6 B 3.2 O w q.) . $ L e.. O 6 w.e.3 . X b Y P Y U K Y / Y aX3.M l k p m D 4 O o j m m sXs.T I B B N D D N m 4 D >.o.U U U U U Y hXm.= o K N.8.H 6.B.. h.pXU 6.7.j . v.J.i.K . . o O > 6 5 5 4 i B B D M B I 6.Y v o o . . @ 6.I i m M M m H 6 o                                                                                                                                                                                                                                                                                                                                                                                                                                                                                                                                                 ",
"                                                                                                                                                                                                                                                                                                                                                                                              2 4.3.y.kXjXB 5 >.3.6 4 u i 4 4 + o . . o @ i O o 5 K 9 @ 6 i.q.( o 2 P e.. O 6 0.w.3 X X b Y U P P L Y / 3.aX/ M i x S m D i 4 o 6 u i pXf.o.B B D N D D D M = > 2 b b v b B H T hXB.B = j 2 o . K s.B T 8.m v b 6 @ x.K.f.y.m.m.m.v.m.s.M @ 6 b D D D B D H I 6.H O o . . @ 6.K i j M i M I 6 o                                                                                                                                                                                                                                                                                                                                                                                                                                                                                                                                                 ",
"                                                                                                                                                                                                                                                                                                                                                                                            P 3.Y Y >.3.U.vXj v 6 5 6 u 4 = o + o . . . @ > . o 6 Q K 2 b M.0./ . > L w.. X 9 p.0.2 . . b Y U Y P K Y 3.3.aX/ B i x S m D M v . 5 4 u pXy.3.B D D N D D D M M i i.sXpXpXpXm.N.hXB.G.iXo o . . . o m.sXB 6 = = + . W.pXv.x.s.6 v H K U >.H @ M B D D D D D D M 3.Y # . . . = 6.K i i m M D I i o                                                                                                                                                                                                                                                                                                                                                                                                                                                                                                                                                 ",
"                                                                                                                                                                                                                                                                                                                                                                                          3.Y Y U L P L a.pXv.U 2 5 = @ = o o o o X X X o @ X o 5 M K > 6 7.( P . 2 L e.. X 6 e.4.$ o . B Y Y Y Y Y 3.3.4.aX0.K D m N m B m 5 o # @ 6 K.y.r.M M N D D D D B B u 4 Y 3.Y 3.Y Y B.N.B.G.V.L.F.H.B.5 H.hX6 i N.d.v.G.H.N.i.s.7.s.3.Y K v o = > B M D D D D D D D 6.>.o o . . @ ,.D i i m M B I j X                                                                                                                                                                                                                                                                                                                                                                                                                                                                                                                                                 ",
"                                                                                                                                                                                                                                                                                                                                                                                          3.>.3.T L P >.Q 4.nXN.6 > + . # . . o o X X X o @ X o 2 6 B @ 6 L 5.P . 2 L a.. # 9 3.4.$ . . B Q Y Y Y Y 3.4.4.aXa.3.D D M m B M 6 o o O 4 H.x.V.i M N D D D D D D i i = 7 B U K.:Xi 0.v.N.H.:XK.G.K.2 H.hX6 j pXpXjXpXN.d.d.y.K i.m.Z.B.V.+ = 2 B M D D D D D D D 6.>.@ o . . o D D D i i m M I j #                                                                                                                                                                                                                                                                                                                                                                                                                                                                                                                                                 ",
"                                                                                                                                                                                                                                                                                                                                                                                        # 9 8.Z.Y U Y Y 4.3.4.U.hX6 6 9 6 j 6 6 @ . . X . @ o o > 5 5 # 3 V n b X 3 Q w.. . 6 3./ $ X . B Y Y P Y P Y Q >.4.J.gXu p p m D m 5 o . o 4 r.N.G.B D D D D D M H I I m o H.vXpXi.v Y K.B.o.L m.i.h.i.@ J.hXd.B = y.m.a.N.h.2 B.U.= i.V.6 > o 5 N B B D D D D D D D 3.>.= o . . o I O.r.S i i i H j X                                                                                                                                                                                                                                                                                                                                                                                                                                                                                                                                                 ",
"                                                                                                                                                                                                                                                                                                                                                                                        # 9 V P 8.8.I Y 3.3.Q i.m.:X0.L Y L M H B 6 + X X X . X o = 2 o 3 V n b X 3 Q i.. 9 L L Q $ X V 3.Y Y P P U Y Q Q Q D.sXt p p i D m 4 . . o 4 t.B.H.B K D D D D H D D D B D D o.3.M 3.7.N.I 7.v.3.y.L v K.J.B.s.i.. y.m.m.U 8.i.i.d.v.L > o o 2 7 m M M D D D D D D D >.o.4 + . . o u I f.m i j D H j X                                                                                                                                                                                                                                                                                                                                                                                                                                                                                                                                                 ",
"                                                                                                                                                                                                                                                                                                                                                                                        # 6 9 M s.h.Y Y 3.3.Q Q 8.lXM.0.0.3.B K K M = @ O . . . . o = @ 2 B B v X 3 P w.. b 3.Q 3.$ X B 8.U U Q P P Y Y / Q U.kXu m p v N v 4 . . o 4 7.H.K.D K H H D D I D B D D B M 7 4 . y. XN 2 B.m.H s.4 = hXB.y.s.y.. 3.i.i.v i.H.D K m.N.6 o = i i m m j N N D D D D D I Y v @ . . o u X.x.m i N B H i .                                                                                                                                                                                                                                                                                                                                                                                                                                                                                                                                                 ",
"                                                                                                                                                                                                                                                                                                                                                                                        O 6 b b b P M.K 3.5.4.Y 4.d.vXbXb Q Y K 3.w.K 2 X o . . . o . # @ 2 M m . 2 Z 8.. H 4.Q / $ X B 8.b B / 3.Y Y Y 3.Q iXvX7 m m F S m 4 o . o ; i  X XM I Y I I H B B B D N N K v o 6.m.y.@ H d.7.O >.M 2 hXB.8.i.r.4 2 @ M m.K K m.M 2 6 @ = i z m N N M M M D D D D D M D M = . . + i X.y.m m m m D 6 .                                                                                                                                                                                                                                                                                                                                                                                                                                                                                                                                                 ",
"                                                                                                                                                                                                                                                                                                                                                                                        @ 6 2 2 B V Q h.y.Y L >.3.K U.kXhXU.5.i.3.U 3.Y v @ o . . . . . @ = i v . > B 3.9 V Y K / $ o B 0.Y Y n n Y Y Y 3.Q W.vX7 N D N p m 4 o o O 4 ;  XpXi K o.D T I D D D N N N B K M 2 @ @ o + @ @ X @ = i hXB.i.i.r.a.5 o O 6 = @ 5 + o o 4 i v m z j B D M M D D D D D j K D 4 + . o = D y.m m m m K M B                                                                                                                                                                                                                                                                                                                                                                                                                                                                                                                                                 ",
"                                                                                                                                                                                                                                                                                                                                                                                        X 6 6 # 2 v v K.y.L K Q Q Y M.J.DXhXd.C.0.4.5.5.b 2 $ 2 . . . . # > 5 5 . 3 b L Q Q K L L # X v >.P 3.6 6 Y K Y 3.L W.vXi G m m m m i o o * 4 ; jXhXD 7.f.D H D D D D M N N N D B j 6 4 4 2 2 2 6 2 . Y pXs.i.i.i.d.2 o @ 4 i i i i 6 7 i m B B m m N D N N N B B M i M D D v + . o = D f.I z m m M M K @                                                                                                                                                                                                                                                                                                                                                                                                                                                                                                                                               ",
"                                                                                                                                                                                                                                                                                                                                                                                        X 9 2 . . = v v 3.C.L Q Q 4.L 5.SXsXZ.m.i.0.L / 4.K 5 o . . . . . X = 5 . 3 b B 6 w V V L # X M K Y 3.2 3 @ P Y 3.L E.vXi D m m m m i o o * , ; jXhX>.r.r.H D D D D D B N N N D D K m i i v v j v 5 . r.V.y.y.f.i.N.5 + 5 v v v M M m m N N M R B M m D M N M M m v M M H 6.D + . o # M s.r.M z m u v B o                                                                                                                                                                                                                                                                                                                                                                                                                                                                                                                                               ",
"                                                                                                                                                                                                                                                                                                                                                                                        X = @ . . . # i v Y m.Y Q Y 3.5.U.sXxXZ.m.5.8.3.Q i.3.$ X . . . . X o @ O @ > 5 $ 6 n b B # O M v B B B K . V Y 4.P iXvXi D m m x m m o o + ; - jXhXr.6.D H H K U M B B M M U K M N N N N M j = = 6 B.y.D B.d.f.7.v r.7.. = i v M N B D M m M B D N m m m v i i i v D D J 6.T 6 o o o j f.6.M i M v v M # %                                                                                                                                                                                                                                                                                                                                                                                                                                                                                                                                             ",
"                                                                                                                                                                                                                                                                                                                                                                                      $ X 2 @ o . . . 5 5 b v.y.3.Q 0.i.0.U.bXxXN.0.0.d.0.4.C 6 X X @ = > 2 > @ @ @ # # . # 3 9 b 2 6 B b v B K K . 2 Y / P sXMXi S m M p m m o o o ; & jXjXr.>.D M j B >.M M M M M D D N N N N N M i + v >.pXI . K.G.r.r.. i.i.H # 4 M D D D B M N M N D D m m i i 4 4 4 4 i N o.6.U i o o o v r.>.i m z N v M o %                                                                                                                                                                                                                                                                                                                                                                                                                                                                                                                                             ",
"                                                                                                                                                                                                                                                                                                                                                                                    9 K = > @ o . . . . o 5 >.B.m.0.i.i.d.p.M.BXsXi.0.p.d.3.# . . . v b b b v b B M b b # . . > b B b v v B Q Y Y X X L / Q sXMXi S m N i m M o o o ; = H.K.d.4.U @ o 5 K 3.D m M M M M D D B N S M i . pXpXB.Y . G.G.6.y.. y.m.v.= 4 i M M S S B N M N D D M m i i # # o o + D I 6.U i # o o b r.Y i m i M B M o %                                                                                                                                                                                                                                                                                                                                                                                                                                                                                                                                             ",
"                                                                                                                                                                                                                                                                                                                                                                              $ 6 K U B M O X . . . . . . @ b 3.H.0.7.4.5.5.0.J.U.sXgXC.3 9 $ m.W.U.J.H.J.J.J.Z.C.m.h.0.K j X X 2 v M M B L / 3.0.X X U 4.4.aXmXi m m N p m M o o o & 4 B.K.m.D m 2 o + o v.D D M M M B D D D N N M m . m.7.B 6 @ B.B.U i o 2 j 7.= 4 i i m D D D M M M M M m m m m + o . o = i.r.6.U v O . o v r.K i k j D B B o                                                                                                                                                                                                                                                                                                                                                                                                                                                                                                                                               ",
"                                                                                                                                                                                                                                                                                                                                                                              7.8.3.>.K H > . . . . . . . O 3 i.m.v.i.3.0.0.w.q.bXGXM.Q w V xXnXVXgXiXU.J.U.iXK.Z.Z.M.s.5.B M 6 O 5 M M B U Y 3.a.. . L 5.4.I.aXv M m m p v M o o o & 4 6.N.m.Y m 2 o > y.f.U B M B N N N D D N N N M o I D o o @ 7.r.B . = o . i @ 4 i i i m N D N M M M M M m m m = = X o y.3.H 6.U v + . o v o.B m k v v v B o %                                                                                                                                                                                                                                                                                                                                                                                                                                                                                                                                             ",
"                                                                                                                                                                                                                                                                                                                                                                            6 v.M.8.U v v = # . . . . . . . o i.i.h.0.5.0.q.0.a.nXvX9 b L m.SXFXSXmXiXiXU.H.U.C.a.N.p.3.Q Y Y K X @ 6 V U Y Y 7.i.. . L / 3.J.iXM M v m K D i o . o o i o.8.sX3.B 4 o 4 B.6.I o.H D N M m m M M N B B 5 5 = 5 5 6 2 . o = = = 2 2 ; 5 m m z p i i M N M M M M m m m i u i v f.I i r.o.v o o # 4 >.D k k k u v B o                                                                                                                                                                                                                                                                                                                                                                                                                                                                                                                                               ",
"                                                                                                                                                                                                                                                                                                                                                                          2 j B.pXi.I B # 6 5 o . . . . . . 2 s.a.0./ 4.q.q.0.mXZ.l.0 P sXbXgXkXKXHXlXsXiXM.J.h.8.0.0.Y Y >.Y U 6 X = V U Y Y 7.i.. . L Q Q Z.K.j v j j K D B = * o o i i s.KXs.K B y.f.7.T B O.H p N N N N N B D D H T K D M M v N + 2 M i i M N N B M x x m N M M m M M M M i i i D D 6.r.D N M x.r.N o o # 6 >.D k k k u v K > %                                                                                                                                                                                                                                                                                                                                                                                                                                                                                                                                             ",
"                                                                                                                                                                                                                                                                                                                                                                          = v M y.KXm.R 5 M v 5 o . . X . 2 K s.d.5./ / 5./ 5.vXl.w X gXfXlXgXlXvXmXKXxXgXaXiXN.N.G.H.d.8.8.K B L 6 # 2 v Y >.8.0.X . L P P C.J.6 6 j v M D H D = + o 7 4 >.GXN.y.y.y.r.r.r.i.F.x.x.x.f.u.o.>.O.O.o.o.o.o.T I I D H D B K F D D I I o.Y I I J J I U I Y U Y Y o.X.U o.t.t.t.t.6.O.6.M > o o . 5 o.N u a p 4 D 6.>                                                                                                                                                                                                                                                                                                                                                                                                                                                                                                                                               ",
"                                                                                                                                                                                                                                                                                                                                                                        # = v v D hXiXK.M B M v = . X X . @ a.i.0.4./ / / j.A.I.4.8 9 U.lXvXzXlXhXxXHXVXvXfXaXK.U.J.H.N.d.8.y.7.>.H K > 6 9 K >.3.. . K P P h.:XkXU.>.v B B D J = o o u v N :Xr.Y Y Y o.o.Y U I I U I I K m M i i v v m m v i i i i i 6 7 6 7 u i i m i i v i i i i i 7 7 6 i i 7 7 i m F D D D S j 1 @ # o . 5 D ,.6.6.o.,.O.6.>                                                                                                                                                                                                                                                                                                                                                                                                                                                                                                                                               ",
"                                                                                                                                                                                                                                                                                                                                                                        # = v i M 6 BXmXD D B K 6 @ X . X @ Z.0.U Q / / / A.iXj.A 6 w.Z.fXBXxXkXkXxXnXIXSXzXsXfXsXK.Z.B.N.d.s.y.7.3.4.6 2 6 V U Q . . K P P l.iXDXvXa.B D K K I = o o u a k = @ 4 4 4 5 4 = * * o o = = = = @ = = = @ = = = = * * + * * + + + + & & & * ; ; ; : = = * = = : : = & : & ; 4 = 4 = = * = @ # # . 2 z r.x.u.6.y.r.6.> 4 6                                                                                                                                                                                                                                                                                                                                                                                                                                                                                                                                           ",
"                                                                                                                                                                                                                                                                                                                                                                        # = v 5 4 j U i.BXi.N D H i o o O $ M.4.L Y / 5.L Z.W.V 0 9 w.h.H.xXbXvXkXkXbXDXmXDXaXsXpX:XB.m.N.d.h.d.d.v.m.d.b # $ M K $ Z Q L W M.D.v.7.3.d.N.s.i.Y = o o u ; ; : @ @ * O O o o o o i D D D B m m m p p x x p p i p p p p p m m S S m S l l S S G G G G S S S l g p a a i & + o * o o # # + # # . = = N D 4 4 4 D X.= N I i                                                                                                                                                                                                                                                                                                                                                                                                                                                                                                                                         ",
"                                                                                                                                                                                                                                                                                                                                                                        # @ v 2 @ j M y.mXB.3.B v v i = K a.a.3.L Q / 5.0.S.iXn 0 B h.a.h.W.mXSXvXvXvXvXBXKXvXlXgXjXpXJ.:X:XH.N.m.m.d.s.o.M 5 9 b 3 L P L W A.J.4.U K o.U F D 6 O . . 5 = : : * * o o O = 4 v M T >.o.o.o.O.O.o.o.o.o.U O.O.X.X.X.X.X.X.X.O.O.O.O.O.X.X.X.X.X.I X.J J m c l c c S S i v i 4 + o o . o @ # # o = i i i ; u < p X.= i I B v                                                                                                                                                                                                                                                                                                                                                                                                                                                                                                                                       ",
"                                                                                                                                                                                                                                                                                                                                                                        # = m = # m M B Y IXMX6 v v 6 # H B.L 3.3.K 4.0.iXh.4.5 Q p.p.d.h.h.:XvXDXbXlXkXvXvXIXxXhXhXhXsXJ.K.K.U.H.m.m.d.y.s.o O 6 V P Q P Q S.M.@ 4 4 4 4 1 4 2 o . . o = = o o o o o + i D B vXmXpX X X XB.K.pXK.F.B.F.G.L.K.N.N.N.F.F.F.F.F.F.F.F.V.x.x.x.x.x.x.u.u.t.t.u.u.f.x.x.x.s.T i + o . o . . . . o = m 4 & : : * ; v @ i O.X.>.D                                                                                                                                                                                                                                                                                                                                                                                                                                                                                                                                     ",
"                                                                                                                                                                                                                                                                                                                                                                        O = v = O = D H K Z.K.bXY v $ b 3.a.4.Q / 4.0.0.kXh.L 8 4.a.i.p.p.h.Z.iXbXBXkXkXvXkXVXBXmXhXhXhXkXhXhXpXm.J.G.m.f.y.8.> # 0 L Q W q.A.M.= t a a a u 4 2 o . . . . @ o o . o = 5 M o.pXpXK.t.t.t.6.>.O.O.O.O.O.O.O.O.O.O.O.O.O.O.X.X.X.X.X.X.X.X.X.X.....X...................J S N I D ; . o . . . . . = m ; & : : & ; v + p O.X.J 3.b                                                                                                                                                                                                                                                                                                                                                                                                                                                                                                                                   ",
"                                                                                                                                                                                                                                                                                                                                                                        O + 4 - r r p v V 4.pXDX4.v X Y 7.3.4.3.3.8.5.j.gXa.b % 3.a.0.0.w.w.p.p.gXBXbXvXkXkXSXDXDXvXvXkXkXgXhXjXv.H.J.B.s.x.i.b > $ K L Q q.Z.M.= h < p p u u = o . . . . o . O @ 6 i B 3.v.jXi.D i i u u h h u t u h t ; ; ; t t t t t t t t t t t t t h t t h r r r t t u a g g a u u m J R m + o o . . . . o i t - : : : ; i o p F O.X.O.6.H @                                                                                                                                                                                                                                                                                                                                                                                                                                                                                                                               ",
"                                                                                                                                                                                                                                                                                                                                                                        + . o f *.*.s 2 M U K Q 2 # X H.s.Q Q 4.3.5./ 0.aXi.$ $ 4.m.i./ 0.w.w.w.a.S.FXnXzXkXlXbXKXSXnXkXkXhXH.Z.K.H.G.G.B.m.f.0.3.X 9 V Y w.M.a.= ; ; a u 4 i o o . o X . o o = 4 o.K T :XhXR 4 u u u u t t h h h u u t ; ; ; t t t t t t h t t t t t u u t ; t t t r u u a u a a a u u u u < o.T = = @ . . . . ; u t : : & ; i . p G X.X.O.O.o.D $                                                                                                                                                                                                                                                                                                                                                                                                                                                                                                                             ",
"                                                                                                                                                                                                                                                                                                                                                                        1 2 *  .OX).&.- i B K Y 5 # X m.a.Q Q 0.8.5.l.J.p.A 2 K 0.p.0.Y 5.w.0.0.j.A.bXmXMXkXkXvXDXDXGXlXlXhXjXU.:X:XU.F.N.B.m.v.Y . 2 6 U p.l.y.> 4 4 u u u 4 @ o o o 2 o . = i i x.F.K.8.i.i 4 t u u u u t u u u u t 4 ; ; ; 1 1 1 < < < 1 ; 1 1 4 5 5 5 ; ; ; ; ; ; u u u u u a u u < < a u S S p i 4 o . . . * : u t & - ; i . i l G X.O.t.,.o.D                                                                                                                                                                                                                                                                                                                                                                                                                                                                                                                             ",
"                                                                                                                                                                                                                                                                                                                                                                        7 v & *.OX@X~.[ r F M + o 6 b 8.4.3.3.0.8.4.J.U.0 3 3 0.i.0.0.Q Q 0.0.0.e.h.l.VXSXvXbXvXbXFXGXvXkXgXjXpXjXpXK.V.H.B.m.V.s.2 o = B a.a.7.6 u 4 4 4 4 o o o O @ 4 @ = 4 M D L.vXhXo.p u t u u u u u ; : & + * * * : : + + + + + + + + + + * : : : : * @ O O O O + + O @ : ; ; u u t t t a u X.G u ; : + o + ; u ; - * ; = . i l X.X.O.<.<.t.i.Y                                                                                                                                                                                                                                                                                                                                                                                                                                                                                                                           ",
"                                                                                                                                                                                                                                                                                                                                                                        4 v - *.+XZX1X`.r G 5 O . U p.Q Q 3.4.3.0.y.U.iX3 $ 2 8.8.8.8.L L 0.0.0.0.e.p.J.lXKXnXbXvXbXmXKXnXxXkXkXvXpXK.K.K.B.m.v.m.v.j X . L L v u 4 4 u = o o o O 2 i > 4 D D B O.kXx.D p t u u u u < ; = = = * o o . . . . . . . . . . . . . . . . . . . . . . . . . . o o o # # 1 i 4 t t u u u a g X.G ; ; & & & & & 4 * o o . i l X.O.X.O.t.6.r.8.i.                                                                                                                                                                                                                                                                                                                                                                                                                                                                                                                        ",
"                                                                                                                                                                                                                                                                                                                                                                        z M :  .].yX5X6X[ a 4 o X B 8./ 4.5.3.4.y.U.H.m.. 8 2 / P Y 3.0.0.L 0.0.0.0.i.S.U.nXDXVXvXbXnXSXFXnXvXvXhXsXpXpXK.K.F.V.v.v.7.B X b V 6 u 4 4 = o o . O 4 6 4 M N D 6.V.K.f.D p a u u u 4 2 = O o . . o . . . . . . . . . . . . . . . . . . . . . . . . . . . . . . . . # o o = t a a a t t u a g ..a t & & + # o . . o o p F X.6.r.t.u.x.f.x.i.3.                                                                                                                                                                                                                                                                                                                                                                                                                                                                                                                      ",
"                                                                                                                                                                                                                                                                                                                                                                        z M : ' (.=XyXyX^.f O o 3 B 0.5.5.5.5.0.a.vXH.4.# B H P Z Z 3.a.p.4.a.0.0.0.a.a.l.iXFXVXvXbXbXmXKXSXvXvXkXK.pXjXhXjXK.H.B.m.N.Y 6 @ $ 5 u 4 = o o o o > i 5 i B I 6.s.jXsXp 4 u u u u u > # . . . . . . . . . . . . . . . . . . . . . . . . . . . . . . . . . . . . . . . . . + < u g t t t ; t g ..g a - & o o . o o . = m O.O.6.x.t.u.B.m.s.y.f.9.                                                                                                                                                                                                                                                                                                                                                                                                                                                                                                                    ",
"                                                                                                                                                                                                                                                                                                                                                                        4 D = s $.OX+X6X(.s + . 3.Q K Q 3.0.w.K.J.bXh.w X Z 3.Q P Q Q 3.5.a.d.p.0.0.i.j.N.h.mXBXBXvXMXbXmXFXHXvXlXhXhXH.:XK.K. X XH.N.v.y.v # @ + o o . . X 4 4 4 6 D i y.hXjXD u 4 4 t t u 4 : . o . . . . . . . . o X . . o o o o o o . . . . . . . . . o o o o o o o . . . . . . . . o * ; t t t t t t y a X.; ; o o . o o * S J O.r.x.x.F.H.L.K.H.N.m.s.s.b                                                                                                                                                                                                                                                                                                                                                                                                                                                                                                                 ",
"                                                                                                                                                                                                                                                                                                                                                                        = D = - ' /.].+X~.f o . p.7.V Q 4.5.0.H.M.U.4.6 X Z Q Z P Q / 4.0.a.a.i.w.0.a.h.l.h.sXkXHXbXbXmXnXSXGXGXnXvXgXaXpXpXpXK.pXpXU.K. X6.K v o . . . @ 2 v v m D K V.V.f.6.i 4 4 u u 1 1 : o o . . . . . . . . . @ 2 6 2 = = = = = @ = 4 4 4 4 4 = = = = ; ; = @ = = @ o . . . . . . . . o * ; t t t t t h g g a : . . m S F X.X.<.x.x.x.F.F.K.K.K.m.x.x.r.i.                                                                                                                                                                                                                                                                                                                                                                                                                                                                                                                ",
"                                                                                                                                                                                                                                                                                                                                                                        = D i 1 r ' ^.^.#.r . = m.w.U Q 3.4.4.U.U.i.L X 6 L Q b P Q Q 5.a.a.a.p.0.0.h.a.p.h.h.W.KXSXnXmXBXmXmXKXMXvXlXkXlXkXkX:XpXjXpXpXpXi.3.K > $ . . 2 v j B D I T jXL.x.u u u i a u 4 : o o o . . . . . . # o X > i F S a a i i u I Y I T I I J G G S S G x g a a a 4 o . . o . . . . . . . * t t t t r r : I p u = + F F X.F <.t.x.x.F.F.:X X X XL.F.N.N.N.3.v                                                                                                                                                                                                                                                                                                                                                                                                                                                                                                             ",
"                                                                                                                                                                                                                                                                                                                                                                      # . B 3.M - d [ #.] + w a.y.0.8.Q Q / Q U.pXQ 9 # 4.3.Y b V / Q 5.a.a.a.a.a.a.p.5.i.a.p.h.B.SXGXnXnXmXmXPXLXmXvXhXlXhXhXjXpXr.y.f.s.d.G.H.8.B . . 6 B K I D 6.bXD a i 4 4 u a u u + o o o . . o @ o . 5 M i m i i O.@.@.@.@.@...jXNX X X X X X X|.c.c.|.-.+.1.1.-...: = = = + o . . . . . . + 1 u y r h t h p ..l & = S O.,.u.n.F.L.F.L. X:XL.G.F.F.L.G.G.B.K.U                                                                                                                                                                                                                                                                                                                                                                                                                                                                                                           ",
"                                                                                                                                                                                                                                                                                                                                                                      6 D z U I D - r y - . b f.g.i.i.Q 3.4.Z.U.J.2 3 # / 5.4.V L 3.Q 5.a.a.a.i.0.0.p.w.p.p.p.p.m.vXvXGXmXmXBXFXPXKXGXvXvXkXhXkXvXpXK.hXhXjXjX:XU.S.v O X b K K G.B.v.U u = < < 1 4 = = . o o o o o o = i 5 4 M N.o.N m X.O.jX XP.'.|. X|.c.c.1.c.c.-.@.@.@.@.| | | | | ..F F J S ; o o . . . . . . + t h t t t t ; p p p u i m r.x.N.F.L. XjXpX XG.L.:XjXjXsXsXpXhXiXK.H.                                                                                                                                                                                                                                                                                                                                                                                                                                                                                                      ",
"                                                                                                                                                                                                                                                                                                                                                                    # 7.6.4 H O.T # o . . . M d.i.i.i.i.0.4.jXB.B.X # # 5.4.0.4.K L / a.a.a.i.0.0.p.a.a.a.p.a.a.a.M.hXKXSXmXBXSXHXLXLXSXnXmXmXmXmXbXvXhXvXvXhX:XbXgX0.2 2 6 I 6.pXK.D 4 < 1 1 < 1 = + o o o o o + + : u D p i D pXy.o.X.O.x.FXMX X X.X|.| | } { ] ] { g ] ' f f f ] ] { ..c.t.t.@.h 4 4 = + o . o . . o : ; h h t t t g F u & @ m.x.N.F.F.L.jXpXK.H.K.jXhXhXhXhXvXMXmXlXH.                                                                                                                                                                                                                                                                                                                                                                                                                                                                                                      ",
"                                                                                                                                                                                                                                                                                                                                                                    @ B D = 2 N D 5 2 > o >.Q i.a.i.p.a.a.8.:X8.V X 2 9 4.4.3.5.V L 0.d.d.a.m.p.0.a.a.a.a.a.a.a.a.M.G.hXDXFXBXSXDXKXLXKXKXKXKXKXKXIXIXHXSXvXhXjXBXBXSXi.V 2 B pX3.K a 4 1 1 < < 1 + o o o o o o = 4 4 p X.x.u.J m.GXMX Xt...O.G } ..} { ] f f s d d d d s s s f f f ] ] a a t t ; u G G G < + o o . . . . + ; h h t h u u G u 4 2 Z.vXkXkXhXnXMXMXMXbXbXmXmXBXGXGXGXkXK.0.B                                                                                                                                                                                                                                                                                                                                                                                                                                                                                                     ",
"                                                                                                                                                                                                                                                                                                                                                                    @ v B 4 o i B m v > @ i.h.w.0.i.a.a.m.B.M.Y 2 . b / 4.4.3.4.Y Y i.h.d.a.M.a.p.a.a.i.0.a.w.a.w.d.H.Z.DXFXHXSXDXPXLXKXFXFXFXFXDXDXSXSXBXvXkXhXMXmXmXd.Z O D  XN u ; ; ; = = = * o o . o o o = 4 u u p X.L.F.F.F SXMXF.@.g f s y y y s r r - - : - - - : ; r t t y y t ; + & : t r G G S g t u ; . . . . . + = t r r t ; G p 4 o K.mXMXbXbXmXSXSXSXSXSXSXDXDXPXKXHXZ.m.3.B                                                                                                                                                                                                                                                                                                                                                                                                                                                                                                     ",
"                                                                                                                                                                                                                                                                                                                                                                    @ m D 4 o # = G i 2 = C.K.K.s.0.a.a.B.lX5.b # X B w.4.3.3.3.8.a.h.h.d.p.h.p.a.a.a.a.5.i.0.0.5.j.N.B.U.SXPXDXLXLXKXvXm.v.s.f.y.y.y.7.r.r.r.r.f.r.y.3.B o M o.u u t ; ; ; = + . o o . o + = 4 a i m a I  XSXFXl r r r a s r r r r - - o o o o o o o o . . o o o o o o . . + - r r t h - S X.l u * . . . . . o r r t ; ; r a F = I 7.T I I Y >.7.7.7.8.r.r.r.8.r.x.H.U.8.>.                                                                                                                                                                                                                                                                                                                                                                                                                                                                                                    ",
"                                                                                                                                                                                                                                                                                                                                                                    = M D 6 o . o i u p = 6.x.:Xm.d.y.p.N.sX4.v X X V 0.3.3.3.3.8.a.h.h.d.0.p.w.a.a.a.v.a.0.8.5.3.h.M.N.B.kXSXPXLXmXlXN.r.6.,.o.o.>.>.o.X.F G G X.F N i 2 o 5 D 4 h t ; ; = @ o o o o o o = 4 i p i  X XjX2.V.t.g g y r - - - - - - + + * : : & & & r y f ] ] f y u 4 o . . + : * & & - & ; u G D p ; o . . . . * t t t t - t p = m S D m i u m N D D D D F F T I M i.b.6.4.Y #                                                                                                                                                                                                                                                                                                                                                                                                                                                                                                 ",
"                                                                                                                                                                                                                                                                                                                                                                    = M B i o o O @ i v @ U i.G.B.m.0.a.h.U.U i X # L y.Q Q Q 3.h.h.h.h.a.8.0.p.a.a.a.a.d.8.8.4.Y m.C.h.m.iXvXLXIXvXG.7.J D B m G G G G G G G g p c S u = . + u < t t ; ; = . . o o o . = 5 i i i T P.uXvX@.} f y : : ; * o o o * & : : p m p g f f  .&.=.*./.*.[ f y - & & * o o . o + + * : S F p h : . . . . o + ; & h t h h = 4 a u u u i u p k p k j k i D D i D Y d.3.L >                                                                                                                                                                                                                                                                                                                                                                                                                                                                                                 ",
"                                                                                                                                                                                                                                                                                                                                                                    = M m 6 * O o + = 4 o I L L N.N.p.hXM.Q 6 X $ 4.5.Q Y L H P h.h.D.a.i.i.a.d.a.a.p.i.y.i.0.0./ h.N.h.d.aXvXKXlXJ.8.B B B S G G G G G ......G S c S < = . o ; t t t ; = o . . . o o = 4 4 5 6 U L.x.G g g f f t o o o o & r r y f f g 2.NX X X|..X[.[.[.[.{.{.'.'.1.+.{ } ..r & o o o o o * : t h G l @ . o . . o o ; & h h h : 4 u t t i g p p k m m m k B j i i v j s.6.>.Q 6                                                                                                                                                                                                                                                                                                                                                                                                                                                                                               ",
"                                                                                                                                                                                                                                                                                                                                                                    @ i j i K > o o * = X M V C 8.N.U.hXC.v # % $ a.a.a.0.Q v Q d.h.h.h.p.5.0.a.a.i.s.i.0.p.3.4.5.B.B.B.d.hXSXBXN.i.o.D S G ..@.@.g g g g g g g g p u * o o o ; h ; = o . . . o o . = t u m v Y f.d.S S h r r - & + * o o : s P.1.;.;.;.t.NXjX X X|.|.;X;X;X;X{.|.|.|.1.1.1.-.y y u a ; o . o o * ; h p p 4 o . . . . o = h t t + * : : ; ; t ; & : = u p m I m i i i D H d.7.Y i o                                                                                                                                                                                                                                                                                                                                                                                                                                                                                             ",
"                                                                                                                                                                                                                                                                                                                                                                    = j 5 = M : o o o o + M B B B h.xXkXC.# . j U h.d.d.w.Q L / d.h.h.h.p.0.0.0.a.d.s.p.0.8.4.5.3.B.B.G.sXnXmXhXm.o.T F ..........t ; ; = = 2 4 u 4 ; + o o = ; ; : . . . . . . o = 1 u u N I 3.r.>.u u - + + & & + y ......@. X|.'.'.;.g f u y y f f f s s y y s r r r r y r f } | } { g < . o o & & t p p = o . . . . o ; t t + . o o O * + + o o O : : 4 N D m i p i u t.i.6.B 5                                                                                                                                                                                                                                                                                                                                                                                                                                                                                             ",
"                                                                                                                                                                                                                                                                                                                                                                    @ v 6 = 6 = O . . o X M B B K a.:X/ B . . 0.d.a.a.a.a.h.d.V i.h.a.w.d.d.i.5.i.a.d.a.i.Y i.0./ B.Z.m.mXMXnXG.3.H O.@...@.c G p o o . . . . . . . o o o o = = * o . . . . . o = 4 4 4 4 t. X7.u & ; * o + o & - r }  X XNXFXAXUX X|.;.- - & ; t y r r ; : * & ; - - & & & & s 1..X|.1.-...o + o o + o * 4 x 4 . . . . . & ; u O . . . . . . o o o o o o + i D F m i u m D K y.U H >                                                                                                                                                                                                                                                                                                                                                                                                                                                                                           ",
"                                                                                                                                                                                                                                                                                                                                                                    @ v 6 + = # # . . . X B D V H 5.B.6 @ # 0.h.d.d.a.a.a.d.d.N.3.p.h.3.i.a.d.0.p.d.i.3.Q 0.0.a.v.M.m.h.SXbXH.r.r.D F ..X...u o o . . . . . . . . . . . o + = o . . . . . . # 1 4 i 5 m m.s.F u ; & o . . . & y <. XMXFXBX X@.+.| s d y : s s d ' ' ] ' ' d d d d d s s s s f r y d d s r ..@.I S o o o o * & a 6 o . . . o * : . . . . . . . . . . . . . . X + p N i u a J 6.v.U K =                                                                                                                                                                                                                                                                                                                                                                                                                                                                                           ",
"                                                                                                                                                                                                                                                                                                                                                                    @ v j i @ # # o o o X B H C B P h.2 8 9 S.Z.N.d.a.d.h.h.d.d.4.0.5.w.a.d.a.w.3.8.4.0.p.i.5.0.v.m.Z.aXMXpXB.6.X.D ....G : = + . . . . . . o . . . . . o o = . . . . . o @ + 4 i 4 K >.o.t.; u ; o o . o + c 1.P.uXNXNXjX X' { ] [ [ { s =./././././././.*.*.*.*.*.*.#.$.#. .d y r r r r { { g u < u = . . & t 4 2 + . . . o . . . . . . . . . . . . . . . . X 4 m i a u p T v.7.o.D                                                                                                                                                                                                                                                                                                                                                                                                                                                                                           ",
"                                                                                                                                                                                                                                                                                                                                                                    @ v M D . X o o . . X B B 6 9 / M.3 6 L H.sXlXi.h.m.d.h.d.0.m.h./ p.p.p.p.a.5.4.4.0.a.p.0.d.m.M.J.nXnXU.8.G G G ....k + . . o . . . . . . . . . . . . . . . . . . o O > 2 4 6 u m.F.p ; : : * o o # = a 1.|..XNX X- ..| &./././.`.-.d {.{.{.@X[.`.`.'.`.~.*.*.*.*.*.*.*.#.] f - d ]  .[ ' : t G @.c . + o * a p ; o o . . . . . . . . . . . . . . . . . . . . 4 i p p a S ,.y.3.3.5                                                                                                                                                                                                                                                                                                                                                                                                                                                                                         ",
"                                                                                                                                                                                                                                                                                                                                                                    @ j B B 5 O . o . . X B B 6 9 Y M.3 6 V V J.aXU.N.v.h.h.d.m.i.d.d.a.a.a.a.i.K K a.a.d.a.i.h.N.B.K.FXU.i.,.D S ....S o . . . o . . . . . . . . . . . . . . . . . o o @ = 6 4 u O.O.6.; ; & + o o : ; ..O.|.c.r r r g |.;X1X-X+X@X=.{ - d s s r s s s s r - r r - - - r r s r r r r ' '.`.=.| ] - : i g p o o : ; a ; + . . o . . . . . . . . . . . . . . . . . o i m u p u i s.>.7.5                                                                                                                                                                                                                                                                                                                                                                                                                                                                                         ",
"                                                                                                                                                                                                                                                                                                                                                                    = M N B 6 @ . . . . X M b v B Q M.3 3 K V a.U.sXS.h.h.h.i.m.a.d.a.p.a.i.i.y.L V v.a.a.a.a.Z.J.U.fXHXJ.8.K k G G F m . . . . o o o o o o o o o o + + + o o o + + o o = = i k a d.O.4 : : & & * : a G u.O. Xc.y ] &./.[.6X6X1X1X6Xd f y s y y y y s y y s s r s r r s r r r r s r - s '.1.&. .d & o t ....u o + & g t = o o o o o o o . . . . . . . o + o o . . o i S a a i i i.7.f.5 >                                                                                                                                                                                                                                                                                                                                                                                                                                                                                       ",
"                                                                                                                                                                                                                                                                                                                                                                    = N 6 O j > o o o o X M b v K 3.C.3 3 K V Z Q sXaXU.h.h.d.5.h.a.i.a.p.p.4.4.V b h.a.i.a.a.A.K.kXBXFXm.3.D S S S a o . . . . O 6 4 = # # . O = = = = = = 4 4 4 4 . o o O 4 K t.D i : : * + + ; p :X XF.a g f d #./.[.6X6X} ] s r & - } '.'.'.|.'.-.-.-.-.-.-.-.-.-.-.-.-.-.-.-.-.] ] d r - r r o o & - f ..c * o o y g & + * * & - & - & u 4 4 4 4 4 = + o . . o o ; p u p 4 i o.r.m v                                                                                                                                                                                                                                                                                                                                                                                                                                                                                       ",
"                                                                                                                                                                                                                                                                                                                                                                    = M i = 2 4 2 @ o o X v B M L 3.C.3 6 K B L Q Z.I.U.J.M.m.h.h.h.a.a.a.p.0.4.B b d.a.i.h.Z.J.J.vXBXpXf.>.H F ..g p . . . o o = 4 N 4 = 2 = 4 i i i i i v i i i 5 @ + o o : D J m : O o o * ; p r.F.P.t.a y  .#.*.=.'..X|.- a @.O.c.;.'.'.'.'.'.'.'.;X'.{.{.[.{.{.{.{.[.[.}.{.[.'.'.'.| ] ] y y y y t & t f f r t + ; a t : * * : < r u t t i i i u u 4 4 : o . o o ; p p u u u <.x.o.H                                                                                                                                                                                                                                                                                                                                                                                                                                                                                       ",
"                                                                                                                                                                                                                                                                                                                                                                    @ M 6 2 o i M 5 @ O X M K B K / C.3 6 L B L L Z h.W.U.A.M.m.l.l.l.h.d.M.a.4.K b a.i.i.h.K.K.J.mXSXv.r.o.J ....g 4 . . . o o = = 8.D 4 6 v p i M M D N M M D i 5 2 5 @ o = i i * * o . * a F 6. X Xt.r { [ &./.&.-.| r ; a +.|.|.|.'.'.'.'.'.[.{.{.AX6X6X6X6X6X6X6X6X6X1X1X1X-X-X@X@X/.#.#.[ ]  . .f - - & t ..g r - - g 4 o o ; p a p a u m v v v i i i i o o o o * i p p u a O.b.3.I 6                                                                                                                                                                                                                                                                                                                                                                                                                                                                                     ",
"                                                                                                                                                                                                                                                                                                                                                                    @ M 6 @ o @ 2 B 6 @ + D K B Z Y m.$ 3 P Z L L L P W sXU.l.l.M.m.m.0.y.d.h.s.3.V a.0.v.J.H.K.J.BXnX6.T D X.....a + . o . o o = 5 D :XMXH.m.x.f.x.x.x.N.F.u.t.y.f.r.T 7 o o + = = . o o ; a  XjX..g g } ;./.;.d s r r s @.|.|.|.6X;X{.{.6X6X6X6X6X-X+XOXOXOXOXOXOXOXOXOXOXOXOXOXOX^.^./.[.@X{.{.'.;.{ } f g t - f } a + y < o o m O.X.x.x.x.y.n.n.n.f.u.V.>.i o o o o : i p u t a S v.6.V @                                                                                                                                                                                                                                                                                                                                                                                                                                                                                   ",
"                                                                                                                                                                                                                                                                                                                                                                    @ M i 4 o o = B j 6 + H B B K Q j.@ 3 Q K V Z L L L iXJ.iXC.A.M.h.h.d.d.d.i.0.Y a.0.h.S.J.sXvXvXkXo.O.G ..@.G ; o . . o o = 4 4 o.pXbXF.x.r.t.t.t.x.x.x.t.X.r.r.6.x u + . . o o . o : S 6.P.u.c f ] { -.;.&.r G G } } ;.'.'..X6X6X6X6X6X6X6X1X-X-XOXOXOXOXOXXXXXXXXXOXOXOXXX).).^.*./.].}.}.[.`././.'.-.d { f y f < ; y & o o i F J 6.6.u.6.x.x.r.6.t.u.T i 2 . o o o u a u t a l F.i.>.i                                                                                                                                                                                                                                                                                                                                                                                                                                                                                   ",
"                                                                                                                                                                                                                                                                                                                                                                    @ S l p + + o 5 B v @ H B M K Q j.@ 3 Q L V B V V Z Z K.lXM.N.M.h.d.d.h.a.5.p.a.a.0.h.S.H.sXDXB.i.X.O.G ..+.a + . . . o # > 4 i jXV.O.; : & & - - ; - ; : : ; ; : : = + o . . . o + a @. X@.g } ]  . .d s r r 1.1.1.1.;.1.'.;X1XZXJXAX+X%XXXOXOXOXOXOXOXOXXX(.^.^.^.(.(.(.(.(.^.(.~.~.^.~.~.~.~.{.{.{.'. .] ] s & : g - o o o o ; ; & - - : t ; : ; * & O i M o o o + < a p u a p K.r.6.L i                                                                                                                                                                                                                                                                                                                                                                                                                                                                                 ",
"                                                                                                                                                                                                                                                                                                                                                                    + p F G * & o o 4 v o B B M Z Q j.$ 3 Q H B V b n L V M.aXbXW.M.v.h.l.h.s.5.j.a.l.M.J.J.J.sXSXm.8.X.O.O...@.; . . o o o @ = I x.t.O.u 4 ; ; t t t : t t h h t t ; : & o . . . o + : o.N...y { 1. . .} s r a 1.;.;.-.-.-.1.6X6X1X1X-X+XOXOXOXXXXXXXXXOXOX#X%X%X#X#X#X#X#X#X#XOXOXOX).(.^.~.^.~.~.^.*.~.~.'.[. .d r - & r t ; o o + ; t t t u a a t ; ; ; = i N = @ X o & u G g a u p >.y.6.i                                                                                                                                                                                                                                                                                                                                                                                                                                                                                 ",
"                                                                                                                                                                                                                                                                                                                                                                      a g G ; - & * + # . B B B Z Q j.$ 3 Y B B V b b L K Q 8.lXsXU.D.Z.l.d.d.8.a.h.J.W.U.J.mXbXK.r.Y J ..X.....+ . o o # * * i D  XD G t ; ; ; ; ; ; ; ; ; t t ; : : : o . . . . = u D x.O.y g } |  .d s r } 1.-.+.-.-.'.;X6X{.+X+X+X#XOX#XOXXXOX%X#X=X#X&X=X&X&X&X*X&X*X*X*X*X&X&X=X#XOXOXXX(.(.^.^./.^.^./.[./.-.f - & r t u + o o o * : & & * * : t ; ; ; 4 i p > o o o ; g g g u i >.r.Y i 2                                                                                                                                                                                                                                                                                                                                                                                                                                                                               ",
"                                                                                                                                                                                                                                                                                                                                                                      : y G ; r s f ; o . H K B B Y a.@ 2 Y B b B b B V L Y Q iXaXgXH.M.d.h.a.i.a.M.J.iXiXJ.BXnXs.>.D D G ....a o . . o = + * I r.G.p u u u t ; ; ; = ; ; = ; ; * * : * o . . . o i S t.P.S f f ] { g r r } -.;.+.-.-.'.[.@X1X].).].OXOXOXOX%X#X#X=X*X>X>X>X,X,X,X,X,X>X>X,X>X>X>X>X>X*X&X#X#X#XOX].(.(.^.^.~././.`.[ ] y r r t + & o o o o . . . . . : ; ; ; ; u O.i 4 o . + 4 g g a p o.r.o.i 2                                                                                                                                                                                                                                                                                                                                                                                                                                                                               ",
"                                                                                                                                                                                                                                                                                                                                                                      ; u p + - [ #.d * . H L B B Y i.@ 2 Y B b 6 B V V L Q Q P K.sXJ.C.h.h.a.j.N.J.iXiXU.K.SXbX7.o.B D F ..G . o . o + : 1 4 r.x.a u t u u u t : + o + : = = : * * + o . . . @ 4 G t.x.t r f f f r - - ] -.&.-.;.&.;X6X6X].].(.(.(.).XXXX#X*X*X*X>X,X2X3X3X9X9X9X9X9X7X3X3X3X2X2X,X,X>X*X*X#X&X&X#X).).(.^.~.$.#././.=.' r r - - & + o o . . . . . . o : ; t r a X.S m + . . o u a a ; 6.f.6.D M O                                                                                                                                                                                                                                                                                                                                                                                                                                                                             ",
"                                                                                                                                                                                                                                                                                                                                                                      = ; i o s *.].~.' + I L B V Q i.@ 2 Y B 9 9 B V V P L L Q 5.B.vXJ.a.K.Z.0.B.K.aXU.sXBXjXpX>.o.F F ..G a . . . o o : 4 o.x.f.u t a u u : * o o o o o o o o o o . . . . . X 4 t.O.G f f f t : + + g | &.| -.'.;X[.[.(.OX(.(.^.(.OX#X*X>X>X2X2X2X9X0X0XrXCXCXCXCXCXrX0X0X9X8X8X7X8X3X,X,X>X*X*X&X#XOXOX(.^.$.$.#.*.*.`.] s - f y - o o . . o . . . o + : t h h t G I @ . . . u g g t i O.f.T D #                                                                                                                                                                                                                                                                                                                                                                                                                                                                             ",
"                                                                                                                                                                                                                                                                                                                                                                      M m 1 o y /.-XOX~.& I H v H Y y.@ 2 Q b b v B B B P L K L Q q.sXK.J.D.N.M.J.U.iXU.gXFXK.N.X.>.X.@.@.a O . . . o + = p i.t.O.t t t u u + o . . . . . . . . . . . . . . . 4 u u.X.g ] ] f & + o a } | &.-.1.{.@X`.(.(.(.).^.^.).#X&X>X,X3X8X9XrXrXrXrXCXPXPXPXPXLXCXtXrXrXrXqXqX0X9X7X3X2X2X2X>X&X#X#XOX(.~.~.$.#.*./.#. .s ] ] r - + . o o . . . . o o * = 1 ; J X.u + . . = a g u u D t.>.Y 2                                                                                                                                                                                                                                                                                                                                                                                                                                                                             ",
"                                                                                                                                                                                                                                                                                                                                                                    6 8.Y * + f ~.tX-X].& B M i B U 8.+ 2 Q b B C v b B L L K L P P j.U.fXS.S.J.U.J.J.U.iXSXV.y.J X.O.@.@.i . . . . # = 5 D V.G ; t < u h & o . . . . . . . . . . . . . . . o m G u.c g f ] f - & r } | | | 1.6X~.(.(.(.(.(.(.).OX#X$X*X,X2X7X0XwXZXPXPXPXPXLXLXLXLXLXLXPXJXJXCXtXrXwXwXwXrX9X8X8X,X*X*X$X#XOX^.^.*.#.#.#.'.=.] [ ] d r & + o o . . . . o o o : 1 < p p u : o . o ; a u u < u I I b 3                                                                                                                                                                                                                                                                                                                                                                                                                                                                           ",
"                                                                                                                                                                                                                                                                                                                                                                    5 o.D * + d ~.1X6XUX; M b v M I 8.O v Q B V V v B L Y L L K H L P Z.gXvXiXU.U.U.J.gXvXvXs.T G G @.@.G = . . . o # 4 4 X.x.S - ; ; ; : o o . . . . . . . . . . . . . o . @ D f.g u f f t : o y +.{ ]  .'.{./.(.^.(.(.^.^.].OX$X$X&X>X2X9X8XtXJXPXLXLXLXLXLXLXLXLXLXLXJXZXZXZXZXCXCXCXCXCXrXqX0X7X2X2X=X#X%X%XOX^.~.$.*.#.~./.[ ] ] d r - & + o o . . o o o + 1 1 ; 4 J a + . . ; u p a t i i.o.I 2                                                                                                                                                                                                                                                                                                                                                                                                                                                                           ",
"                                                                                                                                                                                                                                                                                                                                                                    5 Y H 1 + s $.=XAXUX; R b j D K 3.@ v 4.K B B v n L Y L V B V L L a.J.mXxXU.U.U.Z.mXmXK.>.X.G ....X.u # . . o o # 4 r.7.D g u ; ; ; o . . . . . . . . . . . . . X . . # j U t.- t r y = o c | | ] | 1.'.[.^.^.^.^.).^.(.OX%X$X&X&X>X2X8XrXZXLXLXLXLXLXLXLXLXJXZXCXCXtXtXrXrXrXyXyXyXrXrXrX0X0X0X8X7X,X*X$X$X%X%X).~._._.~.~.*.#.] ] d r - - o o o . o o o o = 1 ; : G 4 ; o o + : g a t a o.o.4.H                                                                                                                                                                                                                                                                                                                                                                                                                                                                           ",
"                                                                                                                                                                                                                                                                                                                                                                    2 T Y N : r %.).6XUX: M b j K L >.@ v 8.Y V B v n L Y L V n V L K Q a.bXvXaXW.U.J.BXvX6.6.J G ....G : o . . o + o 4 m.6.& r u ; ; @ . . . . . . . . . . . . . . . . . = H D F t r r - - - ..&.[ { &.;X[.~././.~.~.(.OXOX%X%X$X&X*X>X2X9XtXZXLXLXLXLXPXJXJXJXCXrXrXrXwXqXqX0X7X7X7X7X7X7X7X7X7XqXqXeX2X*X&X&X$X&X#X).(.~.~.$./.~.[ ] f y - - - + o . . . . o + = ; ; - p i o . . o p g a u u o.pXi.B                                                                                                                                                                                                                                                                                                                                                                                                                                                                         ",
"                                                                                                                                                                                                                                                                                                                                                                    > D 3.7.= : ' ~.[.|.- v v 6 H U >.$ v Q v B b j B Z Y L V C Z L V Y 0.m.U.BXsXU.kXkXhXD D D D @.@.: o . . . . = > U t.I t t ; ; & o . . . . . . . . . . . . . . . . o 4 6.N t r - ; o a r } | [ -.;.{./.~.~.^.~.].#X#X#X#X%X$X&X*X>X,X3X9XyXJXLXJXPXCXyXwXeX9X9X8X9X9X9X2X2X2X2X2X2X2X2X2X2X2X2X2X2X2X,X,X&X$X>X5X=XOX).^.~.~.~./.[ ' f r - - & o . . . . . . + ; ; - m a + . . . S f f g a T pXs.B                                                                                                                                                                                                                                                                                                                                                                                                                                                                         ",
"                                                                                                                                                                                                                                                                                                                                                                    > v o.y.2 : r [ /.'.: v j 6 H U >.$ j K I b 9 6 B K Y P V V Z L V L 5.0.iXBXsXgXvXpXZ.D J D D X.X.+ . . . . = : m V.m u t h h : o o . . . . . . . . . . . . . . . . = i R u h r : o - g s } { { [.`./.^.~.~.~.(.#X=X>X>X*X&X$X&X*X,X,X2X8XqXCXCXCXCXrXwX0X0X0X8X7X7X7X3X2X2X,X,X,X,X,X,X,X,X,X>X>X,X,X,X>X&X&X>X2X,X=X%XOX(.~.~./.$.[ [ s r r - o o o o . . . o ; ; - p i 4 @ . . u f } g g p m.7.j                                                                                                                                                                                                                                                                                                                                                                                                                                                                         ",
"                                                                                                                                                                                                                                                                                                                                                                    > 6 K 3.6 4 o r ' [ - v i 6 L T B @ 4 j h.B # 2 v B Y L V V L L L L P P i.N.GXKXKXh.K H D G D F G : . . . o = u M x.B ; t h h & o o . . . . . . . . . . . . . . . . i D u u t - + : y { ] f {  .;X[.*.~.~.^.(.#X#X*X,X2X2X&X&X&X*X*X>X,X2X7X8X8X0X0X0X0X7X7X3X2X2X2X2X,X,X,X,X,X,X,X>X>X>X>X*X*X*X*X&X&X&X*X&X&X&XeXeX*X&XOX(.~.$./.~.#.] s r r r - + o . . . o + ; - & u B 4 . . o y { y g t O.D i                                                                                                                                                                                                                                                                                                                                                                                                                                                                         ",
"                                                                                                                                                                                                                                                                                                                                                                    > 6 M D >.M o + r d - M M j >.U v X 3 9 a.3.V # 3 V L K C K L L L V L Q P L C.sXFXm.o.D m G G p : o . . . o O K N.S ; ; t t ; & o o . . . . . . . o o . . . . . . . D I t r r - o + } ] | f { [././.*.~.~.(.OX&X*X,X3X9XrX4X<X*X*X*X*X>X,X,X2X3X7X7X8X8X7X7X7X2X3X2X2X2X2X2X2X2X,X,X,X,X,X>X>X*X*X*X&X&X&X&X&X$X&X*X<X4X,X#XOX^.~.~.*.~.[ d s s s r - + . . . o o * t t u S @ o . o h } f g a @.B j                                                                                                                                                                                                                                                                                                                                                                                                                                                                         ",
"                                                                                                                                                                                                                                                                                                                                                                    o j 6 6 8.B o X o : + M M j K H 6 o 2 i B 3.3.6 6 9 V B V L K Z Z M L P P L l.Z.kX7.H F T G F i o . . . # * 4 T x.u ; ; t ; @ o o o . o o o o o # . . o o . . . . @ D F r r - o + y ] g } { &.'.*.~.~.$.(.OX#X*X,X2X9XyXCX6X4X*X>X*X*X*X*X>X>X,X3X3X7X7X7X7X7X3X3X3X3X3X3X3X3X3X3X2X2X2X,X,X,X,X,X>X*X=X*X&X&X&X&X$X&X4X2X>XOXOX^.$.*.~.$.[ s s s s r - + . . . . o ; t u u u u . . : y f f g F X.j                                                                                                                                                                                                                                                                                                                                                                                                                                                                         ",
"                                                                                                                                                                                                                                                                                                                                                                    o 5 6 m 3.K 6 . . # . B B v K H 5 o 3 v j 4.0.3.6 2 V Z K K K Z Z M L P P L j.C.Y M k O.t.X.J i o o . o o = S G 6.a : < t * + . o o . o # * = = = = # o o . . . o i p S t r & o : g ] { y 1.`.*.*.~.~.~.).#X=X>X2X7XqXtXZXCXrX,X>X*X*X*X*X*X>X>X,X2X3X3X8X8X8X8X8X8X8X8X8X8X8X8X7X7X7X3X3X2X2X2X2X,X,X>X*X*X&X&X$X$X%X#X4XeX>X=X].(.*.~.^.$.] s s ' f f r o o o . . ; r t : i ; o . . r f f g ..O.m                                                                                                                                                                                                                                                                                                                                                                                                                                                                         ",
"                                                                                                                                                                                                                                                                                                                                                                      @ > j v Y Y @ o X . B D B K B 2 o 3 b j B 5.U.8.b 3 v L K K Z Z M L Y Y P j.H.>.M p S S F O.i o . . + = i F.O.< : ; t u + o . . . . O = = > 2 2 i z = o o . . . B < u ; ; & o y g f f d -.`.*.*.*.~.].#X=X>X,X3XeXtXtXrXeX9X3X>X&X&X&X&X&X*X>X>X>X,X3X8X8X0XqXqX0X0XqX0X0X0X0X0X0X0X8X7X7X3X3X7X3X2X,X,X>X*X*X&X%X%X$X&X>X4X<X#X].^.~.~.~.=.] s ] f f f y : o . . + r t - t ; o o . r g g y ..O.m                                                                                                                                                                                                                                                                                                                                                                                                                                                                         ",
"                                                                                                                                                                                                                                                                                                                                                                      X > v 6 U 3.6 @ X . M B B K B 5 o 5 v j B Q W.a.0.w 9 B V L Z Z M L Q W P h.Z.4.D p p S G i = . o o o 4 N t.I ; ; ; t t + o . . . o 5 j I 4 5 4 4 6 4 2 . o o o M ; : * & & o y g r { ;.=.~.~.~.~.(.OX#X*X2X7XeXtXCXtX9XqX9X2X>X&X&X&X$X&X&X&X*X=X2X7X0X0X0XwXtXtXtXrXrXrXrXrXrXrXrXrXrXrXwXqX8X7X3X3X3X2X,X>X*X&X#X%X%X$X,X>X&X#XOX).^.^.~.[ ] ] ] f ' f t : o . o - t r u ; + . . t g g a @.O.p                                                                                                                                                                                                                                                                                                                                                                                                                                                                         ",
"                                                                                                                                                                                                                                                                                                                                                                      X > v 6 D o.H 2 . . M B B K B 5 X 6 B 9 v P U.iXW.Z 0 3 K B Z K M L L L L l.Z.8.I S G G S o . . o o + u T ; 1 ; ; t t < o . . . . # N T 6.4 4 , 4 u i i o o o o m ; : o o o & y g - f '.&.*.*.~.^.).&X&X>X3X9XrXZXrXeX7X3X,X*X>X&X$X$X$X$X%X&X>X,X9X0XqXqXwXyXJXJXZXZXZXZXZXZXCXCXtXtXtXtXtXrXwX9X7X7X7X3X2X,X,X*X$X$X$X$X$X$X*X$X%XOX(.^.^./.[ s {  .' s g a * o . & r r t t & . . t g g g O.<.p #                                                                                                                                                                                                                                                                                                                                                                                                                                                                       ",
"                                                                                                                                                                                                                                                                                                                                                                        > 5 6 i 6 y.M o . m M B H B 5 o 6 H 9 b L P aXsXC.4.# 3 n L P P V P L L M.J.0.U S S G G . . . o o o 5 T ; 1 ; t u : o o . o o # O o I r.I D 4 7 7 i m m + o o + ; ; o o + g f r s | &.&.#.~.$.].#X&X>X2X7XtXCXrX9X7X2X,X>X*X&X&X&X$X$X$X&X*X,X2X3X9XqXwXCXJXLXLXPXPXPXPXPXPXJXJXJXJXJXJXZXCXtXrXwXqX0X8X7X3X,X,X>X&X$X%X%X&X*X&X&X#X#X].^./.*.[ ' [ -.{ s f a a * o - r y t & . . r g f y ....p o                                                                                                                                                                                                                                                                                                                                                                                                                                                                       ",
"                                                                                                                                                                                                                                                                                                                                                                          > v 5 5 3.B v . M B M U K 2 o 6 H 6 L K V I.U.J.z.P 9 b W / P B P P L M.J.0.I S G G G o . . o o o < T ; < ; t t & o o . o # # @ # m T y.I i 7 4 u i M 5 4 o o : : o o + a r r r ;.&.#.#.$.~.].$X&X,X3XqXrXrXqX9X3X,X>X*X&X&X&X&X%X$X$X*X*X>X,X3X7X9XtXJXLXLXLXLXLXLXLXLXLXLXJXJXJXJXZXCXtXtXrXrXqXqX0X8X8X3X2X,X>X&X%X%X=X,X>X>X&X#XOX(.^.~.*.[ d | [ [ g g a t * & - f t o . . t g f f c ..i o                                                                                                                                                                                                                                                                                                                                                                                                                                                                       ",
"                                                                                                                                                                                                                                                                                                                                                                          o j 6 6 j K >.. B B B 7.Y X o 3 H 2 C L P W 4.vXI.p.9 V n 4./ V L P P C.U.8.U l l ..G o . . o o o 4 X.; < ; t r ; o . o # o > @ @ + = x.o.i M 7 i u i i m # o & @ o o o - r r s 1.[ #.#.#.(.OX$X>X2X8XqXqXeX7X,X*X*X&X&X&X&X&X&X&X&X&X&X*X>X>X,X3X9XCXJXJXLXLXLXLXLXLXLXJXJXZXtXrXtXrXrXrXwXqXqX0X0X0X0X0X8X3X2X,X>X&X%X$X*XeX4X=X&X#X#X^.^._.#.' '  .&.f g g c a & & : r o . . - y f r @...i o                                                                                                                                                                                                                                                                                                                                                                                                                                                                       ",
"                                                                                                                                                                                                                                                                                                                                                                          X 3 5 j M >.7.o D H B 3.U X o 3 V 2 C A P P P 0.iXhXw.P $ 4./ P P P P e.C.8.U l l ..G . . . o o o u X.t 1 u h h 4 o . . . # O O O * = 5 y.N.6 v M M M N N D o & + o o o r r - s ;.[ #.#.#.(.#X$X>X7X8XqX0X9X2X>X&X$X&X&X&X$X&X*X*X*X&X*X*X*X>X>X3X8XrXtXCXLXLXLXLXLXLXJXCXtXrXrXwXwXwXqX0X8X8X8X8X8X8X7X7X7X7X9X7X2X,X&X$X&X=X2XeX*X&X#X].~.~.$.[ ' ] { ;.{ f s g a o : & o . o & s f r p ..i o                                                                                                                                                                                                                                                                                                                                                                                                                                                                       ",
"                                                                                                                                                                                                                                                                                                                                                                            = 2 j v H U o M D D U D . . 3 B 3 n K L L L n U.gXW.a.b C L Q L L P S.K.3.H p g ..G . . . . o & u O.y t u a a ; + . . . + @ O O : = o 6.B.7.B m M m m N D 6 & + + . o r r r } ;.[ [ #.#.).%X&X<X7X0XqX9X2X>X*X&X&X$X$X$X&X*X>X3X2X>X*X&X*X*X>X,X7X0XqXrXCXZXPXLXJXZXCXrXrXrXwXqXqXqX0X8X8X7X7X7X3X3X3X3X3X3X2X3X3X4X*X&X$X#X>X4X4X>X$XOX(.~.$.$.[ d f | #.{ { f f g = o o . . & s f r y ..u o                                                                                                                                                                                                                                                                                                                                                                                                                                                                       ",
"                                                                                                                                                                                                                                                                                                                                                                            > 2 i v v j @ i M I H v o . 3 M j B V Z A L Z M.gXmXM.q.8 b Q L L P T.U.K B G g G S . . . . o * u O.a h u t & + o . . o o # O = = = o >.v.H.Y M 5 m m m N D = * o . + s r f 1.[ [ #.#.#.OX%X=X,X9XwX0X2X>X*X&X&X&X$X$X&X*X,X3X0X8X3X*X&X&X&X*X>X,X2X7X0XrXtXJXJXZXtXrXrXrXrXqX0X8X8X8X7X7X3X3X2X2X2X2X2X,X,X>X,X2X4X,X*X$X$X&X,XeX2X=X%X).(.^.*.$.[ s s ;.-.] f } } ; + . . X * s y r g ..i #                                                                                                                                                                                                                                                                                                                                                                                                                                                                       ",
"                                                                                                                                                                                                                                                                                                                                                                              @ 2 j j b 5 2 v K B v o . 3 6 Y V b M L L A L / E.fXkX/ V w Q W W M.J.L I D a g S . . . . o * ; p u ; ; & o . . . . o 5 = = = 1 1 = 4 i G.m.i.v m m k p F m h o . o r s ] 1.] ' #.*.~.OX%X>X9X0XqX3X,X*X&X$X$X$X$X#X*X>X7X8X0XqXqX2X>X&X&X*X>X>X,X2X3X0XqXrXCXZXtXwXqXqXqXqXqX8X8X8X7X7X3X3X3X2X2X,X,X,X>X>X>X*X>X2X>X&X%X$X&X2X3X2X=X#X).(._.~.*.[ f f { 1.} { } } g t o . & r t f g @.p @                                                                                                                                                                                                                                                                                                                                                                                                                                                                       ",
"                                                                                                                                                                                                                                                                                                                                                                              @ @ 2 6 v j 2 i K B v o X X O Y M b 9 K L A V W I.xXvXL w 6 P A Z l.C.o.I G g c S . . . . o @ 4 i = : & o . . . . . o = i i = 4 2 4 4 6 x.m.f.B m m i i D G a o . o r f  .1.' ' $.^.(.%X&X>X8X8X9X,X=X$X#X$X$X%X%X#X>X3X7X8X0XqXqXeX,X&X&X*X*X*X>X,X2X8X0XqXrXtXtXrXqXqXqXqXqX0X8X8X8X7X3X3X3X3X2X2X,X,X>X>X>X*X*X,X,X>X#X$X#X*X2X4X>X&XOX(.(.^.~.$.[ s ] ;.;.[ ] ] ] f t o + r f f g @.u o                                                                                                                                                                                                                                                                                                                                                                                                                                                                       ",
"                                                                                                                                                                                                                                                                                                                                                                            X . . . 5 j v 5 j B B j . o . X H L L 6 w V A V P S.mXkXn 2 6 P K Z l.A.U D G c G S . . . . . o = 5 # o o . . . . . . + . v D + 4 4 5 2 5 > H.:X>.v v i i x G ..: . o - { ] -.d ' $.^.OX%X=X,X0X7X,X=X$X%X%X%X%X%X#X&X2X7X8X0X0X0XqXrX<X&X&X&X*X*X*X>X,X7X8X8XqXwXtXtXrXqXqXqXqXqX0X8X8X8X7X3X3X3X2X2X2X,X>X>X>X>X*X=X>X>X&X$X$X&X>X9X3X*X#XXX).(.^.~.$.d s ' '.'. . .[ ] g t * - f y g S ; o                                                                                                                                                                                                                                                                                                                                                                                                                                                                       ",
"                                                                                                                                                                                                                                                                                                                                                                            @ $ o . X 2 j v 6 2 i i . X X . X M P 0 6 n A Z A M.h.Q $ O 6 Q V V l.N.K D p m G m . . . . . o . X . . . . . . . . . o o + = D v = > 2 2 5 M 3.pXV.i m m p S ..X.g & - { |  .] ' *.~.).&X=X,XqX9X>X&X$X%X#X%XoX%X&X>X3X9X8X8X0X0X0X0XqXeX&X$X&X&X*X*X>X2X7X7X0XqXrXtXtXqXqXqXqXqXqXqX0X8X8X8X8X7X7X7X7X3X2X,X,X,X>X*X*X*X*X&X$X#X&X>XeX2X*X#XOX(.(.^.~.$.[ d ] =.[.#.[ ] :.:.y & * r f c ; o                                                                                                                                                                                                                                                                                                                                                                                                                                                                       ",
"                                                                                                                                                                                                                                                                                                                                                                          2 4 2 @ o . @ 5 5 2 = 6 2 . o > 2 . 6 K n b 6 A Z A j.8.H 6 + 5 Y b b h.M.H m u p g p o . . . . o 2 = 2 2 2 6 o . . . o # # # = D 5 5 > 2 2 4 = B H.v.8.i m m S ....g - - { | ] ' ' $.~.).&X>X4X9X4X=X&X$X%X%XoX%X$X&X,X3X7X8X8X8X0X0X8X8X7X>X&X$X&X&X*X>X,X3X7X0X0XqXrXtXrXrXwXrXrXrXrXqXqXqXqXqXqX9X8X8X8X3X2X2X,X,X>X>X*X*X*X&X$X$X&X,X3X>X&X#XOX(.^.^.~.*.' r f /.=.&.] { { ] y * & r a =                                                                                                                                                                                                                                                                                                                                                                                                                                                                         ",
"                                                                                                                                                                                                                                                                                                                                                                        5 B v 5 2 . . . . 5 5 @ X . . = 6 v @ . X Q C 0 A Z A j./ H i @ 2 U b b h.M.K a u a g p . . . . @ 2 i 6 6 6 v m > . . o @ @ o o # v 6 M 2 2 2 2 = j B K.G.i m S G ..G } f - f ] ] ' ' $.~.).&X,XqX3X,X*X#X%X%X%XOX#X*X>X2X3X7X8X8X8X8X8X7X7X3X2X,X&X&X&X*X*X>X,X3X8X0X0XqXrXCXtXrXrXtXtXtXtXtXtXtXtXrXrX0X0X0X8X7X7X3X2X,X>X>X*X*X*X&X$X$X&X>X9X,X&X#XXX(.^.^./.$.' s s '.;.[ ] ] { ..t * o = :                                                                                                                                                                                                                                                                                                                                                                                                                                                                         ",
"                                                                                                                                                                                                                                                                                                                                                                      m L D B 5 > . X . . i j 6 @ o X v v B v # X L V L 3 w A j.3.K i @ 2 U b b j.M.I D p p g i X . . . 3.3.Y L K V B M v 6 . . o o o o # # i I 2 5 2 5 4 4 > G.B.G.6.I G ..G @.1.- - r s s ' $.~.).=X2XqX2X*X&X#XoXXXXX%X&X>X2X3X7X7X8X8X7X3X2X2X2X3X7X2X2X*X&X&X*X*X,X2X7X8X0XqXrXtXtXCXCXZXJXJXJXJXJXJXZXtXtXrXrXrXqX8X8X8X7X3X2X,X>X>X>X*X$X$X$X=X7X2X<X$XOXOX(.(.^.~.$.' s d ;.[.&.{ ] { | c + * *                                                                                                                                                                                                                                                                                                                                                                                                                                                                         ",
"                                                                                                                                                                                                                                                                                                                                                                    5 K o.Y v 6 > . o . . 5 6 v @ X . b j b B 2 8 2 Q q.b V A h.>.K i * > U b b j.M.v m i p p i X . . @ H 7.7.Y 4.U B B K j = X . o o o # o 4 D M B 5 5 5 5 2 7.:XpX6.I G ......+.} < - r r ] #.~.).=X2XeX<X*X#XOXXXXXXX%X&X,X3X7X7X8X7X7X2X,X,X,X,X2X3X2X2X*X&X&X&X*X>X,X2X8XqXqXrXrXZXJXJXPXLXLXLXLXLXPXZXZXCXCXtXrXrXqX0X0X0X8X7X3X2X,X,X,X,X&X$X#X4X2X4X=X=XOXXX(.^.^.^.*.s f ] =.[.1.{ | | | G t * +                                                                                                                                                                                                                                                                                                                                                                                                                                                                       ",
"                                                                                                                                                                                                                                                                                                                                                                  $ M 3.3.v M 6 4 2 . . o o 2 v 2 @ # b v B M 3 3 . P 4./ A C p.4.M 5 o $ L b 9 j.M.i m i u m i X . # 6 6 8.h.7.8.>.I I K H 5 . . o o o o o o = K D 4 i i i i 4 s.iXiXv B H ....} '...& * y ' #.~.XX&X>XeX=X#X%XXXXXXXOX$X*X,X3X3X3X7X7X2X,X>X,X,X,X,X,X3X7X2X*X&X&X&X*X>X,X3X0XqXrXtXJXLXLXLXLXLXLXLXLXLXPXJXJXJXCXtXrXwX0XqX0X0X0X9X7X2X2X2X,X,X&X$X$X2X7X2X=X#X%XXX(.^.^.~.$.] f { '.].{.|  .| | f r *                                                                                                                                                                                                                                                                                                                                                                                                                                                                       ",
"                                                                                                                                                                                                                                                                                                                                                                2 H >.3.Y M v v 6 > = # . o 2 v 2 @ # 2 j B b b w # 8 9 j.Z w q.W j j o 8 U B 9 j.l.i N N S 4 O . . + j b V 6.m.y.7.3.I K K H 5 . . o o o = * > m D K i i i i z b v.G.i.U D F ......-.1.- r ' #.~.XX&X>X,X=X#XOXXXXXOX%X&X>X>X7X8X7X2X,X>X>X>X,X,X,X,X,X2X2X,X*X&X&X&X*X*X,X2X9XrXCXJXLXLXLXLXLXLXLXJXJXJXZXZXCXCXtXrXwXqX0X0X0X0X0X8X7X7X3X7X3X3X>X$X$X>X2X4X,X&X$XOXXX^.^.~./.*.] ' [ `.[.'.&.| |  .| a +                                                                                                                                                                                                                                                                                                                                                                                                                                                                     ",
"                                                                                                                                                                                                                                                                                                                                                                6 Y 8.H R B 4 j B 6 5 2 o . @ 9 > 2 2 . 5 B B b 3 @ X $ j.A 0 4.K M j X 2 Q b 9 j.j.i M G S = o . X @ 9 v b K H.D.h.8.3.D D I H 5 . . o # = = * + I o.6 M v v v j B i.sXy.J S J F G -.'.r r d #.~.).&X*X=X#X%XOXXXXX%X$X&X>X>X7X7X7X>X>X*X>X>X>X,X,X,X>X,X,X4X>X=X&X*X*X*X>X,X3XrXZXJXLXLXLXLXLXPXJXCXCXCXtXrXrXwXwX0X0X8X8X8X8X8X8X8X8X8X9X9X9X7X,X*X$X$X>XrX4X<X=X$X%X).^.~.]./.~.[ [ #./.;X/.&.&.&.-.-.;                                                                                                                                                                                                                                                                                                                                                                                                                                                                     ",
"                                                                                                                                                                                                                                                                                                                                                              i U U 3.H B B 7.B M D j 5 @ . . + = 6 2 . . # B C b 9 % X w b V q.V 5 5 o 2 Y b B j.a.5 v S m = o . X @ 9 9 v v 3.pXF.3.U I o.o.Y K o . . o * * * + B D 7.K 7 6 i j j 5 hXs.O.F F F ....| 1.f d #.~.).#X&X&XOXOXXXXXXX%X#X*X>X>X2X3X2X>X*X*X*X>X>X>X>X>X>X>X,X3XeX2X&X*X*X*X>X>X,X3XeXCXJXLXLXLXJXCXCXtXrXrXrXrXqX0X8X7X7X7X3X3X3X3X3X3X2X2X2X2X7X9X2X>X$X$X$X&X4XwX,X*X$X%X].^.^.]./.~.#.[ [ *.|.|.&. .&.&.+.g                                                                                                                                                                                                                                                                                                                                                                                                                                                                   ",
"                                                                                                                                                                                                                                                                                                                                                              B 0.3.Y Y 3.7.K B K m v j 2 o . . # 2 2 $ X . b w v b 9 $ 8 w L w.V 2 5 o 3 L n V j.p.> u S m = o . X > 9 9 9 v K N.B.G.0.o.>.>.8.3.M # o o o * * + 6 6 7.D 4 5 6 6 6 6 H.G.jXD J D ..G | /.=.d [ ~.(.#X&X$XOXXX(.XXOX%X%X*X>X>X>X,X*X>X*X*X*X>X>X>X*X>X,X,X3X9XwXeX<X*X*X*X*X>X,X2X7XrXtXCXZXJXZXtXrXrXrXrXwXqXqX0X9X7X7X7X7X3X3X3X2X2X2X2X,X,X2X2X3X,X=X#X#X$X<X4XeX,X*X&X#X).^.^.^.].$.[ [ [ ;.`.'. .&.&.&.} g                                                                                                                                                                                                                                                                                                                                                                                                                                                                 ",
"                                                                                                                                                                                                                                                                                                                                                              b m.8.8.y.s.8.K B H M j 6 5 # o . . O 6 3 @ . 6 9 b w w 9 X 9 v p.V 3 4 o 3 Q P V j.f.4 i S m = . . . @ 9 9 9 v B 7.U.W.d.i.y.y.y.y.3.> @ . o O O + # 2 3.D M i 6 6 6 6 2 K.sX3.L J J X.} -.[.] [ $.^.OX$X&X).(.(.XXOX%X%X*X>X>X*X&X$X&X*X*X*X*X*X*X>X>X2X3X8X0XrXrXeX>X*X*X>X>X>X,X,XqX0XwXrXCXCXtXrXwXrXqXqXqXqX9X9X7X7X7X3X3X3X3X2X2X,X,X>X>X,X,X2X2X,X=X$X&X&X<XrX9X,X*X$X#X(.^.~.].].*.] [ [ '.{.=.;.&.&.-.-.f                                                                                                                                                                                                                                                                                                                                                                                                                                                               ",
"                                                                                                                                                                                                                                                                                                                                                              i >.H.H.8.K b U K B o.B 6 6 $ o . o O i v 2 X X 3 H V C 0 3 % 2 d.L 3 2 X @ 6 v V w.y.j G S m = . . . X v 9 w j v 9 Z.iXsXM.8.8.y.s.x.7.j o o o * + # @ = Y Y i 6 6 6 i j 3.d.vXf.D J F @.+.1.{.=.[ #.^.XXOX(.(.(.XXOX#X&X>X,X,X*X$X&X&X>X>X*X*X*X*X>X,X7X8X8X0X0XrXCX4X>X*X*X>X>X>X,X,X3X8XqXrXtXCXrXqXqXqXqXqXqXqX8X9X8X7X7X3X7X7X3X3X2X2X2X,X,X,X,X,X2X*X*X&X&X*X,XeXeX>X&X#X%X).~.^.[.].*.] [ ] =.[.`.*.&.-.-.1.{ o :                                                                                                                                                                                                                                                                                                                                                                                                                                                         ",
"                                                                                                                                                                                                                                                                                                                                                              5 H y.x.y.8.B I K K U b 6 6 6 5 # . . @ 5 5 5 . 9 w H V v 6 % # 3.H 6 > @ # 2 B >.i.y.j S S S = . . . o 6 6 j j v v i.h.gXiXN.N.x.v.v.r.D . . o o = = = = B 3.I 5 j j j 6 M Y jXH.d.I X.X.X.+.'./.*.#._.^.).(.^.(.XXOX#X&X>X>X>X*X$X&X&X>X,X*X*X*X*X2X3X7X8X0X0X0XqXwX0X,X*X*X*X>X>X>X,X3X7X8XqXwXrXtXrXqXqXqXqXqXwXqX0X8X8X7X8X7X7X7X3X3X2X2X,X,X,X,X,X,X>X>X&X$X&X*X4X2X4X<X$X$XOX^.^.`.(./.=.] ' ] `.`.`.=.&.-.=.| } g                                                                                                                                                                                                                                                                                                                                                                                                                                                         ",
"                                                                                                                                                                                                                                                                                                                                                              2 i 3.3.v.8.I K U L B v j 6 6 2 $ . . . v v 9 # O . V V v j 2 # 3 b 3 X 5 6 $ B 4.0.3.i p a m o . . . o @ 2 5 9 v b L Q hXiXG.G.H.v.x.s.7.= . . . = = = O v K 3.>.M v v j M 6 U.pXK.o.X.@.@...| `.[.#.#.~.~.~._.(.).OX#X&X>X>X>X&X$X&X&X*X>X*X*X>X>X3X8X8X8X0X0X0X0X0XqX2X>X&X&X*X*X>X>X,X3X7X8XqXqXCXrXqXqXqXqXqXwXwXqX9X8X8X8X9X7X7X7X7X3X3X2X,X,X,X>X,X,X,X&X&X&X&X,X7XrX<X=X$X#XOX(.~.[.]./.$.[ ] ' [.@X`.=.=.=.'.'.| : ; ;                                                                                                                                                                                                                                                                                                                                                                                                                                                   ",
"                                                                                                                                                                                                                                                                                                                                                              = 6 i K H.s.H >.7.>.i B I >.6 5 2 # . . . 2 v 6 2 X K B n v v 9 # # # # 8.5.6 2 3 Q U i i 5 + . . . . . O 2 j 9 v v b Z M.kXBXG.V.N.v.v.x.v.. o . O = = = = 4 m s.B j v v b v H G.kXd.I X.@.@.+.=.`.}.] [ $.$.$.~.^.OX#X&X>X*X*X$X&X&X&X&X&X*X*X>X2X7X8X8X8X8X8X0X8X7X7X7X,X&X*X*X*X*X>X>X,X3X3X8XqXrXtXtXqXqXqXqXwXwXqXqXqXqXqXqX0X8X8X7X7X3X3X3X3X3X,X,X,X,X,X*X&X&X*X*X3X9XeX*X=X#XOX(.^.).-X/.~.] ] [ /.;X[./.&.;.;.-.;.'.'.} =                                                                                                                                                                                                                                                                                                                                                                                                                                               ",
"                                                                                                                                                                                                                                                                                                                                                              = 5 5 v d.s.7.7.7.>.D >.7.D 6 j j = o . . @ 5 j 6 # w b K v v w 3 $ 2 U l.h.v 6 $ 5 2 > + X . . . . . . X 6 6 v B v j B a.aXnXhXH.B.v.v.v.d.H = . o = 4 = = = 6 s.U L j v j i 2 m.jXK.v.I @...@.| =.[.=.| [ $.$.$.~.OX%X*X>X*X$X&X&X&X&X&X$X*X>X2X3X8X8X8X8X8X0X8X7X3X3X3X3X>X=X*X*X*X*X>X>X,X3X8X0XqXrXtXrXrXwXrXtXrXrXrXwXwXrXrXwXqX0X8X8X8X8X8X8X8X3X,X,X,X,X>X*X&X&X&X,X9X9X,X=X=X#XOX(.(.OX+X].=.[ s { /.[.[./.&.-.-.;.1.'.-.|                                                                                                                                                                                                                                                                                                                                                                                                                                               ",
"                                                                                                                                                                                                                                                                                                                                                              + 2 2 6 N 7.B.>.K U o.8.i.4 6 M B 2 @ . . . @ 3 6 j . 6 Z b v 9 B 9 5 8.h.d.L B 5 @ @ o . . . . . . . . . 6 6 B b b w B H i.J.FXU.H.H.M.M.m.M.o.O . + 5 = = 4 + @ s.y.5 6 6 6 j 6 M kXm.O.X...@.+.| #.`.=.' #.$.$._.].%X&X>X#X$X&X&X&X&X&X$X&X,X7X8X8X8X8X8X0X9X2X2X2X2X2X2X2X*X*X*X*X*X>X>X>X2X8X0XqXwXtXtXtXtXCXZXJXJXZXZXCXCXCXtXtXrX0X0X0X0X0X0X0X9X3X2X2X2X2X2X=X&X&X=X3XeX2X,X=X#XOX].(.(.+XOX`.#.' s s *.@X[.=.&.&.-.| -.1..X..;                                                                                                                                                                                                                                                                                                                                                                                                                                           ",
"                                                                                                                                                                                                                                                                                                                                                              O 4 4 4 i i.:X8.3.3.i.y.U b 7.Y i 5 = . . . . 6 b v X # 8 B V b b b b n B 4.U.Q K K b # = @ . . . . . . . . 2 v M C C V V p.N.mXbXlXJ.B.M.d.C.Y . . o + = = = = @ o.I >.v 6 j j j v I pXvX>.S ..g } | `./.[ ' #.$._.^.].&X>X*X$X$X&X$X&X$X$X&X,X3X8X7X7X8X8X7X3X,X,X,X,X,X2X3X3X>X*X*X*X*X>X>X,X3X8X0X0XrXZXJXJXPXLXLXLXLXLXJXPXJXJXZXCXeX8X7X3X3X3X4X4X<X<X<X<X<X,X=X=X&X=X=X2XeX4X<X*X=XOX^.^.(.].OX`.#.d ] d &.{.{.#.&.&.+.+.-.;.1.|.u                                                                                                                                                                                                                                                                                                                                                                                                                                         ",
"                                                                                                                                                                                                                                                                                                                                                              O 5 5 4 4 r.N.a.3.7.v.7.L U 3.Y H i 5 o o o . 2 6 v 5 $ X b b b b b b b V P A./ Y P B v B v 2 o . . . o . o = 6 v B C B B 0.p.iXvXkXA.D.M.a.B.a.i.= o o = = = = = m I 8.v 6 6 j j v 6 H.sXm.7.F ......&././.' [ #.~.^.(.OX*X*X$X$X$X$X$X$X&X>X,X3X3X7X7X7X3X2X2X,X,X,X,X,X3X3X7X,X>X*X*X*X>X>X>X,X3X8XqXrXJXPXPXLXLXLXPXJXZXAXAXAXAX6XyX4X<X<X+X+X+X+X+X+X+X+X+X+X@X+XOX].OXOX+X9X2X,X,X*X#X].^.^.(.].]./.#.[ f ] '.[.[.`./.} | -.1.1.;.+.                                                                                                                                                                                                                                                                                                                                                                                                                                        ",
"                                                                                                                                                                                                                                                                                                                                                              = i 4 5 i m M G.x.>.d.3.Y o.3.>.3.b i i = + . . 6 v 9 1 . w b b b b v b b L N.h.0.V V v 9 v 6 . . . . o o o @ 2 9 b V b b Z 4.4.vXnXU.J.M.B.N.M.K.= @ o # # = = 2 o M 7.B j 6 5 i v i m.Z.sXm.S ..} ..} =.[.[ ' [ *.~.^.(.=X&X&X$X$X$X$X$X&X>X,X2X3X3X7X3X2X2X,X>X>X,X,X2X2X2X7X3X,X*X*X*X>X>X>X>X2X0XrXCXJXPXPXPXPXPXJXCXyXeX4X,X#XOXOX].).).^./.~.~.~.*.$.*.*.*.*.*.*.*.$.$.].<X,X,X,X>X=X+X).(.~.^.@X].^.$.[ ' r =.1X@X`.&.| | ;.-.| '.| =                                                                                                                                                                                                                                                                                                                                                                                                                                     ",
"                                                                                                                                                                                                                                                                                                                                                              = i 4 7 7 m j m.V.s.3.K K Y 6.U 6 v m v 6 = . . 5 9 6 3 2 X w n b b v b b n v a.h.Q K K v 6 v = . . . o O . o @ v M L B b n Q 5.d.W.DXU.iXiXZ.B.:Xd.H . o o = = = = 4 2 7.Y 5 m v m v v v W.iXm ..| ..} | #.'.&.s $.~.^.^.).%X$X$X&X&X$X&X&X>X,X2X2X2X4X,X>X*X>X2X,X,X,X,X2X2X2X8X7X>X*X*X*X*X>X>X>X7XqXrXyXJXJX6X5X5X1X1X+X+X+XeX<X<X>X<X<X>X=X=X-X=X-X+X+X-X=X=X=X+X+X+X+X@X}.*.*.=.*.#.#.`.=XOX^.~.^.OXOX~.$.' s f [ `.[.'.=.} | -.-.-.-...;                                                                                                                                                                                                                                                                                                                                                                                                                                   ",
"                                                                                                                                                                                                                                                                                                                                                              = i 4 5 4 4 i 8.h.B.7.L U 3.U o.K D K D m 4 @ + @ 2 6 6 v # 3 v Z b v w v w 9 i.M.a./ Y V V B 9 2 . o # @ . . o 2 v B n b b C L j.D.BXvXsXU.iXZ.B.N.Y = . . = 4 = > = 4 o.o.I v B m B v v B.H.F.O.....| | | `./.=.] ~.^.^.^.].#X$X$X$X$X*X*X>X2X2X2X,X,X*X>X*X*X2X2X,X,X,X,X,X2X8X8X7X>X>X*X*X>X>X>X,X3XeXeXyXAXyXyX1X1X1X@X-X#X6X1X1X-X+X-X-X-X-X@X-X-X-X-X+X+X+X+X+XOX@X{.@X[./.`.`.`.`././.}.[./.$.^.].OXOX^. .' r d =.`.[.`.-.} +.| | +.-.y                                                                                                                                                                                                                                                                                                                                                                                                                                   ",
"                                                                                                                                                                                                                                                                                                                                                              = i 4 4 4 4 4 4 m.H.Y 3.7.7.U o.7.D I I j i 5 o . X v v B # X 2 Z V b b b w w w M.C.5.W L P L L B . . o = @ . . o b v b b b n C P q.J.KXbXsXhXU.C.J.d.K . . . = = = = 4 = 7.8.6 D B j j 5 4 N.NXy.F @.| ..| &.`.[.' #.~.^.^.(.OX$X$X$X$X*X>X,X2X2X2X>X*X&X*X*X,X2X,X,X,X,X,X3X7X8X0X0X2X>X*X*X>X>X*X,X2X<X>XOX+X6XyX6XyXyXyXyX1X-X].`.'.'.[.[.{.{.{.[.{.{.[.[.[.[.[.[.]././.`.`.[.@X-X-X@X@X`.' ' d [ /.*.(.-X(.~.[ s s d &.[.`.-.;.g s :.c } 1.S                                                                                                                                                                                                                                                                                                                                                                                                                                 ",
"                                                                                                                                                                                                                                                                                                                                                              = i 4 4 4 4 2 i 3.8.:XB.>.7.3.6.7.v m K i i 6 @ o X 6 v b 6 5 @ B n b b b w w b Z q.I.e.q./ P K K v @ o * = # . o @ 5 b b B n n A Y l.DXxXfXaXU.iXZ.v.H.= . o o = = = = # 6.7.3.I 6 5 j i i o.U K.iX........| `.[.*.[ #.~.^./.^.#X$X$X$X*X>X2X2X,X>X*X&X&X&X*X4X>X>X,X,X,X,X7X0X8X0X0XqX2X*X*X=X*X*XOXOX=X1X1X6X6XAXAX6X6X@X@X[.`.`.;.;.'.'.'./././././././././././.~.*.*.*.*._.~.`.-X].].`./.;.'.'.#.[ ' #.(.].+X*. .s r r [ `.'.| g ..c g { | y *                                                                                                                                                                                                                                                                                                                                                                                                                               ",
"                                                                                                                                                                                                                                                                                                                                                              O 5 i 5 = 4 5 6 K 3.:XN.7.8.7.3.Y b I I v 6 5 @ . # 2 6 B B 6 @ 6 b n v b w w w w w.l.l.e.5./ P L Z 2 . . @ @ # . . 2 v M B B n C A j.xXBXVXiXaXiXJ.C.N.b # o . @ = 4 = 1 m D y.D 6 i i j j B j U.:XO.........;.'.[.] ] $.~.^.~.).#X$X$X*X>X2X,X>X=X&X&X&X&X*X,X>X>X>X,X,X2X8X0X0X0X0XqX4X*X*X+XOX=X@X@X@X1X1X1X1X6X6XUX6X{.{.[.'.'.;.-.|.|. .=.=.=.=.=.#.#.#. . .[ [ [ [ [ [ [ [ #.`.=.=.&.| =./.`.].[ s d #.].@X/.=.d - & - ;./.&. .f } { ] } y +                                                                                                                                                                                                                                                                                                                                                                                                                               ",
"                                                                                                                                                                                                                                                                                                                                                              O 2 B @ . 1 5 7 i v K.C.v.i.3.Y M H Y 3.>.v 6 5 > . . 5 B V b # X 6 B v b b w b v 0.e.T.j.e.5.Q Z P 2 . . o = @ . . 2 b M n B n b V 5.C.BXKXdXU.U.Z.M.0.i.6 . . . = 4 1 1 @ O r.D b 6 9 i z z i jX:XhXO.F ....| &.;X&.' [ *.~.*.^.).$X&X*X>X>X*X*X&X&X&X&X&X&X=X*X>X>X,X3X7X7X0X0X0X0X8X9X,XOX(._.`.1X6X@X@X1X-X].].;XUX6X{.{.[.'.'.1.;.|.|.d ] ] ] ] ] ' ' ' ' d s s s s s s s r - r [ &.| | &.#.`.@X/.] f r &.{.[./.[ - & & f &.'.&.{ ....] { t *                                                                                                                                                                                                                                                                                                                                                                                                                               ",
"                                                                                                                                                                                                                                                                                                                                                              o 1 D @ . @ 5 4 6 i 3.m.H.7.Y 7.8.y.o.B i v v 4 = @ @ @ 2 H B v X 6 B V b v n b b V P I.C.l.j.p.8.3.I B . . # 2 o o o @ B b B n b C L 5.J.bXFXlXU.I.J.Z.B.l.8.. o = i 5 4 = = 5 o.>.6 6 i v i i i d.kXU I @.@.@.| &.`.'.' *.*.*.~.(.OX*X,X,X*X*X*X$X&X&X$X&X&X*X*X>X>X3X7X7X7X7X0X8X7X3X2X].^.-XAXZX1X@X].].].`.`./.[.;X6X6X{.[.'.'.1.1.'.|.|.f s s s s s s s s s d s s s r r r r f t s *.`.#. . .=./.[.=. .r r  .`.`.'.] - - - f &.1.1. .} {  .r +                                                                                                                                                                                                                                                                                                                                                                                                                               ",
"                                                                                                                                                                                                                                                                                                                                                              o 2 D @ . o 2 5 5 5 j d.G.v.a.y.y.i.o.b B M j j 2 2 o # = v B B > $ 3 Y K n n n n A C C.A.D.w.w.! P Y U = . . = = # o o 9 b B n n n L Q h.S.IXlXI.iXU.K.M.h.M.5 @ @ > 5 4 = & o o.3.b j 6 v i i j 3.U.sXs.....@.| | /./.*.#.#.*.*.^.(.=X>X,X>X*X&X$X$X$X&X$X&X&X*X*X2X7X9X8X7X7X7X2X2X<X+X].}.@XAXZX6X6X[.`././.`.'.`.[.6XUX6X6X'.'.1.1.1.'.|.| f r s s ' ' [ #.#.$.$.#.$.#.[ [ d s r r #././.&.| | &.;X/.&.] y - { &.`.`.=.& & & f &.;.&.| { | r o                                                                                                                                                                                                                                                                                                                                                                                                                               ",
"                                                                                                                                                                                                                                                                                                                                                              # 2 D = . o @ 4 2 4 6 8.B.G.m.i.8.7.Y Y 3.U m M i 5 @ o o 9 9 9 j 2 X V L L n n B V V / D.I.p.w.0.5.4.Y i o . @ 2 @ o . . 6 B b n C A n w.e.HXBXmXiXW.D.B.h.d.v.. X . ; 4 = : = I 3.U 6 5 6 i i j v 0.kXU.I ....| | | ~.[.#.[ *.~.~.^.).=X,X>X*X$X%X$X$X$X$X&X&X=X>X2X3X7X8X8X7X2X<X+X(.(.-X1X6X6XAXZX6X{.`././.`./.`.`.'.UX6X6X|.'.'.1.1.1.'..X@.r d [ #.*.^.(.(.].).).).(.~.$.[ ' d r r '.{./.=.| | &.'./.[ ] - & d [.].`.' y + - { | '.;.| | f :                                                                                                                                                                                                                                                                                                                                                                                                                               ",
"                                                                                                                                                                                                                                                                                                                                                              O 4 H = . . o = 2 4 u j o.jXd.8.3.7.y.r.O.B B B v 6 5 o o # 3 9 j 6 % 6 Z 3.n V V Z L ( a.l.iXj.a.a.4.3.7.@ # # 2 > o . . 6 V b n n V Z V C M.bXFXU.aXW.J.Z.M.B.D > o : u = : = , 5 N o.Y 5 4 j j v v hXU. X....| |  ./.]./.*.[ ~.~.~.^.+X*X>X=X$X$X%X%X$X$X$X&X*X,X2X2X2X7X9X,X=XOX_.@X-X1X1X@X@X-XAXAX6X`.`.`.`././.'./.`.UXAX6X.X.X1.1.1.1.1.1.} r [ ^.].OX#X&X=X*X&X&X#X).(.~.#.[ d s ' /.{.`.&.&. .'.{.=.} s ; - r `.].=. .& - r y f | | ....S =                                                                                                                                                                                                                                                                                                                                                                                                                             ",
"                                                                                                                                                                                                                                                                                                                                                              O 4 K = . . + @ 2 4 u 5 D H.B.d.y.8.y.r.U Y K H m i i @ . . @ j 9 6 2 X B 3.Z V V Z A A Q a.fXh.j.l.h.0.0.I v o @ 2 = . . 2 3 V B b n w n L e.vXDXvXvXsXaXiXU.K.G.U j o 4 = = = * = B Y Y 6 5 9 j j j m.lXvX6.....| | =./.].`.s *._.~.~.).OX>X*X$X$X$X%X$X$X$X&X,X2X2X2X2X3X,X=XOX(./.@X-X@X@X@X@X@X6X6XAX{.[.`.`.'.`./.-.{ |. X X|.'.;.-.+.| -.} g & { ^.XXOX&X<X5X5X4X1X*X#XOX(.^.*.#.d r [ `.&.[  .f  .=.-.-.f u O o  ././.&.g ; + ; ; p } c c p =                                                                                                                                                                                                                                                                                                                                                                                                                             ",
"                                                                                                                                                                                                                                                                                                                                                              @ 4 K 5 o . = 5 = 2 4 4 B 7. Xm.y.y.8.K >.3.r.M D m M 4 . . # 3 v 9 b # v P Y B K V V V V k.fXJ.D.J.B.d.0.i.K . @ 1 = o . . @ K K b b b b V L D.aXKXnXvXkXvXvXjXhXa.K o : & = 1 = : + K H i 3 9 j j v b C.mXV.O...| | | =.[./.d =.~.~.~.^.OX=X&X$X$X$X$X$X$X&X*X>X,X2X,X,X>X*X#X^.~.{.{.[.[.[.{.[.[.].6XAX6X{.'./.'./.;. .y ; 4 u < ; ; ; t ; ; ; : ; r #.).OX&X4XyXyXyXeX>X=X=XOX].].^.[ s y h h ; : - - : @.;.| } : & : g +.| | { t ; @ = = ; : ; t u ;                                                                                                                                                                                                                                                                                                                                                                                                                         ",
"                                                                                                                                                                                                                                                                                                                                                              @ 4 K 4 . . = 4 @ O 4 7 4 v H.f.o.3.3.6.r.y.f.o.>.H D 5 > . . # M 3 n 2 @ 3 Q V L V V Z V 4.j.BXW.C.C.M.p.p.7.B o O 4 2 o . o 6 b B b b b b V 0.A.GXSXPXKXmXK.x.3.v 5 o & & ; 4 4 = = 4 M 7.b 9 j j j v B 4.vX X..+.+.| &.=./.[.[ #.~.~.^.(.#X#X$X$X$X$X$X&X&X*X>X,X,X>X*X$XOX^.].@X[.-.-.-.-.'.[.[.}.-X6XAXAX;X`.'.] s y jXjXjXNXjX X:X:XjX X X X X X X+.{.@X=X*X>X,X>X*X*X=X+X+X@X+X].'.-.-.-.-.+.+...+.+.1..X.X|.c.t.t.c.c.1.'.|.'.t.x. XF. X X X.XjX|.t.4                                                                                                                                                                                                                                                                                                                                                                                                                     ",
"                                                                                                                                                                                                                                                                                                                                                              O 4 K 2 . . = 6 = o i 5 5 6 r.s.m.3.4.3.8.y.s.U o.3.H 6 > o o . j 6 b b 2 2 L Y B C L L P 4./ gXxXI.J.S.h.i.0.3.+ + 4 2 + O # o M B b b b b B / 0.xXSXLXBXvXV.3.Y 5 + o & - ; 4 4 2 = = i 3.H j i j j j j 3 gXK.L.c @.-.-.&.&.[.*.*.*.~.^.^.(.OX$X$X$X$X$X&X*X>X,X,X>X&X#XOX^./.].[.1.-.| ..@.1.[.[.}.+X@XZX6X X&.-.c c.t.MXmXjXjX Xx.N.L.:XF.x.x.n.x. Xc.'.6X@X@X+X+X@X+X@X{.{.{.{.[.[.'..X.X.X'.'.'.'.'..X.X.X.X.X'.1.1.c.c.c.c.c.c.c.c.c.x.x.x.F. XjX|.P.T                                                                                                                                                                                                                                                                                                                                                                                                                     ",
"                                                                                                                                                                                                                                                                                                                                                              @ 4 H 2 . . 2 6 2 X 6 5 5 6 v V.:X5.5.3.Q 0.0.I >.8.K D 5 2 @ X 6 v B B 3 2 K 3.K n L P P 4.Q M.nXE.iXI.Z.h.i.8.B = 2 4 5 = o o 7 6 v v v b b L W a.nXKXH D 4 5 4 = o o & - ; 4 5 2 = = 4 H 3.M 6 i i j i 6 / hXkXc @.| -.&.&.=.`.[.[ $.^.~.^.).XX&X$X$X$X&X&X*X,X>X&X#XOX^.*.}.{.'.-.-.} @.@.+.'.'.[.+X{.AX.X=.y p O.jXNXDXIXNX:Xf.r.,.x.F.X.X.X.@...t.jXc.|..X{.'.'.{.{.'.'.'.'.[.[.{.{.[.{.[.'.'.'.'.[.{.{.{.[.'.'.'.'.'.'.c.;.@.O.O.c.X.G G G X.O.|. X X|.O.$ X o : ; t t y                                                                                                                                                                                                                                                                                                                                                                                                   ",
"                                                                                                                                                                                                                                                                                                                                                              @ 4 H 2 . . 2 v 6 @ . 2 i 5 7 r.K.G.m.Y 0.o.v >.8.7.H M j 9 = # . 6 v b v > # Y 4./ b L P ! P P sXSXgXC.Z.a.5.i.7.= = o 4 > o o o > P b 9 b b L / J.Q U i i 4 4 4 = + o & - = 1 k m 4 4 4 4 B r.T 5 j i v v B M.hXjXt.| | &.&.| `.[.%.$.$.~.~.~.^.=X&X&X&X&X$X$X>X*X#XXX_.*.`.`.`.;.-.@.........-.'.[.@X{./. .f S MXNXjX XF.bXKXvXi.v.r.6.O.J J X.O.X.O.O.@...;..X[.[.[.[.'.'.'.{.{.{.{.{.{.{.{.[.[.{.{.{.{.{.{.[.[.{.[.'.'.'.'.@.c S p S S m S X.O.O.@.c.|. X-...@ p ;.1.'.[.[.                                                                                                                                                                                                                                                                                                                                                                                                  ",
"                                                                                                                                                                                                                                                                                                                                                              @ 4 H 2 . . 2 v i @ . = 6 5 7 v >.K.H.o.5.>.4.L Y 3.>.K K v 5 2 . 2 9 v v 6 # 9 5.5.Q 4.( ( P A C.gXdXI.Z.l.h.a.y.H v o 4 4 = o o @ v V b b b L / l.Y i > 4 5 4 4 4 * o - - : 1 i N O O , , j I M M j v m m m w d.vXt.+.| | &.&.`./.`.$.$.~.~.~.^.OX$X&X&X&X&X$X*X#XOX_./.=.`./.;.+.@.@.@.F F D @.1.'././.| - t.jXMXNX X XL.N.MXHX:XF.y.6.I J I O.X.O.O.O.X.F ..-.-.-.| | &.&.&.1.'.1.'.1.1.1.1.&.&.&.-.1.1.1.1.'.'.1.-.+.| &.-.....X.X.O.O.I F O.O.O.O.O.|..X'.;.y ; c -.[.[.[.'.1.                                                                                                                                                                                                                                                                                                                                                                                              ",
"                                                                                                                                                                                                                                                                                                                                                              @ 4 H 2 . . 2 M i O . @ 4 5 7 v n U.G.p.3.3.3.Y Y Y o.o.T B v v # # $ 6 9 b 6 3 Q 4.0.0.4./ Q W j.j.xXgXJ.C.D.d.a.7.M = = * 4 = o . X Q L b b L Q / 6 + = 2 4 4 4 1 + o & - : i v u + o > , 4 6 U U j m m M m B r.hXb.P.{ | &.&.| /.{.*.#.#.*.*.~.).%X&X*X*X&X&X#XOX/.#.=.=.'.&.@.@.@.@.O.X.G F @.c.-.&.| r p r.jXSXhXn.x.u.x.pXDXbXjXf.r.O.T X.X.O.O.O.O.X.o.@...G G G G ..@.@.@.@.....@.X.X.X.F G G F G ..X.X.@.@.@...G S G G D X.O.X.X.X.X.O.O.O.O.O.O...1.;X.X{ g * } 1.'.'.1.1...                                                                                                                                                                                                                                                                                                                                                                                            ",
"                                                                                                                                                                                                                                                                                                                                                              O 4 K 2 . o 4 M i # # # 5 5 5 j i d.Z.sXd.8.B 3.8.8.v.3.K K M 5 . . + 6 6 v b $ V / j.W 4./ / / / Q bXBXS.J.Z.h.a.s.7.B o = 5 2 + o X Q V b b L Q Q 2 @ = = 5 4 4 4 + o : - ; m i * o o o = 4 4 >.r.v m m M m v i U vX Xc +.&.&.| -./.{.`.' $.*.$.^.OX$X&X>X*X&XOX(.$.] ;.'.......G g O.@.X.g c.P...h t - = x.t.x.SXMXx.t.t.r.r. XGXSXm.x.r.r.t.O.X.X.X.D I X.I X.X.J I I X...........G F F G X.X.X.X.X.O.O.O.X...J ....J D G G X.X.X.X.X.X.G p X.O.O.O.O.X...'..X'.1.: < } -.| } -.+.=                                                                                                                                                                                                                                                                                                                                                                                           ",
"                                                                                                                                                                                                                                                                                                                                                              O 4 K 2 o o 2 N i + # # 5 5 5 6 6 M M.pX3.7.3.8.6.>.m.y.B K B v 6 X . @ 3 v B 0 9 n M.5.4./ / / / / C.W.nXJ.B.m.v.m.8.K o + 5 1 * o # L 9 9 v P Q >.2 @ 1 4 5 < 4 @ + o : - ; N v o o o o o = 6 D K i.B M M m m m j B.:XNX@.&.&.| | *.[./.' #.*.*.~.(.OX$X>X*X&X].~.#.;.&.| } g g g g ..G ..f.X.c g o o + o N O.O.u.:XbXv.u.s.s.d.SXBXmXB.y.y.y.r.I X.X.I X.F I O.O.J X.X.X.X.X.X.@.F G G D G G F J J F F F F ....J I J J D D X.O.O.O.O.O.O.O.X.O.X.D F X.O.O.@.'.|.'.;.S r } 1.1.;.=.| a                                                                                                                                                                                                                                                                                                                                                                                         ",
"                                                                                                                                                                                                                                                                                                                                                              O 5 K 2 . o 4 N i O # # B 4 2 6 6 6 7.K.G.d.a.y.3.7.i.7.3.T Y M j O . . 6 v 0 b 3 w 0.p.4./ / / / ( p.S.BXiXU.A.H.m.d.y.m @ 4 4 < + # b b b b P Q 4.2 2 1 = u 5 = o o o - - ; M m ; + o o o = i u D 6.I D j m m i i T L.kXt.-.-.-.| &.=././.' $._.~.~.(.OX#X&X+X~.#.[ '.-.} F g a g g ..G 6.x...a ; o o o + 4 v U >.v.vXpXH.d.i.d.jXpXPXjXN.f.x.7.X.X.O.O.I F X.O.O.X.F J O.O.X.X.X.X.X.....F G G F X...G G G G J G F J J G G X.X.X.O.O.O.X.O.O.O.J G G G ..X.X.@.|.'.'.1.g g -./.`.`./.] f                                                                                                                                                                                                                                                                                                                                                                                       ",
"                                                                                                                                                                                                                                                                                                                                                              O 5 I 2 . X 2 N 6 O . @ D . # 5 6 v 6 j hXB.a.y.7.4.>.7.y.L o.L i 5 @ . 6 v n b 6 # # p.4./ / / / / W Z.DXvXkXJ.M.v.s.a.H j # = = + o v v v v P Q 7.4 2 1 1 u 5 = o o o - - ; M m ; + o o o O 5 5 4 4 >.D i k j v m m x.vXjX2.+.-.-.| | '.}.#.#.$.*.~.^.(.OX#XOX#.] ] '.| { ..p u a a p O.t.<.g ; + o 5 i B i 5 H K K Q FXSXd.s.d.d.F.KXvXhXf.t.r.r.6.O.O.O.J O.O.O.O.F G X.O.X.X.X.X.X.X.X.X.X.G G O.O.X.J G G I N G J J G G G D G G F O.I J X.X.F S p p G X.,.O.;.;X[.1.1.y - s @X@X/.`.=.s & : s s d d                                                                                                                                                                                                                                                                                                                                                                         ",
"                                                                                                                                                                                                                                                                                                                                                              = 4 U 4 . o 2 M 6 @ . o K o o 2 5 5 6 D jXK.m.p.7.3.>.y.8.Y 3.Y M M 5 @ # $ n b w 3 # 0.4.5.4.4.4./ 4.p.D.mXvXU.iXB.m.m.r.M o + = O . @ $ b b L >.r.6 5 2 , < 4 : o . . & & ; M M < o o o o o = = 4 4 Y I i v j j m D K o.vXpX+.+.| | | &.`.[.*.[ *.$.*.~.^.(.^.[  .;.| { g ..G a a u J t.F h u & + . hXSX6.I M 5 M U U 0.K.KXkXy.d.s.G.SXSXH.N.m.x.m.r.,.O.6.,.O.O.O.O.X.I O.O.O.X.X.I X.O.O.<.O.X.X.X.X.O.J G I F G J G F O.X.X.X.X.X.O.T I o.O.X.J J X.X.X.X.O.t.-.{.|.1.-.y &  .`.6X1X+X`.[ -.}.[.[.'. .                                                                                                                                                                                                                                                                                                                                                                      ",
"                                                                                                                                                                                                                                                                                                                                                              = 4 Y 5 . o 2 M 6 O X o K @ o 2 5 6 6 6 4.M.pXy.s.d.8.8.Y 7.o.H H H i = # 2 b w w 0 # w / 8.Q 4./ / Q 0.p.mXmXbXK.G.B.a.4.Y B o = = @ . @ 9 b K >.i.v 2 5 , ; 4 : o . . * & ; M N ; o o o o o + o 4 4 M D 6.i i j j N v i jXjXF.@.| | | | /.}./.*.$.#.#.$.*.*.#.' } ;.} g g a G G a u O.J u ; & * = i sXBXsXa.M = 6 H o.Q h.SXpXi.y.i.y.kXmXMX:X X:X Xx.t.r.6.6.O.,.6.O.O.X.O.O.O.O.O.X.X.O.O.O.O.6.<.X.X.X.D S F X.X.D J O.O.X.X.X.X.X.O.X.O.6.X.O.O.X.X.X.O.X.H D @.1.|.1.;.f r y  .1X5X4X+X/.*.`.`.`./.|                                                                                                                                                                                                                                                                                                                                                                       ",
"                                                                                                                                                                                                                                                                                                                                                              @ 4 Y 5 . o 2 M 6 X . # K 5 # # @ 6 6 6 M M.sXa.a.f.y.3.D 8.H M K D j 4 @ 2 9 b n w @ . / 4.Q / / / 4.4.Q lXnXBXJ.D.Z.l.y.3.I + = 4 2 . 2 4 b H 3.r.U B 4 4 4 4 : o . . * : = B M < * o o & - - & @ = 4 j 3.m k j k j k m M jXMX@.| | | | =.[.].`.[ #.[ #.[ [ d s { @.f g c p g G p p X.; & * & o 2 I H.MXFXJ.3.v 5 v K K H m.G.m.i.y.h.B.hXPXmXmXMXvXpXL.L.F.6.6.u.t.6.O.O.O.O.O.O.O.O.F X.6.2.O.u.t.X.X.T I D I O.I X.F O.O.X.I I I I 6.O.t.6.X.O.O.X.X.O.O.F J H ..} c. X'.1.f r r #.6XeX<X}.#. .&.=.&.&.| a                                                                                                                                                                                                                                                                                                                                                                   ",
"                                                                                                                                                                                                                                                                                                                                                              @ 5 Y 5 . o 5 N w @ . @ K 9 # X @ 6 6 6 i v.kXjXV.8.0.>.H D B H H I Y i > o X n b w b X 6 L a.P Y 4./ / 4.4.vXVXlXK.U.K.m.i.d.U i o 4 O o # v B Y r.M = 5 a u 4 = # . . o : * M D : & o + - r r + = 4 = 5 o.r.D i M M k k j y.hXX.+.| | +.-.*.}.}.[ ' ' [ ' ' r ..| g g p x x a a X.O.F : + o o o = K Y v.HXiX0.7.6 2 B B L 3.H.DXm.s.N.J.jXLXLXFXMXbXvXpX XL.n.f.x.u.o.o.O.O.O.O.O.X.X.u.o.I O.O.n.N.x.O.O.......F ..X.X.O.O.X.I X.X.I X.X.O.O.X.X.O.6.X.O.X.J I H D ..} -..X'.1.} r d #.+XeX2X].[ ] &. .| } c t                                                                                                                                                                                                                                                                                                                                                                 ",
"                                                                                                                                                                                                                                                                                                                                                              = 5 o.5 o * 5 N 9 @ . @ K 6 = o o 6 j 6 v >.V.vXh.8.7.Q L H D Y m.N.f.B i . . b V n b 3 6 B p.4.Q Q / / / 4.W.vXSXJ.H.G.N.d.v.3.m o = 4 . o 5 M K 3.i = 5 i i 4 : o . . o & & B D : & o + r r r - o = 4 4 4 u.O.D v m m j N U M.hXpX..+.+.-.&./.`.'.' s ] ] s - | f f u u u a G G O.O.t : * o o o = K I i.pXvXnXs.7.K 2 v H K 7.J.MXsXD.G. XkXKXmXL.N.u.O.F F I X.O.6.o.o.O.O.O.O.O.O.X.O.X.I X.O.O.t.x.c.|. XuXjX X X|.u.6.O.O.X.F I I I I I O.O.X.X.6.X.X.X.I J J F D ..@.|.'.'.&.} r { `.+X4X+X}.] }  .| | } c                                                                                                                                                                                                                                                                                                                                                                 ",
"                                                                                                                                                                                                                                                                                                                                                              @ 5 o.5 . # 5 B v @ . @ H 6 = o o 6 6 6 6 M K pXm.s.7.6.7.6.y.f.G.B.o.I 6 . . b L L n V 8 3 4.i.3.3.3.3.Q 3.8.S.BXjXU.J.Z.N.s.y.D 2 = 2 = o o v B M 5 5 4 ; u 4 @ o . . o - = B B ; & o + r s s - o o 4 u u 6.o.3.6 v v j m M N hXNXI ..@.@.| &.~.'.&.] s s r r G g t a u < u p X.G g - - + o . @ 4 B H o.a.mXSXK.i.U 2 5 B M L Y FXvXhXV.v.d.mXmX XG.s.U O.O.O.>.,.,.,.O.,.O.O.O.O.X.X.X.X.I F X.X.O.c.c.c. XjX Xx.c.c.6.o.6.O.O.D I X.J F J O.O.X.I X.X.O.G J J J F J I @.+.|..X=.&.y - d `.1X5X+X=.s ] | | | | g                                                                                                                                                                                                                                                                                                                                                               ",
"                                                                                                                                                                                                                                                                                                                                                              @ 5 o.5 o o 5 B v @ . @ H 6 @ o o 2 2 5 6 v D 4.hXhXi.6.y.6.pXjXd.m , 4 o . X 9 9 C L V 3 v $ 3.8.4.3.4./ / / B.mXnXgXm.d.d.s.y.r.o.O = 4 @ . i B m 4 = ; ; ; > = o . . + - : B N ; & o + r s ] s - & t u i p T t.j m m v m M M G.pXxXu.@.@.| | -.*.'.&.r r r g g y t t t < ; : O.l t : & o . . D K M B B H s.kXFXh.7.v = o j M B 3.vXKXv.f.f.y.kXKXvXV.t.O.O.>.6.,.,.,.,.,.O.O.O.O.X.X.X.X.X.I F S G F F X.X.X.O.@.@...J I X.O.J J I I O.O.O.X.X.X.X.X.X.G p D D D O.O.O.X.@.+.'.{.'.&.y r ' `.-X5X1X] y { | | | -...                                                                                                                                                                                                                                                                                                                                                            ",
"                                                                                                                                                                                                                                                                                                                                                              @ 5 o.5 X # 2 M i O . # D i @ o o B j 2 5 v i M jXjXm.G.pXhXF.7.K > @ @ + . . $ 3 Q P n b 9 . Q 5.0.5.5.4./ / 0.N.BXkXiXZ.d.s.r.6.Y o * 4 2 o 2 z 5 4 4 ; ; ; 2 = # . . * - : H D < & o + s ' #.[ s r r a p a F I 3.D m j v M B I K.kXO.+...| | | &.'.;.' s r c t r t t t 1 ; t p u : : + o . o B H i i j v >.v.vXgXB.7.K > 6 v L 3.F.MXkXiXi.f.N.hXFXhXF.v.o.7.6.O.y.r.t.j m I t.X.X.X.X.X.T I J F F I I X.J I I X.O.J X.O.O.X.X.X.I J X.X.X.X.X.X.X.X.I J D B j i i i I O.O...+.'.|.'.{ s r [ =.+X+X@X .r g | | | | ..                                                                                                                                                                                                                                                                                                                                                          ",
"                                                                                                                                                                                                                                                                                                                                                              @ 5 K 5 . # 2 M i @ . # D 6 @ o o K v O 5 j j 5 :XpX:XK.jXhXG.m = o # + + . X X @ P Y n B 9 . P 4.3.5.5.4.3./ / 5.mXxXxXN.B.s.y.7.3.M = 4 2 o + = = = * & & = @ o o . o * : = K D t & o + s ' ~.*.[ d r r g a a i d.K B v v M M j m.sXF.c...} } | } &.&.#.d - a t g t t u ; : t r : ; - o o . o 2 v i i j j v i.K.vXhX8.>.M > = H o.7.v.FXMXN.y.s.d.DXhXjXm.i.3.o.>.s.>.o.4 > K 7.o.I X.X.I I I I I I I I I T I I I O.F I I X.X.X.X.X.I J J J J G F I X.X.O.J N i + # # D O.O.J ..-.|.|.&.| t t ' `.1X>X`. .y } | | | ..<                                                                                                                                                                                                                                                                                                                                                         ",
"                                                                                                                                                                                                                                                                                                                                                              @ @ K 5 . o 2 v 6 @ . @ D i @ o o K v o 4 2 6 2 Y 3.FXvXK.B 4 = = o # # o . X X # b Y K V b 6 # K / 4.4.4.3./ 5.5.8.vXmXiXU.N.y.8.y.y.4 = 2 o X o o o o o o o o . . . o = : : K H t & o + s %.].^.*.[ ] r r a g p 7.6.o.i N M m m M H vX Xg } } } } f -.'.g - - - y h y t ; : t : : & o o . . . o = i 6 i 6 j H Y DXHXjX3.Y 5 > j K Y 3.s.SXFXd.s.d.m.xXPX:Xv.>.7.7.7.@ o . o 2 >.7.I I X.I I I I X.I X.X.X.O.O.I I I X.G D D O.X.X.X.O.O.O.I I D F O.X.I X.X.O.6.> O # D F O.O.J G | .X1.| r r - =.~.@X+X[.' r } } } ....u                                                                                                                                                                                                                                                                                                                                                       ",
"                                                                                                                                                                                                                                                                                                                                                              X # M 2 . X > v 5 @ o O D i = + o D M . . @ 2 5 o.I jXB.6.5 = = = O # # . > 6 = X 3 6 L B b b 3 b Y 3.4./ / / / 3.5.I.vXBXJ.l.p.0.8.7.o.H 5 X O X . . . . . . . . . . o + : : H T t & o * s %.OXOX].$.[ s - y g c p r.6.m G G v m M M B.K.pXS ........g @...G : - r t y h ; : 1 + + o o o 3 b 9 @ O v 5 2 6 v B U sXhXDXmXgX8.7.@ j B B 3.H.BXsXa.m.F.pXnXDXhXL.f.y.r.v i m m Y v.7.K I X.X.X.O.O.D I X.X.T O.J I I I I D D J I I I X.O.X.I X.J G G T X.X.X.O.X.,.U J F X.O.X.I X.F ..1.1.'.-.y - s  .`.].}.'.} : g } } } c                                                                                                                                                                                                                                                                                                                                                       ",
"                                                                                                                                                                                                                                                                                                                                                              @ # 5 2 . X = v 4 @ o O R i = + o D M o o o @ = K I s.o.> 4 = O # # o o @ 4 M 6 @ X # L B V n 3 0 L / 0./ / 3.3.3.4.H.sXSXsXl.a.i.i.0.d.>.$ 6 2 > O o o o X X o o . . . o + * K T t * o & ] $.+X=X-X(.$.[ s r g f a 6.r.,.G D m v v v 5 K.jXa g ....c g c ....: - - r f h ; O @ . . . . . K 3.U 2 X 6 6 5 6 w v K >.y.KXDXnXm.i.o v M v I 3.mXpXN.m.B.K.H.KXSXjXx.f.6.>.>.3.3.r.d.U I I F F J I I U I I I I I D H D I I J D l F D F X.O.X.X.G G S G F I X.F O.O.O.O.O.O.X.D F I X.X.@...1.|.-.| y - s [ *.[.6X} y t } | } } F a                                                                                                                                                                                                                                                                                                                                                   ",
"                                                                                                                                                                                                                                                                                                                                                          O B D = @ 2 X X = B 4 @ o O D i = o + v z 5 O . . = H B o.D 4 = # # # # . . B Y B M v . o K K V b b 3 X Q w.5./ 5.4./ 4.Q 0.DXkXkXl.C.m.h.l.M.G.H.m.i.>.Y Q V b n v v o . . o o * I T u * o & f #.OX1X6XOX(.$.' s s f { p O.x.D j j j m v 6 G.hXL.N.G G g c g c g ..: & - r h O o . p.B.h.a.5.3.3.Y v = X 2 6 5 9 v M b U nXMXMXY 0.X 6 j M v Y 7.vXmXv.D.K.G.MXKXLXhXjXpX:XpXpXpXjXjXjXpXpXjXjXhXNXjXjXpX:X XpX X XpX:XpXjXjXjXjXjXNXjXjXjXjXNXvXvXhXjXjXr.x.pXNXjXjXjXjXuX X X X X X X X XjXuXuXuX+.y r f { =.`.[.'.r r c } @.@...x                                                                                                                                                                                                                                                                                                                                                 ",
"                                                                                                                                                                                                                                                                                                                                                      o b o.H v 5 O $ X # = D 5 @ o O K i = o + v z 6 o o . = K B Y B 4 = = + # o o B 3.8.H H B @ . 2 K B V n b . C 4.0.Q 5.5.Q W Q q.A.SXbXJ.H.v.h.d.w.d.m.d.s.0./ U L L I H B j 4 . o o # I F u * o & f %.-X1XyX>XOX(.#.] r ]  .g G 6.7.K j j v v j Y m.jXf.F ....S g c g ..; O + & + 4.M./ fXkXaXJ.N.h.d.3.K v . @ 3 6 5 9 v 6 B jX:X XK Y o 6 i M j M >.m.hXBXK.K.hXhXBXLXSXbXbXhX X:X:XpXjXjXpX:X:XhXhXjX:X X X X:X X XpXpXjXpXF.K.H.K.pXpXF.:XpX:X:XpXL.F.K.L.f.x.V.jXpX:X:X:X XL. XK.L.L. X XL.uXuX X X1.c t : a ]  .'.[.|.-.s ....| | F                                                                                                                                                                                                                                                                                                                                                 ",
"                                                                                                                                                                                                                                                                                                                                                    O 5 K 7.D M j 2 @ o # = R 5 @ o O K i = o + v v j O o o 2 K D Y B 4 = = @ o # 2 B v.N.Y L K 3 X . b B Z n n 8 3 V a.4.0.0.Q Q / / ( xXnXsXU.h.m.d.0.6.s.s.a.8.3.Y Y 4.4.>.Y K v @ + o # K H u * o & s %.OX1XtX6X-XOX^.[ s ' ] f g a 8.3.j j v v v j K iXv.r.S G S c c g a D 5 @ f.0.vXSXxXfXkXU.N.a.w.0.>.Q L 5 @ @ 5 5 5 6 j B J.d.m.i 5 . 2 6 B j M 3.p.K.FXjXK.vXjXvXDXLXHXSXvX XK.K.K. XK.K.H.H.pX:XpXK.L.F.G.H.B.F. X X XG.f.x.V.m.L.K.x.N.K.F.L.F.f.f.x.x.x.u.t. XK. XK.K.K.K. XF.V.V.F.F.F. Xx.|.|.|...I ; ; u c | '.;X;.} } } } } ..J 2                                                                                                                                                                                                                                                                                                                                             ",
"                                                                                                                                                                                                                                                                                                                                                  O v m.v.K 6 j m j 2 o @ i H 6 @ o O H i = o + m v j O # o 2 I D Y B 4 = = O X v K v N.B.Y V H b b . M B K B n b % b p.4.0.4.Q Q Q ! ( W.fXDXU.B.d.m.i.8.7.0.0.3.3.3.Y Y U U i.6.I j + o * z i u + = & s [ ^.OX1XZX6X=X)./.[ ' s f g g 7.Q K j j j i 5 v 6 H.jXp G S c c a a + # V FXLXIXmXkXU.I.S.C.m.5.3.3.4.Q >.6 o 5 6 6 6 v B B.8.B # . o = 6 M v j M K s.G.PXvXs.mXMXjXPXmX7.6.I o.O.O.D D D M N J I T X.I D N m M D H D D D D J J I I G m m D J J R I I R F G p x N m D F F F F S m m m G G D D F ....n.c.2.p u * t } -.-.t. Xg : ..| | @.D 2                                                                                                                                                                                                                                                                                                                                           ",
"                                                                                                                                                                                                                                                                                                                                                # M 8.Y U H M j m m j = 2 B M 6 @ o O H i = o + m v i O # o 4 I D Y M ; = = X X v H v B 4.pX4.B K V . # 3 L V C n 3 3 Q 0./ Q 5./ Q Q / 4.iXFXU.J.D.a.i.y.y.>.Q a.0.Y Y K B I Y Y K K 2 o o > i ,.I D & r ' $.^.OX6XtXyXOX(.$.] r f f g p K y.m j j i v M m m.pX:XS S G c u * . gXHXFXKXDXmXxXW.I.I.C.C.B.h.a.y.3.Y B 6 . 5 v v B B m.>.B @ o . 2 6 b v M M M 3.d.kXbXvXN.kXKXjXd.D m k m m m i i i 4 u i m m m 6 4 4 4 4 4 4 i 6 4 u u a a a u 4 4 4 i a i i a a i 4 4 = ; 1 i S m m i i 4 ; < u u i p p g g F X.t.O.; o + ; t a c -.} ; r ..| +.@.O.                                                                                                                                                                                                                                                                                                                                          ",
"                                                                                                                                                                                                                                                                                                                                                # M 3.7.I T I m j k m = @ > 6 5 + . O H i = o + m b i O # o 4 I m Y M : = @ o @ 6 M 6 9 Y K.7.L K K 6 o $ B K V B w 0 2 0./ 3.3./ Q / / / Z.VXgXfXJ.d.h.a.a.i.0.i.i.8.y.L K >.o.U U 3.6 ; . + 4 m 6.D : - s [ $.OX<XAXyX1X].^.[ r s f y g S 6.K B i j j j j y.:XjXU F S p 4 $ gXBXSXbXHXDXBXbXsXsXaXiXZ.M.h.a.a.5.Q V v X @ 6 M M B y.Y B # . . 2 5 6 v b v v K >.K.pXBXpXhXSXs.o.4 > 4 p p m 4 p i p i i i k u u 4 5 u u 4 = = u u u u a p u i a u u i i u u p m i a 4 4 i u u i m N m u u 1 ; u i p u u a a p X.6.X.u o . + 1 = = X.g ; o c } | -.@.@.D                                                                                                                                                                                                                                                                                                                                       ",
"                                                                                                                                                                                                                                                                                                                                                # i m jXx.D L B M v i 6 2 o v 2 # . # H i = o + v b v O # o 4 I m Y m = = + . B 6 v v v K h.0.Y K K K 2 . . V V B V 0 X 5.e.q.( / / / ( ( 4.e.FXBXJ.iXm.p.p.d.a.4.i.a.0.0.o.o.K Y Y o.6.i . o = 4 O.N u ; - d #.^.%XyXyXtX-X].*.[ d s s g g ; i.7.2 j j j m 6 I hXpXN.u 7 6 w FXBXzXlXVXKXHXnXbXvXlXU.N.C.h.0.a.e.Q V b 2 X o 9 v M 3.K B @ . . 2 2 5 i v v v H M d.y.BXLXmX6.j 5 i 4 i D D D N B m m m m m k u M i u i i 5 = u i i a u m x p p x a < i i u u S D S m i i D S i ; G D G m p p i p p m i u i i 4 i a X.X.i . * = ; & i t ; . u } uXNX1.1.r.D                                                                                                                                                                                                                                                                                                                                     ",
"                                                                                                                                                                                                                                                                                                                                                @ i v 8.6.f.3.3.M v 5 2 > . @ + # . @ D 6 @ o + v b M O o o 4 I M D j o = # + K m v v v v B J.M.P L L 5 X . Z B V C C w 8 Q 0.q./ / / / ( 5.0.DXVXgXiXS.J.G.N.M.d.s.y.i.>.I 6.y.3.L o.o.m 4 + = u D ,.O.4 : r ] $.).#X6XZX1X+X].~.[ d r y a u ,.o.M 5 5 5 i v v 3.U.J.6 $ Z.VXlXkXkXvXFXLXLXFXBXxXvXaXJ.J.h.C.h.w.4.P v B # . 2 5 B y.>.H @ . X B B 6 = 6 B j j v 3.>.vXvXsXH 4 5 5 v i 5 2 = = = ; ; = ; = @ O = @ = = = * * ; = ; ; ; ; 1 ; : ; : & & + + + : ; = = ; = : : = : ; ; ; ; : * + @ @ = m i i 4 4 4 i X.X.m o * * : u a u 4 . + c @.@.@...X.O.H                                                                                                                                                                                                                                                                                                                                   ",
"                                                                                                                                                                                                                                                                                                                                                @ i v Y 7.N.3.U 9 5 5 i 5 + o = = . @ D 6 @ o + i m M + o . 4 I M D v o O o @ K m v v v v v m.G.0.U K v 2 . B b Y C C w X Z 0.q.4./ / / / 4.4.nXmXSXU.U.U.J.J.H.h.a.i.i.7.U 7.y.6.3.o.o.I D o o , 4 I 6.R a u r [ ^.XX1XAXyX5XOX(.#.' r r t g a B r.2 5 5 6 9 6 9 l.M.X l.iXnXzXlXkXkXnXBXKXHXDXnXvXkXfXI.l.Z.p.w.5.Q L H 3 # # = B 6.>.v @ . . z b M v 2 v j j b K Y vXU.B.@ 5 5 4 j j = . . O O O O O O # o o o o . . o o o o . + o o o o o + o + o o o o o o o + O O + o + O O + + + o o o o . . o v i 6 i 4 5 ; I 6.J ; o + ; u p u 2 o . m F X.....G F D i                                                                                                                                                                                                                                                                                                                                 ",
"                                                                                                                                                                                                                                                                                                                                                O 4 i v y.:Xy.D M j j j 6 4 O 1 2 . @ D 6 @ o + i M M + # o 4 I B D i o O o @ K M v v v v v j M.h.D H V v . . 9 4.V V C 3 V q.q./ 4.( / / 4.5.Q U.DXU.J.J.Z.D.G.a.p.i.y.i.h.i.7.8.8.>.o.o.o.+ o @ 4 4 D f.a g y d $.).XX=XtXyX<XXX$.[ s r y t t S r.i 5 5 5 6 j v # . . xXgXY.xXxXU.lXlXvXDXKXSXBXnXlXsXdXW.C.q.0./ 5.Q P Q 6 # o M Y Y 6 @ . . 5 i D i 6 6 i v M K o.pXT N 5 5 6 j i o o . . . . . . o o o . . . . . . . . . . . . . . o o o . o o o o o o . . . o o o o o o . . o o o o o o . . . o . = v D i 4 4 4 i F 4 & o 1 < p 4 4 O . + * o * : u a p ..i                                                                                                                                                                                                                                                                                                                               ",
"                                                                                                                                                                                                                                                                                                                                                o 2 4 5 K >.3.o.L M j i i v @ o X . O D 6 = o o i M M + # o 4 I B K 6 # * o @ K m v v v v v v 7.d.B.7.K D 5 X # P V V b 0 9 w 0.5.5.( / / 4.4.4.C.fXVXvXI.J.C.M.M.M.H.m.y.3.y.7.r.r.7.3.o.o.I i + = 4 4 G O.G - s ' _.).#XeX5X,X#X(.$.[ r r f f a G O.m > 5 5 j $ . A gXT.W.E.W.gXfXE.lXxXbXLXKXDXvXxXsXE.Y.S.S.M.Z.l.M.h.h.V 5 # b V B 6 @ . o 5 4 1 I I i 2 v B 3.i.iXo.m 6 4 M 6 # . . . . . . . . o o . . . . o o . . . . . . . . . o . o . . . . . . . . . . . . . . . . . . . . . . . . . . . . . X @ N 4 4 5 4 m X.I & o 1 i o.i 4 o . . o o o o 4 4 u p m K                                                                                                                                                                                                                                                                                                                             ",
"                                                                                                                                                                                                                                                                                                                                                o 4 5 = i 6 B.M.3.B v m B v 2 X . . O D 4 = . + i M M @ o . 4 I D K 5 + = o = K v 6 i v v v v K v.K.K K B V 2 . $ V V v b 0 3 W q.( / / / / 4.5.5.Q FXxXU.U.M.j.m.G.K.v.a.y.s.y.r.r.r.7.o.o.>.i * @ * 1 m u.G p r d #._.].<XyXtX>X].~.#.s r r s g G X.J D 2 5 $ X X L kXJ.M.A.S.Y.bXlXcXvXnXDXFXFXBXxXsXY.J.E.iXiXiXI.h.8./ v 8 X 3 v M 5 @ . o 4 = = v K K 6 j D y.B.iXo.m 6 i m = . . . . . . . . . . . . . . # + o o o + # # @ = = @ @ @ @ @ + + o o o # # o o # # + # # o o . . . . . . . . . . . . . . 5 u u 5 5 p X.X.& o 4 4 N 5 6 o . o o o o o + * 1 : p R =                                                                                                                                                                                                                                                                                                                           ",
"                                                                                                                                                                                                                                                                                                                                                o 4 u = = @ B.K.8.6 m D H M B 2 . . = K i @ o + i M v = # . 4 o.D i 5 * = o @ H 6 > i v v v v b i.J.T U V K 3 . # n V n b 3 3 # p.i.q.4./ 4.5.4./ q.DXvXE.U.A.l.H.Z.Z.s.y.s.a.r.r.r.r.r.x.r.7.N o o o = i r.J X.r r d [ ^.OXyXCX<X=X).$.[ s r s f p p H O.= i 2 . X ( dXA.C.C.A.I.Q.FXbXlXlXvXDXKXHXxXsXiXlXFXnXvXkXsXh.4.L % . @ # j j @ o . o 4 4 > 5 i 8.5 2 i y.v.K.U i v H 2 = . X . . . o o o + + O @ @ # = = = > > 4 4 4 6 6 i i 4 ; 4 4 4 > = = = = = = ; 4 = 4 4 ; = = = = 2 = o . o + . . . . . o o v N u u i m J & + * = 5 i i @ o o o . o o o @ : - u a u +                                                                                                                                                                                                                                                                                                                         ",
"                                                                                                                                                                                                                                                                                                                                                o 4 6 = = = U >.v.y.I J D m m 6 @ . = K 6 @ o + i M v = # . = Y B i 4 * = # @ H 4 @ 5 i v v v M B B :XY B Z Z b X $ 9 A b 0 n . W q.e./ ! 5.5.4./ 4.e.kXVXI.J.S.C.m.C.m.v.d.y.8.r.r.r.r.r.6.t.o.D o o 4 4 i O.F u y s ' $.OXOX6XCX5X+X(.$.' r r r t 4 i H H 5 o . U.E.C.C.C.A.T.sXkXY.xXkXsXgXmXDXFXVXnXSXDXJ.q.Q W b % X # 3 6 5 $ @ 2 @ o o o u 4 2 2 5 B Y v > r.i.x.H i j z + o . X . . @ 5 5 i i 4 4 4 5 5 M B j z m o.I m M m m N D m i i u p G G G p p p m S p N I D D B B j j 5 * = = 4 . . o o o o o 5 z D i i N G : & * o @ o * @ o 4 m 4 = ; & o * ; - u S =                                                                                                                                                                                                                                                                                                                         ",
"                                                                                                                                                                                                                                                                                                                                                # i H = + = j K G.m.Y B M m D 6 5 o O K 6 = o + i v v = o . = o.K z 4 & : o @ D 5 o 5 j v v M M j R pX7.U K P V . # 6 Q b n w . 0 / p.0.p.5.4.4./ / 4.aXmXsXE.Z.J.J.G.G.G.m.i.0.y.y.y.r.t.t.r.6.>.= = * 4 ; >.D S a r s #.~.(.1XCXyX6XOX~.[ y r r : ; u i H j X # sXdXz.C.C.S.T.Y.sXdXfXlXW.sXgXDXLXKXFXkXgXe.A V n 0 $ 3 C Y V V 0 > . . . . o 4 6 i > 4 i H 6 6 7.7.d.H u u i + o . . @ = m a.s.I I I N i m m U 3.K o.6.I t.r.O.I J I t.6.O.O.X.O.6.o.o.6.I O.O.6.D o.t.6.Y K M m H M m m k j = = o o o o o o m D i u S X.; & . . . o o o o = u u u i u * & & & ; p 4 2                                                                                                                                                                                                                                                                                                                       ",
"                                                                                                                                                                                                                                                                                                                                                O B Y o = @ = K G.v.B M H Y M v v # @ B 4 = o + i m i = o . @ O.L v 6 & ; o @ D 2 o 5 j v v v M j B o.U.J.L L Z $ # 9 V V C b 9 X W w.M.h.5.4.4./ Q Q iXnXDXkXJ.iXU.K.J.J.B.h.7.v.y.y.r.r.r.t.i.x.N : o = 4 4 U 6.j - h d #._.OX1XZXAX<X).=.d r - r t u a i 4 6 4.lXgXlXC.C.T.T.S.J.gXfXiXfXfXlXBXLXLXGX/ b X % % % 3 L C p.h.i.4.Y B X . . . o 4 i i 4 5 5 M i j 6.7.x.I u u i o . . o = 2 K :X:XK I U H m v v I O.I >.7.D r.t.X.J F X.6.>.I T T O.<.>.>.O.I O.6.6.F O.r.6.I M i M D D D M k j i 6 = o o o o o m D i u m J ; * o o . . . o o o + 2 D T D i o & & & ; 5 2 %                                                                                                                                                                                                                                                                                                                     ",
"                                                                                                                                                                                                                                                                                                                                                + i D D o.v @ i I H.d.6.>.B j v v = . = 4 @ o + v m z = o . @ o.K v 6 & : # @ D i 6 6 j v v M M v M K K.H.P L V V 2 # 8 L C C B . 9 V l.q.( 4.4./ / 4.0.a.HXxXS.J.U.fXiXaXU.h.s.s.h.d.r.r.7.r.r.r.r.i o o = 4 M j o.4 & h f #.).=XtX6X1X].~.' r : t a p u 2 # n S.j.dXnXU.l.T.T.I.I.S.I.dXkXxXKXKXBXC.5.b X 8 X C 0.I.iXU.J.M.p.4.P b v b . . o 4 i M 4 5 6 v i m o.r.d.D u a i . . . o = v D 4 5 5 4 i 1 = 4 1 t u u u 4 ; ; 4 : ; ; ; 4 4 o o o : ; ; < a u < < u ; 4 4 = 4 1 = + o o o = @ = D m = # o . . o m M i 4 p S < * @ v D 6 @ . . . o O 4 i D F m : o & ; 2 2 #                                                                                                                                                                                                                                                                                                                     ",
"                                                                                                                                                                                                                                                                                                                                                O 5 M T >.6 @ 2 B N.K.o.I B M v i > @ . 5 2 # o v M z + o . O Y K v 6 & : o @ B i 6 6 6 i M M M M b V G.Z.a.Q L L 9 X X B n n b 3 3 0 j.0.4./ ( / / / 5.j.vXvXxXU.T.U.J.J.C.h.B.h.v.d.f.r.f.8.6.7.r.U 6 o + > 5 N r.N i u r [ _.OXeXyXtX-XOX[ s & u g p u 2 2 V I.j.A.lXfXsXT.I.Y.Y.A.Y.dXxXGXVXkXl./ L 9 C j.h.C.M.iXW.A.N.M.j.0.! K L U # . . o 6 v 6 6 6 M v v I 7.x.D u p i . . . o 2 i.3.5 5 4 = * O & h h t u u u u < 1 4 ; ; ; ; = 4 * @ : ; ; ; 4 u u u u u u u 5 5 ; ; = * o o # > 5 6 m i 4 + . . . o m N u 5 u p 4 & 5 M b L B i 6 = . # O 4 u N S m = & = 2 4 #                                                                                                                                                                                                                                                                                                                     ",
"                                                                                                                                                                                                                                                                                                                                                @ 2 5 o.3.2 @ @ # i.pXY B B D v i j 6 . 2 i 2 o z M z + o . # o.L v u & : o X v 5 2 2 2 M v M M M M B 8.m.iX3.Q Q B 3 X 0 w n b C 8 % 5.l.a./ / 4.( / ( w.5.kXmXT.A.I.J.N.Z.N.Z.a.d.h.h.m.y.3.6.r.t.6.Y o . + @ M >.D D h r f #.^.$X1XZX<XOX$.d & f g x u > 9 L U.l.q.q.cXkXA.T.T.T.I.Y.lXnXKXJ.( b $ 8 A j.zXkXdXW.J.C.M.l.h.h.q.q./ / 4.3 . # . = 7 7 6 i K B i B 3.d.D u p i . . . o 2 d.8.= 4 u = o o : ; ; < u u u 4 1 1 < 1 ; ; = O + O * : = = : : ; ; ; 4 5 4 5 5 5 = O : * o o o = M m 2 = 2 . . . . . j D x u u p 4 & 4 D b 4.3.I H 2 o # o o * 4 D F m : o 2 4 #                                                                                                                                                                                                                                                                                                                     ",
"                                                                                                                                                                                                                                                                                                                                                # 4 6 Y 3.M v @ @ M U G.m.7.6 6 v M 6 o O 5 = + v M i @ o . = o.L v i & : o O i 6 5 6 = = v v M M M B H 8.J.3.L K P V . X V L n V 0 8 0 5.a.Q 4.4./ / / / ( kXSXsXU.U.Z.Z.J.:XG.Z.H.m.v.d.7.8.8.r.t.6.3.O X o * 4 u i.t.a y y ' $.OX=XyX<X<X^.[ & f f p p . a.D.e.0.q.( lXxXcXI.C.C.S.I.BXIXT.W 8 X % L vXPXPXgXfXsXI.C.D.Z.j.j.p.p.0.0.0.4.V X . @ 5 5 6 6 H D b b U i.D 4 u u . . . o = r.>.2 4 o o o o o o + o o o u p i ; o o o o . . . o = = = o . . o o o * : 4 4 ; = + . . . . . . . 6 j u i 2 o o o . . 4 i 4 4 p S p 4 i H K L 4.h.Y K M v = . . o & a p S u ; ; O                                                                                                                                                                                                                                                                                                                     ",
"                                                                                                                                                                                                                                                                                                                                                # 4 6 6 U L 5 2 O 6 B K.B.I L K B B 6 4 o # o + z M i @ o . = >.I M i * : o + v 6 6 B i @ v M N M M B H Y w.J.d.Y P P @ X 0 b Z V w 9 # Q 0.0.4./ 4.4./ / / a.fXxXgXJ.J.J.J.J.J.B.B.C.v.y.f.V.x.y.t.6.6.K # o * 4 u K I O.p r r [ ~.OX1XyXyX).$.- a f a 4 o M.S.W 4./ / e.C.xXI.z.z.E.bXmXQ./ b 0 A l.zXBXKXFXxXkXgXI.I.S.Z.C.M.M.j.p.p.0./ L X . . + i 7 6 M j B 6 6.d.D 4 t < . . o o 4 D B 5 = o . o o o + o + + o = u G ; o o o o o . . o 1 6 o o + o o + o o O 4 u + o . . . . . . . . . i H B = + o o . . 5 i N i u u m 2 m K Y Y 3.5.y.V v j j = o o o o u g D a t O                                                                                                                                                                                                                                                                                                                     ",
"                                                                                                                                                                                                                                                                                                                                                O 4 6 5 K >.i j @ @ i pXG.Y L U H v v M o . # @ v M i @ o . = >.I i 4 : : # + v 7 6 H v @ v M B H v M B H B iXM.3.Y Q Y # . 2 P A e w % w L j./ / / Q ) Q / q.l.mXkXiXU.J.D.Z.I.G.N.B.a.y.s.x.f.u.t.6.r.r.m # o = 4 7 D 6.i ; - r [ ).OXtXyX).*.r a f u : . h.C.W ! / / ! q.bXsXD.D.fXBXvXn w % C h.zXcXxXVXFXVXfXfXY.iXE.J.l.N.C.h.l.j.0.i.8.9 @ . . 6 i v i M >.4 6.i.N ; t ; . . o o v D B 5 4 o . . o - s d r r + . 4 D = o - r y - - o o 4 m o - f ' ' d y + & 5 u * . o & y s ; & + . . M o.T > = @ o . . 4 4 H i u u p 2 v K Y Q K Y h.4.B b M M > . o + ; u ..g i X                                                                                                                                                                                                                                                                                                                     ",
"                                                                                                                                                                                                                                                                                                                                                O 4 6 5 6 M D D @ @ 2 i.s.jX>.H M j M B @ o o o i M i O # . = >.U 5 = = : # + v 6 6 H v @ v M M B 5 M B K B pXd.3.Q Q Y . . 3 Q ) L V 8 8 3 j./ / / Q / / ( ( ! FXSXU.W.D.Z.Z.H.sXJ.a.m.N.x.x.r.y.t.6.7.r.r.= . o = = I 8.B o.m - d ~.(.-X-X(.[ & g g u + . h.m.! / / / 4.( e.bXgXE.FXW.Z q 3 C Y.dXDXbXY.iXKXKXDXbXsXW.fXE.I.sXp.Z.A.j.j.w.8.i.6 . . = 5 5 5 D 7.= >.i.M 4 t t . . . + i r.6.7 p ; . . o d *.~.~.#.r o 7 F : & ' #.*.#.[ r o u N o d ^.^.^.^.' - # * 4 + o s [ *.$.' y 4 . . M 6.o.= = @ o . . ; 4 H i u 5 p 4 v K K L 3.8.5.h.3.M B B B j + o + & a g a X                                                                                                                                                                                                                                                                                                                     ",
"                                                                                                                                                                                                                                                                                                                                                # 5 j 5 4 j 3.o.@ @ @ B i.hXY U I H B B i # o o Y D i O + o = >.U 5 = * = # + M 6 6 H v @ j M B M 3 M B M V 8.d.:X3.Q L V 2 # 3 A A e w # $ Z 4.5.Q Q / ( ( 4./ lXvXBXsXiXJ.J.aXiXJ.K.v.i.s.i.r.f.t.6.6.r.f.Y 6 o o = i M f.I p u r [ $.].].^.' + u t o = Q j.j.W 5.Q / ( _ q.gXxXkXS./ 8 3 j.z.xXBXlXQ.fXdXmXDXFXkXkXlXE.I.A.S.U.M.C.M.p.e.0.0.L v . o @ i 5 j K @ Y i.N 4 t ; . . o @ i N.y.4 p i + o o [ ).+X+X].d + u F * & #.].+XOX(.[ & a G & ' OXOX=X-X~.f * = = : & *.].].]./.{ a * . M r.>.= = @ o . . ; 4 D i u 4 i = j K K K Y i.4.5.0.Q V H B M i O . o : a 4 X                                                                                                                                                                                                                                                                                                                     ",
"                                                                                                                                                                                                                                                                                                                                                # 6 N 4 = 6 6.o.i @ @ @ 3.pX7.U 3.T B B v = o o U B v @ O o = o.I 5 4 O @ # @ B 6 6 H j + 6 M B v 5 M B B B B i.pX7.Q U >.6 X X V C V w 0 % X q.e.( / / / / ( 4.q.aXFXgXlXiXU.aXJ.H.sXm.x.y.f.f.x.f.r.t.r.r.6.v o o = 2 4 r.I J a y s [ ^.^.$.s . u : + = p.0.q.! 4.! / q./ 5.D.bXnXV n % ~ l.E.kXbXQ.dXgXfXY.BXKXVXnXnXU.E.I.I.I.A.D.A.p.p.p.0.0.Q # # # 2 5 j M @ P i.N , < = o o o @ 5 F.s.i m p : o o $.OXeX<X+X' & u G * & $.OX6X+XOX#.r g G - ' (.6XyX<X`.} - : t t & /.=X5X<X(.[ y o o M 7.O.i 4 @ o . . ; 4 F i u 4 4 = 5 n L K U 7.4./ p.i.Y V H K D 5 # . o * # X                                                                                                                                                                                                                                                                                                                     ",
"                                                                                                                                                                                                                                                                                                                                                # 6 M 4 = > K B >.z @ @ j >.:XN.o.B M N M 5 O . o 6 v @ O o = o.T 4 1 O * o = K j 6 H v o 6 M B v 5 M B B B B 8.v.U U Y Q 6 X X b b V b w 0 . e.j.4./ / / / / 4.q.sXFXmXgXsXaXS.J.J.Z.Z.v.x.x.v.x.v.x.i.7.6.6.D o o # 2 i i 7.x.; u t d #.#.[ r . 4 : o = A.0.L W 4.q.0.5.Q ( aXJ./ b % W h.I.vXgXY.lXzXzXfXY.bXIXKXBXsXsXI.W.E.I.iXM.k.S.U.j.p.0.Q v X . o 5 i M @ Y 8.i ; t ; o o + @ 4 F.d.B D p ; o o $.OXyX4X+X] r a G * o *.].CX5X+X^.y c ..- ' ^.yXtX5X].#.- : < ; & `.-XtX4XOX#.s & . j I I p i = o . . = 4 D u ; 4 4 = 2 6 Q U U Y 3.8.5.a.N.Q K K H I 5 . + o . X                                                                                                                                                                                                                                                                                                                     ",
"                                                                                                                                                                                                                                                                                                                                                # i M > = = 2 6 3.i @ @ 5 v jXm.>.M j b M j > o O 5 j @ = o = Y I 2 = o @ o = R i 4 B B 2 6 M M v 3 b B B B B n b K.Z.L Q Q L . X w W A C 3 X 3 n j./ 4./ / / 4./ p.Z.GXvXiXU.I.W.U.J.Z.C.v.v.v.m.m.f.r.r.r.t.r.U . . @ 5 4 D t.6.x : r f ' d & . 4 o . @ p.W P Y 3.Q Q / k.Z.e.L 9 % 3 q.l.I.lXdXS.gXzXY.E.E.dXsXKXFXVXaXaXiXsXsXiXW.U.l.p.h.k.a.4.4.2 . @ = 6 M @ Y f.z 4 ; i o o + = 4 d.f.D N p ; o o $.].yX4X+X[ r a p * o ~.].CX5X<X(.d c ..- ' ^.6XrX4X].=.- ; < ; o `.<XwX4XOX*.d - o o J N m 4 = o . . = : D 4 < 4 u @ + @ Q K K P 8.y.a.v.M.C.4.V H H B v o . X %                                                                                                                                                                                                                                                                                                                     ",
"                                                                                                                                                                                                                                                                                                                                                # i N = = = 2 6 6.B > @ @ 6 B.d.3.I H D v M 5 # O 5 j @ O o = Y I 2 = o = o = R i 4 B H i 5 B M v 3 b B B B B b n B.Z.7.Q Q L # X 0 W A C 0 3 % w j./ / / / / / / ( j.BXmXlXW.iXE.U.J.J.M.N.m.m.m.d.f.f.r.u.u.f.6.5 X o = = S F f.x ; - r r r o . u & # @ h.P L Q 3./ / 4.e.T.P w X w l.S.A.E.S.I.E.zXE.C.E.zXgXzXDXHXKXkXgXsXW.iXaXU.U.j.j.h.a.j.p.p.B 6 # . 4 M @ Y f.v 4 ; i o o + @ = i.r.D N p t o o $.].yXeX1X[ s t g ; o *.].tX6X5X[.d } ..- ' ^.5XeXeX}.~.r : ; ; & `.>XeX5X#X~.d - o # J N m 4 = = . . o : D u ; 4 u @ . + Y Y Y P 8.i.a.d.N.H.p.U V V V M > = @ $                                                                                                                                                                                                                                                                                                                     ",
"                                                                                                                                                                                                                                                                                                                                                O j M @ O = 5 i 7.H i o O = v i.pX8.3.K M i 6 2 = 2 m O = . = I K 4 = o @ o = I i 4 B K M v B N v 3 M b b M K V V a.a.d.4.Q Q W $ # % V A w w $ > P 0.5./ ( 5.( / ( / aXgXSXsXaXI.S.h.J.K.K.K.m.v.y.y.x.x.r.t.t.7.6.4 o # = v z s.K p u - - o o # i = # 8 h.L B L Q Q Q W 5.C.A 3 # w.W.fXdXE.j.Y.sXS.A.fXkXvXlXvXkXSXHXlXkXfXiXY.aXU.N.S.K.N.p.M.j.5.p.Y . @ @ 4 2 o.f.i 1 ; 1 o o . @ = y.r.D p u u . o $.].tXrXyX[ d : g a & $.].tXCXyX].d } @.: d *.5XrXCX{.*.r & < t & /.=XyXZX=X/.s - o o D D D 2 4 2 . . o = H u ; 4 u @ . X 6 7.8.U 8.y.a.a.i.Z.U.v.V V V H D B 6 # X                                                                                                                                                                                                                                                                                                                   ",
"                                                                                                                                                                                                                                                                                                                                                # i m O # = 4 5 i K >.2 O # 2 s.jX3.Y K v M D D = @ 4 = O . = I K 4 = * @ o = I i 4 M I N v B B M 6 M B b v K V V 4.a.K.5.Q Q ! 2 X # Z A e e 8 # % j.5./ ( 4.L 5./ W j.kXSXfXW.U.U.U.aXsXJ.h.v.v.v.m.x.f.t.t.6.6.6.H 6 @ @ u 4 I 6.F ; o . . . O i = X 2 h.L 9 C P L K 5.l./ 0 X X a.M.gXkXI.I.Y.I.I.E.iXQ.sXgXvXbXxXBXFXnXsXaXaXiXS.W.T.C.l.j.S.J.w.l.i.V $ X o = I i.i 1 1 = o o . O 4 T 7.o.p p a o o $.].tXyXyX=.f & g :.o [ ].yXCXAX].d } +.; r *.5XeXZX{.^.r - t t & ~.+XyXZX=X/.s - o . u x T 6 u 2 . . o = D u ; 4 4 @ . o > U 7.i.7.y.p.p.i.a.a.N.d.H M B B B I K 3 %                                                                                                                                                                                                                                                                                                                 ",
"                                                                                                                                                                                                                                                                                                                                                # 6 v O # o 2 5 = K >.6 = # @ 0.K.d.3.i B B D K 2 @ o 2 O o = I K 4 : * = # @ K i 4 M K B v B B M b M I V v H V V B 7.U.8.P P P 6 2 X n Z w w 3 8 . 0.4.q./ P Q / / ( W lXnXbXW.W.iXaXaXiXZ.M.v.v.v.m.n.f.t.7.7.7.6.7.K . o 4 i 4 7.O.4 + . . . # i 2 X 2 h.K 9 b Z Z n e.C.B 3 $ V 0.0.sXxXI.gXiXM.Y.dXE.E.sXsXxXlXdXbXPXBXlXfXgXW.A.Y.iXS.M.l.U.Z.p.h.h.p.6 X . o H 6.i ; 1 = . . . O 1 K Y 7.i p p + o #.].yXyXCX*.[ : a G + [ ].yXZXAX+Xd } +.t r #.5X5XZX@X].s - y u & $.].6XZX+X/.s - o o 4 N >.i i 4 . . o = I u ; 4 4 + . . o v Y m.0.y.i.p.i.8.y.M.B.L V v v B I K 6 3 $                                                                                                                                                                                                                                                                                                               ",
"                                                                                                                                                                                                                                                                                                                                                # 6 v O # o = 4 @ T >.v 2 o o 5 L hXZ.I >.B m M v 6 o # o X = K U ; ; : = # @ K j 5 M M v v B B B B M K D j B B B B 3.m.:Xd.L U B v . X b e w 0 3 $ 3 W h./ / / / Q ! ! 0.U.DXDXkXE.dXiXJ.h.M.h.v.v.x.x.x.x.x.x.t.o.i.I o . > 1 1 2 R d.4 + o o o i 2 # 2 w.L w w w V B p.J.3 % v 3.0.0.j.gXfXzXY.z.iXdXiXiXE.E.E.I.U.bXVXFXFXE.iXdXiXA.I.lXS.A.M.M.M.p.p.a.6 @ . X v m = + = > . . . O 5 M 3.f.M c c + o #.).6XyXCX~.#.& t S = d `.6XZXAX+Xd f @.a & ' @X5XZX1X].' r a g + $.].6XJX*X`.s - o o 2 S 6.i u u * o o = I i = 5 4 o o . @ . K h.B.h.5.h.j.5.8.d.m.Z.4.B v D K I I U v #                                                                                                                                                                                                                                                                                                             ",
"                                                                                                                                                                                                                                                                                                                                                # 6 j # O o O 1 2 6 i K B 2 = 2 B G.m.N.8.D B M v 6 o . 6 I 5 m 6 : ; : = o @ K j 5 M B B v B B B B B B M b M B B B B K iX0.L U Z v . . 0 A C w 8 # # p.D.W / ! / 4.4.! q.l.BXVXY.U.Y.iXiXH.J.l.d.h.s.x.x.x.x.x.x.f.r.6.H # o @ O = m 6.M i o o * v 4 6 n W b v w w n Z Q 5.$ $ V 5.0.4.j.C.cXlXdXI.fXdXdXdXaXI.dXfXfXlXlXFXFXkXkXE.U.iXiXJ.kXaXC.J.J.A.M.h.a.U . . = 5 4 i = o o . o @ = v Y x.N c l + o [ ^.=X5XCX/.#.& h c + s ^.=X6X6X+Xd r ..a & s @X<XtX-X).' r y a + #.).@XtX-X`.r - o # @ m 6.i u u ; o o . 6 4 = 5 4 + o . @ @ 5 V Z.Z.d.0.3.8.0.0.a.M.d.8.B B K K K K H K j                                                                                                                                                                                                                                                                                                           ",
"                                                                                                                                                                                                                                                                                                                                                X 5 i O O o o = 2 = 2 >.M j + # 5 i.M.pX3.3.H D v 6 . . 2 B 5 D v ; ; = @ o @ H 6 4 b M Y 7.K B B B B B B M b B B b M M Z.a.4.H K b = X $ C ~ C 0 % . ( C.4.( Q ( 4.4.( ! e.aXVXsXsXY.iXsXiXJ.H.M.i.d.d.x.x.v.x.x.x.y.r.o.@ o o # O D T o.m + = ; 4 o v Z V C b v 9 n Q / W $ w P 5.5.Q W e.fXkXgXE.sXfXsXfXdXE.fXsXaXiXsXSXGXDXfXdXE.iXiXI.sXaXI.Z.J.Z.m.h.h.Q 6 X . @ 4 5 + o o . o @ 4 6 Y N.m p i + . d *.+X<XyX^.[ & : G ; r $.OX1X1XOXs r g a o r ].+X6X=X).' r a F + [ ^.+XyX-X/.s - o # o m 6.i i u : # . o 1 4 4 = = o . . O 2 5 > l.M.N.8.8.0.5.8.8.i.h.s.Q H M B B B K Q b                                                                                                                                                                                                                                                                                                           ",
"                                                                                                                                                                                                                                                                                                                                                X 5 j = O o o o = 2 4 >.B M = o @ 6 G.kXY T Y N m i 5 o o # 7 B K ; ; : @ o @ H 6 2 5 v i.:XI H B B B B B M M M M M M b b B.jXi.Y B K # # 8 W A V X X 0 A C.p.! ! / / / / 4./ bXVXSXiXiXiXJ.S.l.h.v.N.N.x.x.V.u.6.f.f.r.3.6 = o o 4 4 ; r.K 4 4 = 2 o v V V V b v 9 V w.4.B # / w./ / Q Q Q 5.BXvXS.dXdXdXY.iXfXfXiXC.I.E.U.bXPXkXsXaXsXsXsXS.iXiXA.j.0.w.a.j.p.i.# . o = = o o o o o @ = 4 I d.i i u o o r [ OX].].^.[ & - G ; - [ (.#XOX].r : g y o - ~.].=X=X].' r g ..& d $.^.+X+X*.r - o o o v 3.i u 4 : o . . = 4 4 O = o . . O $ 2 3 @ h.J.0.p.8.i.i.8.8.v.C.w.H n B B B K Y 6 >                                                                                                                                                                                                                                                                                                         ",
"                                                                                                                                                                                                                                                                                                                                                o 5 j * O o o o O 2 5 i N Y 5 o 4 5 7.N.d.>.I M m v v @ o O 6 M B = : = O o + H i 5 i v 0.S.L D B B B B N B M M M b M H V h.J.0.6.L >.9 3 3 A ( ) 8 # 6 V C._ / ! / / / 4.( 0.M.SXvXI.iXU.N.N.B.N.a.N.m.N.n.x.x.r.u.r.7.o.U 5 O o O = = I B T 4 = = . j B v n C b V V 0.Z C # Q 3.Q ! Q Q Q / W.kXBXlXdXQ.dXfXaXiXE.I.Q.aXaXcXGXVXBXaXfXdXsXdXdXA.A.A.h.q.h.e.p.i.P v . + = + o o X o @ 2 2 K f.o.D 4 . . & r $.~.~.$.s * & ..= - d *.~.~.[ & & g ; o o ] _.(.].~.d r c ..& - s [ $.$.d r : o o o G T 4 4 ; = o . o + + = + + . o . @ 2 @ 5 4 Y 0.D.h.4.0.i.0.w.p.h.m.w.B Z Z Z Z I L L o                                                                                                                                                                                                                                                                                                       ",
"                                                                                                                                                                                                                                                                                                                                                o 5 v = O . . . o = 5 = D o.v 2 # O U >.jX3.I H M M M = + # 2 M B = = = o o + K i 5 z b w.D.V B B B B B M N B v M B B b b j.0.M.4.Y I K 6 X # ~ ~ ~ 8 9 w W ( 0.! / / / 5.0./ 5.bXbXlXU.U.I.M.W.iXh.m.m.V.x.x.x.x.6.6.6.3.>.B . o + = 4 u N o.4 = o . v B n Z V b Z L 5.Z 9 X P W L Q Q Q ! ( A.kXSXkXC.I.iXsXY.A.iXiXE.E.W.gXnXPXBXsXsXsXsXfXaXE.I.C.A.j.0.4.0.p.5.n + + + = O o X o @ = = N >.r.D o o o . & d ] [ ' - o 4 X.= & - f ] f ; o & t o . o s ' $.#.] r - G X.; & - r f d r - o o o o D X.4 = = = o . o o + @ = . . X . o o @ 5 2 > 9 sXJ.h.a.a.p.p.p.a.a.w.P K K K K L L K 5 2                                                                                                                                                                                                                                                                                                     ",
"                                                                                                                                                                                                                                                                                                                                                o 5 j = * . . . . : 4 = T 6.B M @ @ 2 B hX3.I I I Y K B 5 . > M B = * * + o @ K i 5 6 B w.C.C M B B B M M N B b B B B B K V d.sX8.Q Y 3.V @ # ~ C q X 3 w b 4.j.Q / / / 5.w./ e.p.kXFXI.I.U.W.iXU.J.iXm.x.s.x.x.x.f.T >.7.>.o.D o # @ = i u i m 7 o o v K B Y Z n / 0.4.B # . L Q A w Q Q P ( Q W.xXnXlXsXE.S.iXdXiXdXdXiXE.I.fXPXSXnXlXlXE.E.dXsXsXz.D.A.C.S.j.0.C.d.2 X o # o o . o @ @ + 1 4 4 i m > . . o - - & - ; 4 >.X.i ; & + & & o o * ; + @ o r r r r - - O.6.G N u o . o o & & o o = 7.3.m i i : @ . . . . o . . . . o X X X O $ @ 2 $ 0.Z.J.j.d.a.a.j.a.a.C.Z.Y K H M v I K B 5                                                                                                                                                                                                                                                                                                     ",
"                                                                                                                                                                                                                                                                                                                                                o 5 i = & . . o + ; ; 4 S I o.B = @ o 6 m.v.y.I 3.U M I v @ @ i v = = + = o @ K j 6 6 V w.C.C b M B V M N N B v B B B B D K Y H.C.0.5.>.I 9 % 0 q ! . 3 b n W j.p.w.Q 4.0.0.Q 0.5.I.SXlXaXW.I.J.J.J.S.G.N.x.x.x.x.f.t.6.r.t.6.O.4 @ o + = 4 6 i 6 o . M U n B Z b 4.5.L $ X 6 A A Z L Q Q Q 5.5.M.aXBXlXfXdXI.Q.dXdXdXdXaXiXW.dXVXVXKXbXiXdXE.sXI.J.j.I.S.l.A.z.N.B.m.a.w X X . . . . . o # = 6 = = 4 j 2 ; p G S N B B D O.p a i u u u u 4 4 4 v m p S c ........X.6.O.m l m p 4 4 i p p k M H o.U 4 4 2 O # . . . . . . . . . X X @ @ X . X $ $ v h.Z.U.M.j.a.a.a.p.l.B.H.Y Q I M B B B v 9                                                                                                                                                                                                                                                                                                   ",
"                                                                                                                                                                                                                                                                                                                                                o 5 i = + o & - y y ; u p i 7.U 2 o o 5 K pXG.o.>.K B H B 6 o O @ = 1 * = + + R i 6 6 V w.C.n v M B B B B B B M M B V B B K Y L H.D.Y U K K # # 8 _ . 3 w n V C C.a.4.0.0.5./ 4./ C.sXSXgXS.J.J.S.Z.Z.H.F.V.x.x.u.r.r.r.6.t.r.6.x = o o * 4 : = 2 o . M Y M B Y b Q i.$ # O L W Z V Q Q Q Q 5.5.5.h.BXSXgXY.E.Q.E.dXdXdXdXaXiXE.aXnXLXbXaXsXQ.E.D.l.l.E.A.C.C.U.U.d.M.S.L . X . . . . o o o = 6 = # # 5 6 i G @.@.O.U T T B u ; i p p p p p k k m i p F ..@.@.@.@.O.O.B u u p S g G G G D D K I B N = * + # # . . . . . . X . . . X # # # . # 2 # . 3 K.vXm.j.a.a.p.p.w.C.K.8.3.U B v v B V B #                                                                                                                                                                                                                                                                                                 ",
"                                                                                                                                                                                                                                                                                                                                                @ 5 u , + o - d #.] - a g m 7.U v 5 @ . 2 pXm.K >.3.3.Y D j . # + @ 1 = = + @ N i 6 6 B e.C.n v b b b B B B M M M B B B B K K K hXB.Y Q Q H . # % % X L W b V Z z.0.4.0.0.5.Q ( / / 0.DXvXI.U.J.Z.U.C.H.N.v.v.f.6.f.x.>.D Y >.,.>.6 + o = ; : ; o o . M Y B b v b Q 0.2 O O L A W W Q Q Q Q ( 0.0.0.p.SXgXE.aXdXdXdXdXdXsXdXdXdXaXvXLXFXDXI.I.W.I.M.dXA.C.S.K.C.h.sXC.l.C.e.. X . o . . . . . X o 2 > @ @ = 4 4 u u 5 4 7 5 = * : = = ; ; : ; ; ; 4 4 i p g g g f u ; ; = : : : = < < < 4 4 4 2 = * = = = = o . . . . X Z V L L P L L Y Y V 9 3 . B J.nXp.h.a.a.a.a.j.i.i.h.H.a.K K n b B B B B $                                                                                                                                                                                                                                                                                               ",
"                                                                                                                                                                                                                                                                                                                                                @ 4 = 4 O * s [ [.=.d g c a U B D v @ . o a.m.H.8.o.I I I B 2 O + @ 1 1 = + @ B i 6 6 B p.C.b v v B a.V B B M B B B H B B K I Z m.H.K.7.Y Y >.> X X n A A C C V 5.e.M.q.0.4.W / / / q.kXbXsXW.I.Z.Z.Z.B.x.d.v.r.6.7.Y M m r.8.7.7.H i o @ ; : ; + . . B Q B B 9 9 P 0.> O O L A W L L P / / P / 4.4.q.bXxXbXfXdXdXdXdXdXdXdXdXdXaXfXmXGXDXbXxXW.I.C.Y.S.S.J.J.a.a.C.M.j.l.l.p.# . . . . . . . . o @ @ @ # # # # ; 4 2 2 = * o o o o o # # o + + + = 1 1 1 1 4 4 ; : * # # # # O @ = = = = = = = O # O + @ # # . . o b 2 Q B.M.M.M.l.M.C.C.C.C.j.M.J.aXgX0.h.M.h.d.j.h.a.a.i.h.m.h.B B V B B B K 6                                                                                                                                                                                                                                                                                               ",
"                                                                                                                                                                                                                                                                                                                                                  > + 4 * o s *.@X].*.} p i 5 D >.6 2 # . M m.kXy.U K D B B D 2 o = = = = # @ D i 6 4 B p.C.b v 9 n M.V B B B D K H H H b B K Z v N.jX>.3.Q >.6 % X Q C C b b n n 4.C.e.0./ / / / / ( q.bXSXdXI.J.M.H.B.v.m.r.7.y.7.M m B f.x.y.y.8.D @ + = ; ; + . . v V B B 9 v L 0.= @ $ W W W W L Q 4./ L 4.Q / Q j.vXBXsXdXiXiXdXsXdXaXaXiXaXdXI.GXDXDXvXW.J.C.j.U.iXsXD.C.B.C.M.A.A.J.W.C 6 9 j 6 6 6 6 M B 5 # 5 5 5 5 7 i i 6 6 4 = @ @ = = = @ O O o o o + + = = = = 5 5 4 2 2 O # O @ > > > > > 2 4 > = = = = 2 4 5 5 5 2 5.V 3.aXlXaXaXW.iXsXsXaXaXaXaXlXfX0.w.j.J.Z.h.N.h.M.a.0.a.h.m.Q C C B B B M H D                                                                                                                                                                                                                                                                                             ",
"                                                                                                                                                                                                                                                                                                                                                  o o 4 = o d ~.4X@X_.d u u 7 K 8.j 5 @ o @ 0.pXy.3.Y >.D B B = . o + = = + @ D i 5 5 B p.C.b v v b h.L B B B D H H H K v M B n M M.iXQ Y Q o.M b # $ 0 V V C C b 4.h.J.p.Q Q Q Q / ! ( lXFXW.W.U.h.N.G.G.B.3.y.7.I o.o.Y y.d.y.y.r.>.i + o + o o . . j B B v 9 v n M o o @ / / W P Q 4.Q Q / K P Q W 5.gXBXBXlXaXsXiXiXdXdXdXI.iXiXY.dXKXKXxXU.A.j.j.aXbXIXKXFXFXFXDXSXSXSXBXBXnXmXmXnXbXbXnXmXvXh.D r.6.>.>.>.>.6.3.3.3.>.>.>.>.>.3.>.o.o.o.O.O.,.2.2.6.O.>.o.o.o.o.o.U U O.o.o.o.o.3.3.>.o.U U U U o.Y L Y 4.4.8.w.m.4.w DXsXJ.h.M.h.a.j.M.Z.h.C.C.M.Z.J.S.J.U.A.8.M.h.0.w.a.h.K.5.n V B B M H B                                                                                                                                                                                                                                                                                             ",
"                                                                                                                                                                                                                                                                                                                                                    o 5 & + d /.yX6XOX] 1 u 4 M o.Y K v # o Y y.pXm.H Y H N N > @ o o + = # @ D i 5 5 D p.M.n v w b a.0./ B B D D B B K M M N b B >.v.iX0.Q >.L b . X 9 A L C C n V P D.5.P P ! / / ! ! C.hXSXlXU.Z.Z.B.F.V.>.r.i.7.6.>.3.8.p.y.y.i.B.3.1 + o o . X X @ 6 M j 9 v b v # o O b Q 4.( Q P P P P 4.P L W / l.iXnXlXlXsXsXdXdXaXiXiXdXaXaXsXbXFXBXSXBXbXvXBXBXVXDXSXmXbXkXfXfXzXsXgXfXfXfXaXiXiXiXsXxXA.K Q y.N.B.N.d.d.d.d.s.d.s.a.i.s.s.s.s.x.d.d.d.x.x.x.v.v.d.f.i.r.y.y.f.i.y.y.i.x.x.x.d.a.i.y.8.0.r.i.i.i.d.d.d.a.p.h.h.Q 0.gXiXl.C.l.w.M.J.I.M.M.C.B.J.U.aXU.sXgXiXsXW.U.U.J.h.N.M.a.n B M M V H H                                                                                                                                                                                                                                                                                           ",
"                                                                                                                                                                                                                                                                                                                                                    X i : * s =.yXyX@X} = i 7 6 i s.Y B @ # 5 b K.N.>.3.3.K K 6 = o o o = # @ D i 7 6 Z p.l.C v v n h.j.h.M D B B B B K B M M B B b Q sXh.Q 3.>.B $ . 6 L Q C C b b A j.q.4.! ( / / / / e.C.KXnXW.iXZ.B.N.d.Y 7.i.y.f.u.y.y.y.y.d.i.C.Y # # $ j 9 6 6 $ X v 2 6 v v j % o X X Q q.4.P A A L P / W W W / / l.xXbXvXsXsXdXsXaXE.aXdXE.Y.U.W.VXDXPXPXKXHXDXBXBXBXBXbXgXfXsXU.aXdXiXE.E.W.Y.I.S.S.J.vXN.B L a.K.D.B.D.Z.G.B.B.:XH.H.K.:X:XK.:XpXU.U.J.J.K.U.U.U.D.m.N.Z.M.N.C.C.C.m.C.D.Z.C.C.m.C.N.d.m.v.M.M.m.A.G.C.m.h.l.h.N.n lXkXfXm.h.h.N.J.A.M.N.J.K.Z.U.aXJ.sXhXgXsXaXaXaXU.h.m.D.a.K C C V V L Z 9                                                                                                                                                                                                                                                                                         ",
"                                                                                                                                                                                                                                                                                                                                                    X 6 u = - #.].yXZX@.+ i u 6 i m.3.H j 2 = 6 H.G.N.m.m.f.7.i = o o . . o @ D i u 6 H a.C.K M M V M.C.h.b K B B B B B v v b B B b >.M.L Q 3.>.L Y @ # $ ! C n b b C n j.l.4.( / / / / / a.SXbXmXJ.K.h.a.y.d.s.m.m.x.s.y.r.8.H.GXJ.3.X X 3 V K.D.M.j.n . . 2 2 6 9 b 2 # X # 3 4.4.Z V V L P / P W W / 4.e.z.mXBXiXiXiXdXdXaXdXE.I.I.Y.W.iXDXLXKXSXxXvXfXI.J.U.iXiXiXaXU.Z.Z.S.D.S.A.M.l.B.S.J.vXh.. . 3.a.U.U.pXpXjXsXaXhXgXhXgXhXhXhXjXsXfXgXfXpXiXU.U.J.U.U.iXjXK.iXpXpXaXE.U.iXK.iXiXD.iXiXU.iXU.U.K.H.gXpXK.U.J.j.C.J.V 0 lXBXB.M.M.J.Z.M.l.Z.l.l.B.M.h.m.C.C.C.j.M.J.iXK.U.iXU.U.M.v V V b B L Q V %                                                                                                                                                                                                                                                                                     ",
"                                                                                                                                                                                                                                                                                                                                                      = u 4 & ' ^.6XCXO.= i u 4 2 >.U Y K 6 o > 7.N.mX7.7.>.B = @ . . . . . @ M 6 u 6 D a.l.P M M V A.C.h.M B B B B B B v v M B V V L L sXiX4.4.Y Y @ X X K K B v b C C j.z.0.! / / 3.3.4.4.l.vXSXJ.D.h.d.i.d.f.i.B.h.i.i.MXnXU.j.W 6 . p.l.lXiXC.w.Q L w . X $ M v 2 2 # o X # 3 e 0.A V L W ( W W Q / ! / q.zXxXBXcXiXaXdXQ.Q.E.I.I.iXsXDXKXLXDXmXkXzXdXZ B b b b b 3.J.bXC.Z.S.J.S.l.sXN.A.I.C.K.W.$ $ 9 3.4.8.8.7.7.7.8.0.e.p.p.p.p.w.w.i.e.e.e.0.4.4.4.8.7.7.0.i.i.i.i.w.w.0.8.0.8.8.8.0.0.4.0.8.4./ 3.3.7.5.4.3.Q W W 0 6 w.U.BXJ.m.B.B.B.B.Z.Z.l.h.h.Z.M.Z.C.C.m.D.Z.9 B D V L 0.aXh.5.B L V L P P B                                                                                                                                                                                                                                                                                     ",
"                                                                                                                                                                                                                                                                                                                                                      O < p r s #.-X6X} + z 2 2 2 4 >.d.o.6 O > B m.SXU U D i O @ o . . . . O m 6 u 6 D p.C./ V B V A.C.M.w 8.B B M M B v v M N B B C b U.hXQ 4.Y Y 6 $ X v b L v b C C 0.j.h._ / 4.3.3.4.4.3.U.mXaXJ.N.m.v.x.f.s.Z.i.C.J.mXvXJ.w 8 9 h.sXsXgXU.h.w.5./ B . X > B 6 > > o X X X # 3 a.W A ) W W W W Q Q W Q / I.E.GXbXE.iXQ.E.E.iXW.Y.dXgXKXKXKXSXBXdXE.M.. . X $ % $ 3 m.vXiXJ.C.Z.D.A.J.I.A.M.j.J.U.P b 2 P K L K K L L Z K Q Q Q Y Y Y Y Y Y P L L C C C H Z K L U U Y Y Y P K K Z V V Z K K L Y Q L V H K L K V V n b b 8 9 h.aXvXB.D.B.B.B.B.B.Z.Z.h.m.B.Z.B.C.C.j.J.B.. $ 6 3 3 Q J.J.a.L W L Z L L L 2                                                                                                                                                                                                                                                                                   ",
"                                                                                                                                                                                                                                                                                                                                                      O 4 ..g r s ^.[.s o i 5 = = i i.J.3.6 * 2 D U s.= = 2 ; * = o . . . . + M 6 6 6 B a.C.p.Q V L A.Z.h.9 N.L b M M B M M M B B B B B 3.m.h.5.>.Y Q v X # w P b n C C L L C.j.q./ 3.3.4.4.Q J.iXDXsXG.pXN.v.x.h.v.4.vXHXmXj.4.# X h.HXBXlXS.l.M.p.w.i.4.6 X 2 L 6 @ # o . . X X 3 l.( ) ( W W W W Q W Q Q 4.e.j.SXsXiXsXE.W.W.E.W.E.fXSXLXDXmXKXGXfXp.V # . Z Y L K # 2 L FXsXM.l.J.iXl.iXiXd.M.M.M.W.h.. # . X . . . . . . . . X X . . . . . . . . . . . . . . X o . . . X . . . X X X . . . . X # X X . . X X X X . . . . L DXVXC.Z.B.Z.Z.Z.Z.Z.B.B.B.B.B.C.B.B.B.B.i.v X B K K n b % xXW.4.Q Q Q b V V B v X                                                                                                                                                                                                                                                                               ",
"                                                                                                                                                                                                                                                                                                                                                      = u ..c - r ' #.r . u 4 = = i i.G.B 2 = > D U i.= 4 = = = + . . . . . o M 6 6 6 V a.C.N.0.Z L D.C.h.9 B.C.b M M M M M M B B B B B B a.hXm.U Y >.v X X w L V L 0 C A ~ e.C.q./ 3.6.4.3.4.Q p.DXpXU.iXF.H.B.m.B.FXmXY.e.C C 3 gXFXHXgXE.I.C.p.j.q.0.p.w.6 O 2 5 # . . . . . . . 0 q.e.~ W W W W Q Q Q Q 4.4.e.vXbXbXE.E.E.E.dXsXsXDXFXvXbXxXKXKXFX4.n . % Z K 6 B 3 9 L HXsXh.M.M.Z.iXM.S.I.J.M.M.K.U.xXxXkXxXkXkXlXlXxXxXvXvXxXvXvXvXvXkXkXhXhXhXfXfXsXgXgXlXH.aXhXhXhXhXgXhXsXsXsXsXhXgXgXgXhXhXiXiXiXiXiXpXpXiXiXU.I.aXbXU.J.D.Z.Z.Z.Z.Z.Z.Z.Z.Z.C.B.C.M.B.M.B.l.C.8.X j K B b b 3 L J.hXQ n L Y B v B w o                                                                                                                                                                                                                                                                               ",
"                                                                                                                                                                                                                                                                                                                                                        4 p m 4 * s ] - o j i 5 5 6 7.v.5 @ = > B U i.= 4 ; ; * o . . . . . + m 7 6 6 P a.w.N.0.L / D.C.a.9 B.M.3.n M M M M M B B B B B B 8.hXh.3.U Q B w X 9 K Z P b n C V _ C.q.4.3.3.4.3.4.! 4.BXvXgXJ.N.J.U.U.lXSXvXe.C 0 C S.xXnXBXBXkXS.z.a.q.p.0.p.a.B 6 > o o . . . . . . X . q.k.) ! W P W Q Q Q Y / 5.5.M.xXBXsXdXW.E.aXfXnXFXDXkXgXxXGXHXKXA.5.. @ b b j 9 3 $ L FXiXh.Z.N.C.T.I.J.I.I.Z.M.N.U.vXvXvXgXgXhXhXgXgXlXkXlXkXkXkXvXvXhXhXsXhXhXsXhXhXgXgXhXU.sXlXgXgXgXsXaXaXaXpXpXsXsXsXfXhXhXiXsXsXiXiXpXiXaXiXJ.Z.W.vXK.J.J.Z.Z.Z.B.B.M.C.J.D.Z.Z.B.m.M.M.B.M.B.0.3 v B j v v 2 8 sXmX0.L C L b 3 B v v                                                                                                                                                                                                                                                                               ",
"                                                                                                                                                                                                                                                                                                                                                        ; < I m . & r - o z i 4 5 6 D o.+ . @ > M L r.= ; 4 ; o . . . . . . + v 6 6 j P a.b M.8.0.M.I.( Q 6 B.Z.Z.Y M b b M M M M M B B B Y b J.H.Q >.>.Q @ X # L W W b C A W ( j.j.>.4.4.4.Q Q q.e.BXFXC.C.S.C.gXPXbXj.3 8 b j.VXcXsXY.FXBXT.C.S.p.a.a.p.a.d.Q # # . . . . . . . . . q.q.q.( A L W W Q / / / / / / I.BXDXY.E.sXfXgXLXGXzXlXlXzXlXBXPXkXh.X X X % > $ # v 8.FXI.M.h.C.I.N.I.iXS.iXJ.C.K.J.J.J.Z.J.J.Z.Z.C.J.hXN.A.iXS.Z.U.sXN.m.M.M.l.l.h.l.a.N.Z.Z.Z.Z.C.m.h.a.Z.Z.M.M.M.N.N.B.N.Z.Z.Z.Z.m.v.j.h.h.h.h.a.h.Z.Z.Z.G.Z.J.Z.H.J.C.h.a.J.D.D.D.B.M.i.a.M.m.B.K.w.$ # # $ 3 $ 4.iXvXC.0.b B B b B K Y $                                                                                                                                                                                                                                                                             ",
"                                                                                                                                                                                                                                                                                                                                                        = < a u v o & o o i i 4 5 i D o.o . @ 1 M K r.= ; * = o . . . . . . o v 6 6 v K a.b h.j.M.A.C.0.Q 3 B.Z.Z.l.B v b M M M M M B B B b D aXJ.Y Y Q 4.$ # X A L Q q C C C A z.j.Q 4.4.4.4.4.0.Q lXnXxXE.M.BXDXsXw.Z q S.sXbXbXE.I.I.S.lXnXT.l.j.j.j.j.h.h.0.Y X . . . @ = @ . . . q.k.( Q W P Z L / / / / / / ( j.Y.BXBXlXdXxXKXBXbXkXkXlXfXgXBXKXFXBXJ.w # X # # C bXSXlXJ.M.C.l.N.J.l.S.fXU.S.J.J.I.I.K.J.Z.Z.Z.Z.Z.C.Z.Z.Z.iXZ.Z.J.J.M.M.M.M.M.N.N.M.h.M.N.N.B.B.C.M.J.B.h.m.h.M.M.M.M.sXB.B.Z.Z.B.M.h.C.U.m.v.m.d.m.Z.Z.Z.Z.Z.U.H.C.C.C.C.M.J.D.D.D.Z.D.d.i.M.m.B.Z.N.p.$ 2 > 8 b xXaXW.e.Q L p.b w n L U >                                                                                                                                                                                                                                                                             ",
"                                                                                                                                                                                                                                                                                                                                                        5 = = 6 B o o o . v j 5 @ 7 H ,.. o = > D I u.= = : = o . . . . . . + b 6 6 v L v.9 h.M.M.M.M.h.0.3 M.B.M.Z.q.n M M M B M N B B B B B D.N.B.5.7.Q Y v X w b W b w w w 0 j.j.0./ 4.4.4.4.4.Q J.E.SXxXfXVXxXS.C b Q dXxXxXaXI.S.S.C.E.BXdXI.C.C.l.j.l.h.q.4.# . X . 3 5.9 v . . _ k.! P W L V W / / / P ! Q 5.q.S.sXDXcXbXBXHXbXkXkXvXxXgXzXvXBXPXFXbXJ.B.Z.Z.Z.H.DXIXiXsXiXaXaXaXiXgXkXbXlXlXgXgXsXxXlXhXfXfXsXiXU.iXsXsXsXgXgXgXgXgXkXgXaXfXlXgXgXsXN.xXgXaXaXJ.B.iXsXiXJ.aXaXiXiXpXiXgXaXpXK.U.U.J.C.J.hXiXB.U.J.iXU.C.U.aXgXlXsXJ.sXiXU.I.iXW.iXiXiXsXJ.Z.P W.U.Z.W.J.N.Z.Z.Z.Z.vXU.l.a.! A 0.Q Q Z K Y $                                                                                                                                                                                                                                                                             ",
"                                                                                                                                                                                                                                                                                                                                                          + = 6 K O # o . v 9 2 @ 3 H ,.o o = 2 D I u.2 * : = o . . . . . . + M i i m L v.b h.m.M.M.p.h.5.3 M.p.l.C.Z.B M D B B N M M M M M M K y.hX0.6.Y Q L X . 9 Q A C w w 0 0.j.A.Q 4.4.4.4.4./ Q j.VXnXGXbXiXC % / cXbXlXY.W.I.S.J.C.Y.BXxXbXD.C.l.j.j.a.5.0.X . . . w q.A e X . _ k.W A V W Q / / / / L ! / 4.q.q.iXFXbXFXKXlXkXkXxXxXxXxXcXvXlXHXIXPXPXHXKXHXHXKXHXFXDXSXBXSXVXVXbXSXGXBXDXDXSXnXVXDXSXBXBXBXVXnXbXSXSXSXSXVXVXBXBXBXVXSXSXDXSXSXSXnXiXIXFXbXvXiXJ.BXbXsXkXmXmXvXaXnXgXvXmXBXhXhXMXgXU.iXBXlXsXmXvXmXiXM.kXSXDXFXVXsXBXBXmXbXnXnXbXbXbXbXvXgXL fXaXA.sXgXvXbXnXmXxXhXS.a.p.q.A / h.0.Z L L $                                                                                                                                                                                                                                                                             ",
"                                                                                                                                                                                                                                                                                                                                                          O @ 5 M v o o o v 6 2 = 5 B ,.. . O 2 D T f.= @ = = o . . . . o . + M i i v B 4.v K w.M.l.C i.0.3 m.v.n l.C.h.v M B B M M M M B M M K 7.pX3.U Y 3.K X . w L A n b w w C 5.A.5.0.0.5.4.( / Q w.BXnXSXz.A X l.S.xXE.Y.E.Y.S.A.S.S.S.iXnXnXC.A.z.h.q.p.a.0.L 6 . X 8 ^ !._ 8 . _ _ A n C L P / / / / Q ! / / 5.q.j.fXSXFXvXkXvXxXfXxXxXxXlXVXKXLXSXgXsXaXaXsXsXiXpXU.J.Z.C.J.U.U.J.aXaXU.pXiXpXZ.:X:XU.K.U.I.I.J.J.J.I.U.:XU.U.U.U.U.U.:XU.U.U.U.U.U.A.iXpXD.D.M.h.A.Z.C.Z.J.J.D.C.B.M.M.C.Z.B.v.m.M.l.h.C.h.a.M.h.M.h.d.h.h.h.M.m.h.M.M.m.h.l.h.l.m.h.a.h.a.Z Q 4.L a.j.j.M.M.N.v.a.a.h.bXC.5.P 4.a.3.L V b 9                                                                                                                                                                                                                                                                           ",
"                                                                                                                                                                                                                                                                                                                                                          o $ 5 6 N o o o 9 5 = @ 5 v Y . . o 2 m I f.= @ = * o . . . . o o @ B i i z b B v b 4.l.l.6 w.0.3 m.m.w q.M.B.B M B B M v M M M M M D Y D.Z.i.Y / Q V . 3 B C C C w 0 b Q l.h.0.5.5.4.( / e.j.BXkXgX( C e T.dXaXS.T.I.T.T.S.I.S.J.D.nXBXS.A.C.h.e.w.p.0.5.n . X % e R._ e X _ _ A n A A A / / / / / Q ( ( ( 4.e.M.FXFXlXlXlXfXfXkXcXbXBXFXPXSXvXN.M.M.m.M.M.d.h.v.8.3.4.p.d.a.h.l.j.h.a.h.a.i.i.i.i.i.i.i.a.p.p.i.i.a.a.a.a.a.a.a.a.d.h.h.h.d.d.p.p.p.a.0.0.q.0.0.p.d.d.d.d.w.0.0.5.5.5.0.a.0.5.5.5.5.8.q.0.0.8.0.4.4.4.4.3.3.3.3.3.7.8.3.3.3./ / >.3.3.L K V V V Q Q 3.4.4.4./ L / 0.gXW.J.W 4.4.8.P V V 6 .                                                                                                                                                                                                                                                                         ",
"                                                                                                                                                                                                                                                                                                                                                          X $ 5 i N = o o 5 = # @ 5 m Y . . o = m H r.= O = = o . . . . o o @ N i i z B 6 w v 4.l.l.6 p.0.3 M.m.v b 0.B.B B B B M v M B n n M K B U vXH.U / Q Q @ X # b C C w w w W 4.J.p./ 4.4.4.4.J.dXGXW.A 8 q z.zXdXC.T.T.T.C.I.Y.U.I.I.A.bXbXBXC.C.l.j.h.0.0.0.L X # # q _ R.` . ~ _ A V L A L / / / / / Q ( / / 4./ W DXIXlXkXgXgXkXkXvXgXKXLXKXh.4.P n v 9 9 9 6 b V v v v V b b 9 K L V B b b b n b v j 3 3 6 9 6 6 6 0 9 9 9 0 6 6 0 v b b b B B b b w 9 3 9 9 j v 9 9 9 v 9 v v v v v 9 n 9 9 6 9 9 0 9 j 9 9 9 j 0 9 9 j j 9 j j M v v j j v j j b b M M B C V V b 0 9 b v v j 0 w 9 3 sXmXh.8.K 4.0.V V 6 .                                                                                                                                                                                                                                                                         ",
"                                                                                                                                                                                                                                                                                                                                                            X 2 2 i D @ o 4 @ @ @ 5 m U . o o = m B 7.= * = = . . . . . . . @ B i i v v v 6 i 7.8.K 6 i.0.3 m.m.v B 4.B.B D B B v v B B M M M M M D pXy.L I Q >.6 @ % C C V w C C V C I.j.5.4.Q 5.e.sXnXJ.! 0 q e.xXzXY.S.S.S.C.S.W.E.Y.S.C.S.iXgXBXW.I.j.j.e.e.e.j.4.P : o X e _ ` . _ ` A A ~ A L W / ! L A W ( _ / 4./ / U.lXPXVXvXxXgXkXbXHXLXmXU.0.0.L B b b b b B H H M K K B b V V K K B B B V V V B v 9 9 9 9 w w v v b 6 9 9 9 v j b C B M B >.Y B n V b 6 9 9 M V v 9 j v 6 M M M H v 9 9 v j v v 6 j b M v v v v b b v v v v v v v B B 6 9 j j v v M B M K B V V B b b 0 B Z b b b w w 4.h.vXi.8./ B B B M b %                                                                                                                                                                                                                                                                       ",
"                                                                                                                                                                                                                                                                                                                                                            O @ 5 u D + . 4 @ @ @ 5 m U o o O = v B 7.= = = = . . . . . . o @ N i i v v v 6 6 7.U 9 9 a.w.3 m.m.v B 3.N.B D B v v v B B M M M M M I v.y.4.Y Y >.H 6 % n A ~ C A C b A A.j.a./ Q q.C.aXlX4.b $ p.I.lXsXS.D.S.S.C.I.W.W.I.S.C.J.S.fXnXzXU.h.l.h.a.j.j.4.4.2 o . # _ ` e _ ` W L L A L / ! Q ! L ! ( _ 4.4./ / l.sXIXDXBXbXxXbXBXLXFXvXd.8.Y K K V b B B K L H M K K B B H L K C B B V V Z Z V B b M n n V B B B C v v v v b V K L K D H L K K H V B C B B C K B B B b 9 M M M V b v v B v B B v b B K B M b b M M n B B B B B B V K b M b v v B V K K L L B b n V n 9 V Z b b b v v b 0.bXM.p.>.L V K K V #                                                                                                                                                                                                                                                                       ",
"                                                                                                                                                                                                                                                                                                                                                              @ 5 4 = = @ i 2 = = = i B + o + = v D 6.= = = = . . . . . o o @ N i 5 v v v 6 i K K j 9 d.w.6 B.h.M M 3.N.D D M v j v v v v v M M M B v hXBXQ Y Q 3.K # X C ~ ~ C b V C C S.T./ ~ e.xXA./ $ % q cXxXE.S.S.D.A.C.I.I.I.I.C.T.W.I.S.z.C.DXxXl.C.M.h.j.j.0.0.n X . . % ^ !.k._ W W L V w ( A L W W W q._ ( / / q.M.fXI.BXLXLXPXLXLXKXC.h.5.Z K L H 0.J.8.7.Y Q >.Q >.3.3.3.8.y.5.3.5.7.7.3.8.8.8.8.8.5.5.4.4.4.7.4.4.4.3.Q Q Q >.3.>.L Y Y B B V 4.L K L U U K b Y Q Q Y Y U U Y Q Q Y Y Q Y U U Y Y Y Y U L L L U U Y Y Y Q Q Q Q Q Q U U Y Y Q Q Q >.Y M Y K M V L L L K K U H H b b w V P a.V Q a.0.M b V 6 4                                                                                                                                                                                                                                                                     ",
"                                                                                                                                                                                                                                                                                                                                                              o 5 4 1 j 6 O 4 = = i M R o o + = v H 6.= = = = o . . . . . . @ B i 5 j v v v i v 6 M 9 d.i.6 B.B.w.v 3.N.D D M v v v v v v v M M M B b K.sX7.Y Q >.H > X b A ) A Z V C C a.q.j.S.E.J.W 3 X 0.T.W.E.I.I.I.I.I.I.J.A.I.I.M.I.Y.S.A.C.A.bXxXkXz.j.j.j.j.p.0.W b X . # q !._ ~ ! W W A A Z L W W W Q ~ _ ( Q 0.q.C.sXsXBXFXnXkXkXW.C.v.i.Q H K K m.i.>.H V M M v v M M M v B B B B H D D H B H H H K B B B B D D D D D B B M B B B M b M b v v v B v b n B B b v n M n b v v v v b b v v b v v v v v b v v v v v j 9 b b M M M 9 9 b b v j j j v v v v B B b 6 j 6 6 6 6 v v M Y K n b 6 v B i.V v B L 8.8.K U 4 6                                                                                                                                                                                                                                                                   ",
"                                                                                                                                                                                                                                                                                                                                                              @ 5 = 4 7 5 . 2 1 = i N I o o + = v H 3.= = : = o . . . . . . O M i 4 j v v v m v b v v d.p.6 B.Z.C.B Q N.B B M M M M b v v v M M M M M d.d.8.3.4.>.U B # w V ( W L n n n Q / A.E.gXj.b X X j.aXS.T.I.Y.aXsXQ.E.J.A.T.S.C.Y.T.S.C.A.C.aXcXbXC.l.j.j.j.j.0.4.P . . X q ` _ W W W W L L V L Q W P L A ) ( 4.l.l.S.sXxXbXSXaXA.J.M./ a.5.Y I U U m.0.6 j j 2 2 = @ @ 4 4 5 6 6 5 4 6 i 6 i i 6 6 6 6 6 i i i 6 6 i 6 6 4 5 4 5 3 5 5 5 5 5 2 5 5 2 5 5 3 6 6 5 5 5 4 2 2 2 2 2 5 4 5 4 5 6 5 5 5 5 5 5 5 5 3 3 3 > > 2 2 2 2 5 = = 5 3 2 2 2 2 2 2 2 2 6 v 6 6 6 2 1 2 2 2 2 2 L I K b w v 5 pXP 6 v Y 0.q.U 4.v v 9 j                                                                                                                                                                                                                                                               ",
"                                                                                                                                                                                                                                                                                                                                                                = ; i = # + 4 = = 5 M K . o # @ M m I @ = : = o . . . . . . o b 5 2 i v v m m m M v v d.a.9 N.B.l.a.h.M.B B M M M M M v v v M M M D B V Y 8.i.i.6.Y I $ X 2 4.W L n b b n / kXfXp.$ X 9 M.M.I.S.W.E.C.E.sXQ.A.J.W.A.S.U.I.C.C.M.C.C.z.kXbXkXE.z.j.l.M.e.w.Q b # X # 0 W A P A A L P L L Q Q L A ~ ) ( ( l.A.E.fXHXU.Q 4.5.D.Z.h.Q U I K >.G.3.M O o o o + o . . . . # # . @ > # O @ @ @ + . . . . @ @ # # # @ # o . . . . . . . . . . . . . . . . . X X . . . . . . . . . . . . . . . . . . . X X . . . . . . . . . . . . . . . . . . . . . . . . . o . o . . . . o o o # . v 3.v v 9 3 vX3.n b M b h.Z.4.j Y 5.P $                                                                                                                                                                                                                                                             ",
"                                                                                                                                                                                                                                                                                                                                                                # ; M 5 = o 4 = > 2 v X.O # o # m D o.@ = : = . . . . . . . X v 5 2 i v v m m m M v v h.a.6 M.l.l.M.M.N.D B M M M M v v v v M M M v b K 3.DXhXsXM 6 5 o # $ w W A b n n Z Q gXA./ $ > B aXJ.S.S.A.C.E.E.iXC.I.E.A.T.I.I.D.S.T.W.I.C.C.C.Q.nXT.z.h.k.0.e.0.0.4.X X X 3 V W L L A A Q A K L Q L A ~ ) ( Q l.I.xXDXC.0.4.0.0.Z.U.SXi.U K K o.7.i 2 . . . o . . . X o . . . o o o o o o # # o . . . . o o o o o o . . . . . . . . . . . . . . . . . . . . . . . . . . . . . . . . . . . . . . . . . . . . . . . . . . . . . . . . . . . . . . . . . . o o o o . . . . . . . . . @ 6 K b v 9 sX3.K v b V V Q i.U 2 H Q V M                                                                                                                                                                                                                                                           ",
"                                                                                                                                                                                                                                                                                                                                                                = 4 M i 4 = o 4 5 = j K o o o o 6 B 3.= = : = . . . . . . . o v 6 5 5 j j m m m M M v h.h.6 l.4.h.l.M.N.H B M M M M M v b v M v v M b U 3.BX:XK.2 > > o . o % ~ V b n A V 4.E.e.! $ B Q bXlXZ.S.A.C.E.E.E.iXW.I.I.Q.U.S.M.I.iXS.A.A.C.D.S.BXdXl.j.e.0.e.0.0.0.8 X X X n Z A n A P W P 3.4.>.P W ! ( ( / j.W.kXmX! Q Q 4.0.H.iXVXi.3.B >.3.o.2 . . # > i i 2 > > 2 2 . o . . . . o o o o o o o . . . . o o o o . . . . . . . . . . . . . . o o o o o o o . . . . . . . . . . . . . . . . . . . . . . . . . . . . . . . . . . . . . . . . . . . . . . . o . @ 6 5 6 6 6 O o . . + L M v v M.5.U b b b V b 0.U . B K L B # #                                                                                                                                                                                                                                                       ",
"                                                                                                                                                                                                                                                                                                                                                                    5 v i = o 4 6 = i K o o . o B K 3.= + = = . . . . . . . o v 6 5 5 j i v m M M M v h.h.6 M.0.L j.M.B.H B M M M M M v b v v v v v j K U G.3.9 2 2 @ . . o # V C b Z B b W C.W $ > L 8.vXxXY.I.S.I.Q.E.U.Y.I.T.E.E.S.C.I.E.I.D.I.T.S.S.S.xXlXsXp.j.h.l.J.J.U.l.n X X w C L V P Q L L Q 3.Q P W ! ~ W 4.k.iXgXV 4.4.Q >.4.l.J.SXp.3.B 8.U + @ o = i v K v = = @ 3 i 5 4 2 = 2 > ; ; = = = = = = = = = = > = = = > = = = = = = = = = @ = = = = 2 4 4 4 4 = = = = = = = = = 2 2 2 = = = = = @ @ = @ $ $ = = = @ @ @ = = = = = = = 2 2 4 4 = = = = @ = = > 7 M 2 = 2 2 v i 2 @ . . . L Q B 0.w.3.b b b b v / 5 X 2 j M Y 3.Y 9                                                                                                                                                                                                                                                     ",
"                                                                                                                                                                                                                                                                                                                                                                    @ m 6 2 . = 4 5 i D o o o o o.O.o.= * = 1 . . . . . . . o v 5 2 i z i i m B M M v h.p.6 M.i.w a.C.Q B B M M M M v K M v v v v j 6 L V m.I v 5 5 2 o . X # V n b Z B C W M.W X 3 L p.kXlXnXsXS.Q.W.E.E.A.iXE.E.E.S.C.I.I.S.Y.aXU.S.S.T.D.nXVXl.z.S.Y.W.sXfXJ.0.$ % $ b P Q P Q L P Y Q Q Q ( Q P Q 4.w.iXzXQ 4.4.3.7.3.w.S.SXp.3.H 8.D . o o = D D I v @ . . 5 K I H 6 i v j j j j i i i i i v v M M M M N m m b i v i i i 6 6 i i i v M i i m M M v v i j j j j j i i v i j i j i i i i i j j j i i i i 6 6 6 6 6 6 6 4 i j v j j i i i i i 6 5 5 6 v K = @ # 2 D v m o . o . v V K 4.d.y.b b b v v U 9 . 5 2 M K 3.3.B 9                                                                                                                                                                                                                                                   ",
"                                                                                                                                                                                                                                                                                                                                                                    @ m 6 2 O . + 4 i D o o o + N M o.= = = 1 o . . . . . . o v 6 2 i i i m B D M M v h.p.9 M.p.w h.h.B M b n M M v v v.6 v v v v v 6 U I B.Y B 6 6 4 o X X # V b w b L C P M.Q X 3 V Z e.h.BXiXS.Q.dXY.A.E.Y.Y.Y.z.A.E.I.I.Y.I.A.I.I.I.I.I.S.dXDXmXbXxXiXT.a.4.L n # X n L Q L P Q Q Y Q Q Q ( Q P ( 4.w.E.zXQ 4.4./ 3.Y i.S.SXp.3.D L H o * 4 v T D 5 . # . . # X 3.8.U I o.3.3.>.>.T I Y 3.3.7.7.7.7.7.7.7.7.6.3.I >.o.o.U K K I I U U 3.3.6.Y D 3.7.o.Y Y >.>.>.>.3.3.Y U >.B 3.3.T K I T >.>.o.o.Y o.o.o.o.Y Y o.o.o.o.o.o.o.o.o.o.Y o.o.o.I K K 3.K o o o o @ + b I 6 = . . 6 b K 8.M.7.j v v j j U b 3 @ 2 B M K Q 4.Y                                                                                                                                                                                                                                                   ",
"                                                                                                                                                                                                                                                                                                                                                                    # v i 5 o o o 4 i M o X o @ v M 3.1 = = ; . . . . . . . X v 4 2 i j i m B D M M v 3.3.9 B.a.v h.m.M v b M M v K 3.h.>.9 v j 9 v 6 U Q Z.>.H 6 6 5 o X o X Z n v V V n P h.W . V U V 5.p.cXsXlXE.I.I.I.E.Y.I.S.T.I.I.T.Y.W.S.U.sXiXE.E.S.kXbXDXlXsXfXS.j.j.e.P b X X 6 B P P P W Q Y Q Q Q / / Q / 4.p.dXlXQ 5.5.>.>.Y p.Z.DXp.7.o.Y H o # j B V.M o . o = X @ o M B f.D I r.Y Y Y U Y >.6.6.6.7.7.7.6.3.>.6.6.o.I T Y Y U K H I I M B U r.6.o.D K 3.Y I Y Y o.3.3.6.3.K I >.N >.3.o.I B D I o.T U o.K m I I K K K H D I D B N N M M H D D B N v i R i . O . o o @ 6 I v > . . > 5 B s.H.3.6 v v 9 i I Z v # 2 B D H V Q Y #                                                                                                                                                                                                                                                 ",
"                                                                                                                                                                                                                                                                                                                                                                    > 5 6 j = o . = 4 i o # o @ v B 3.2 1 = ; . . . . . . . X v 4 2 i j v v B D M M M v B j M.a.v h.h.b B B n v v I y.B.h.b v v 9 v 6 U 3.J.3.I 6 6 6 o . # X K B b b V n P a.L X Z L n L ( C.xXVXI.Y.Y.E.E.E.I.M.I.Y.D.Y.U.W.Y.I.dXaXiXiXE.SXFXlXe.4.q.e.k.p.0.V b X . 2 9 P Q W W Y Q / / Q / / / / 4.w.E.fXQ 4.7.5.4.Y 0.U.KXh.7.7.>.H # O v H H.M . o i H = @ o . i v.N B R M i i i m D D D D D S D N m m N N N M M m m M k j j v i j m D M N M m D z i K D m N N N M j v v i m m m v i v j M m m m i m m m m m v i i m v i i i u i M i i i i 6 4 N = . o + = @ @ o 2 B 6 o o X = B v.J.3.v v v v b K V M % 2 B B B M L U v                                                                                                                                                                                                                                                 ",
"                                                                                                                                                                                                                                                                                                                                                                      @ 2 v 2 # . + 4 i o o o @ v B 3.2 4 = = . . . . . . . o v 5 2 i m i v M D M M M v v v h.a.v h.h.9 m.L v v w 0.B.M.M.m.6 v v v 6 U 3.J.7.U j 6 6 o o # X K B b w w n L w.V X H L b L ! q.vXbXI.dXdXsXdXT.I.iXY.Y.D.E.S.j.aXiXA.sXsXsXKXnXiXe.e.e.e.e.q.0.5.V b X . X > L Q P w Z Q 4./ / / / / / 4.q.S.dXQ 4.4.8.4.7.i.D.GXd.s.8.3.K o O v D H.M o . 5 i 6 2 . o i f.M 4 4 5 u u 4 i m m M M M M N m m x x p m m m u i i j m i 7 i v m m M m m z i 4 m i i i i i i u 4 u i i p 6 u i i u i v i i i m i a i i i u u u 4 i i i i u i 4 7 7 6 u u i N = . . 6 M i o # o o.v o o # > B h.J.3.v v v v v b K U @ 2 M v v B B V >.3                                                                                                                                                                                                                                               ",
"                                                                                                                                                                                                                                                                                                                                                                      @ 2 v 4 O o o * 4 o o o o v H 7.4 > = = o . . . . . . O 4 4 4 i v i v M D M M M v b j m.p.v h.h.w M.5.Z w b 0.N.B.Z.B.P v v v M Q 3.J.7.L 6 4 4 @ o # . K B b 6 b b V 4.B . V P V Z L / S.iXbXiXE.Y.Y.Y.S.I.I.Y.I.D.T.W.A.I.iXsXbXSXmXsXl.e.e.e.e.q.! P j.4.v # X X # Z L P C A A Q 4.4.4.3.W / 4.0.S.dXP Q 4.3.4.0.w.J.BXw.p.0.7.K o # 6 B H.L i o o @ 2 = . o i f.B 4 u i i i i i i i j m m m m m x p p x x m x i i i i i i i p x z m M D B m k i j v m m i i i i i i i i i i i i i i i p x x x i u i i i i i u u i i u u u u u u u u u u u u M 4 O o i N 6 o @ 2 o.j # o o = v d.H.4.B v v v v v K U @ @ v j v m M B K =                                                                                                                                                                                                                                               ",
"                                                                                                                                                                                                                                                                                                                                                                        5 v 4 = + o + 1 + o o + B I y.6 > : = o . . . . . . O 4 5 7 i M 6 j M B M M M v b j m.i.v a.j.9 h.d.4.b w q.Z.( M.B.m.v v b b Q 3.J.4.I u 5 4 @ o # o I V b 6 w b V 4.B . V P B Z A W 4.z.DXE.A.I.S.U.T.C.Y.dXaXA.C.I.T.W.gXdXGXKXQ.j.0.e.p.a.p.h.a.d.U.a.b # . . X b L P L L A Q / 4.4.3.L W / 0.A.U.L Q 5.3.3.0.0.K.BXp.0.5.3.K . # 6 B F.6.K @ # o o # o = D y.N i i M m v m m i i j m m x m x x x x x x x x i i i i i p x x x z z m I i B M i j m M m i i i i j v v i i i i i i i i x p p x i u i i i a u u i i i i i u u u u i u u u u u v i 4 o # . o . 2 B Y z # X . O 2 a.h.3.3.b v v v v K U @ @ v v v m M B K = $                                                                                                                                                                                                                                             ",
"                                                                                                                                                                                                                                                                                                                                                                          6 6 5 = o o + o o = 5 @ v y.2 > = + . . . . . o . + M u u i i i 6 6 v M M M M v v K i.6 h.h.w p.l.i.L V 0.S.V 0.M.J.7.n b M Y 4.j.>.K 7 5 1 @ o o o L B w v 9 w K 4.B . L L b Z n V W j.bXS.I.Y.E.A.C.iXiXI.D.S.E.S.I.sXGXKXnXM.w.0.0.a.a.h.jXY 8.i.4.K 6 X . . . $ V K W P P W / / / / Q Q / q.D.aXl.Q 3.4.4.0.0.K.BXS.l.6.3.K . o 6 v x.6.3.I M . = . 4 s.d.N u i j m m m j i i p m m m m m m x x x x x p i i i i x z z z x M M z v N M i i p i i i i i M M i i i i i i i i i i i i i i z i i i p u i i i i i i i i i u u 6 4 7 u u u u i 5 u D i + O o M 6.6.i 4 # o . . > s.a.5.8.b b v v v K U o # j v v 6 6 v B o 3                                                                                                                                                                                                                                             ",
"                                                                                                                                                                                                                                                                                                                                                                          2 v 6 4 @ o o o o > m = 2 B = = + o . . . . . o . + M i i i i i v v b M M M M M M M 3.5 d.a.9 Y w.a.h.V q.S.Z Y a.J.8.n b M U Y a.>.B 4 4 1 @ o o + I B 6 b n w K 4.n . L L n L V C A 0.S.sXiXI.U.I.I.iXI.I.I.E.iXI.gXbXHXvXU.p.0.0.w.a.a.8.y.b i 6 6 2 = X . . . # b V W W P P Q / / / Q Q 4.4.h.I.C.P 3.4.5.0.w.K.mXiXZ.8.9.K . . 2 M f.6.3.m B N N D 7.3.>.m i m M M N M i i j k m m m m m m x x x x x i i i i i i i x x x M M m m z z i i j i i i i i m m 4 i i i i i i j i i i i i i z i m N i i i i i i i 7 i i i i u i i i i i i u i i i N B D D D Y D U i 4 * o . . @ s.v.p.8.M b v v v H L o @ i v v j j b B v 9                                                                                                                                                                                                                                             ",
"                                                                                                                                                                                                                                                                                                                                                                          = i 7 4 = o . . o 6 B 6 o . . . + o . . . . o = . + M i i 4 i i v M m M M M M b M M v v h.h.b 9 Y h.N.V 0.Z.Z B Y H.8.B b M U U v.I B i 4 4 @ o . + K b 5 n V b Z 4.n . Z L n L V V V 4.4.kXbXJ.T.iXiXiXS.I.aXY.Y.Y.vXDXKXJ.a.5.( 0.0.s.a.K o = o o $ o X . . . X X b V P L P W Q / / / Q Q 4.q.4.l.l.P 4.5.5.8.8.H.vXU.S.i.y.U o o @ > o.y.3.5 D K 3.6.m.o.M B B j v v m m z m m v v v v i i i i i i i i i i i i i i i i i i z v M i i i i i i i j i i i m v i i i i i i i i i i 4 i i i i x m N p i i u i i i 6 6 i i i u 4 i i i i i 4 6 4 i m D o.3.3.6.K v B v * o . . X i.N.N.d.b v b v v H U o @ 2 5 i M M B H H v                                                                                                                                                                                                                                             ",
"                                                                                                                                                                                                                                                                                                                                                                          @ i 6 i = o . . O = 2 3.d.:XM v i 5 . . . . & 4 = + N v v = i i m M i M M M M M M M v v d.d.w v B 4.C.Z a.Z.Z B >.H.8.B b b U I m.I D i i 2 O o . X K v 3 b b b V 4.B . Z L b L Z V V L L C.U.kXS.J.W.C.sXY.S.Y.cXDXPXGXq.e.q.5.5.4.5.a.o + & : = v B b 6 . . X X X b V L C W Q Q / / / / / / Q ( J.U.4.4.Y Q 3.5.B.xXfXU.i.i.>.o # 2 6 U i.6.2 5 v 3.B M m m D D ; o . . . . . . . o o . . . . . o o . . . . o . . o o . . o o . + i i i i i i i i z z z m m m m m j i i i i i i = . o o o + + o o o o o . . . . . o o o o o o o o o o o o o . o 5 4 4 6 i v v D M : o . . X U 4.G.m.v 9 v v 9 B Y = # @ 6 v 5 v H H B b                                                                                                                                                                                                                                             ",
"                                                                                                                                                                                                                                                                                                                                                                            i i i = o o O = 4 6 D o.s.6 u 4 = . . . o + ; * + M v v = i i v M i j m M M M M M M v d.s.w b B T m.B 0.Z.n B Y H.0.B b v U Y m.I H i 6 4 # o . . K m 3 n n v V 4.B . Z L n L V V V L W 0.sXbXA.Z.U.I.J.S.I.mXDXKXnXlXj.a.5.5.4.a.7.b X * t u = 1 BXE.0.L 0 X . X v V L C W ! Q / / Q ! / Q Q 4.lXW./ 4.4.4.3.3.B.lXxXJ.8.i.>.i @ O 5 K s.r.= 5 m D D N N N D D ; v N.i.s.s.s.s.i.s.s.d.d.d.x.d.d.d.d.d.s.d.d.d.s.s.s.d.x.d.d.d.@ i i i i i i i i v m m m m m v v j i i i i v v + f.N.s.s.s.s.s.r.r.7.7.7.7.6.6.6.7.7.7.6.6.6.7.7.7.6.6.3.3.I + j 4 i i 6 i i D D : o . X . K Q U.B.6 5 6 6 9 M I 6 @ # 5 v M j 2 m B v                                                                                                                                                                                                                                             ",
"                                                                                                                                                                                                                                                                                                                                                                            + 5 j 2 = o = 5 2 4 v B 3.2 > = = o . . * : ; = + D M v > 6 v v v 4 j M M m M M B M v 8.7.B M v M K B 8.B.M M Y K.0.B M v U U m.U H i 4 2 # . . o H v 3 B B b C / n . V L n B V V C V A / C.xXfXY.J.Y.A.S.aXDXKXKXlXA.h.p.p.5./ M.8.. @ 4 a i i = KXgXl.4.Z # . . w n K L W Q ! / / Q Q Q / Q Q xXiXQ Q 5.5.4.4.m.I.nXaXy.8.3.H = o 5 K h.r.= i i D D N m S m M j H hXK.H.H.H.H.J.J.K.K.K.K.K.K.K.K.J.H.F.H.K.K.K.K.K.K.K. X:X:X2 6 i i i 6 4 6 6 i i 5 j v 6 5 4 4 4 5 5 i i m @ Z.pXK.B.B.B.N.N.N.m.m.v.v.m.m.v.v.m.v.v.v.m.m.m.m.m.v.h.s.y.o i i i i i i u I m : + o . . H Y U.G.v 6 9 9 9 j I v 6 . > v v j b v B 3 $                                                                                                                                                                                                                                           ",
"                                                                                                                                                                                                                                                                                                                                                                            X 5 z 2 @ o v 6 2 2 v M 3.5 4 = = o . . : : ; + + D M m 6 4 6 v v 4 j M M m M M M v M B B B B v M M B Y N.M.V Y K.y.B M v Y U m.U D i 4 2 o . . o B v 9 B B B L / n . V K n V V V n V Z Q q.M.BXfXC.T.C.fXIXLXFXI.p.h.a.p.a.i.h.B.Y . o > u k M 2 KXlXS.0.L 3 . X X 6 K P A W ! / / ! ! ! Q Q ( xXaX/ 5.4.4.8.8.p.q.mXaXy.8.4.3.> o 5 I d.r.2 i i D M N m m M M M 6 . r.r.r.0.8.8.8.9.9.9.6.6.d.i.y.y.y.6.0.r.r.i.i.r.r.r.r.Y = o 6 i i O 2 4 4 = = + o 6 b v 2 5 5 5 5 = # 4 j + . Y hX6.6.7.6.6.6.6.6.3.3.3.3.3.3.3.o.o.o.>.>.3.3.3.3.3.B o o i i i i i i u I S ; + o . . V L U.A.B 9 j 9 j 6 U B 6 . @ 5 5 6 v K U I b >                                                                                                                                                                                                                                         ",
"                                                                                                                                                                                                                                                                                                                                                                            2 3 i 2 @ o @ 2 = = v B o.2 ; = = o . . = = = @ @ D v v 6 4 i M i 5 i M M m m B N M N B M B M M M M b n j.M.5.Y J.5.B M n U >.v.U M 6 7 1 o o . . M M M v M n L 3.n X V Z n V L Z B n V W ( q.nXkXkXC.vXBXKXFXaXJ.e.h.p.a.i.d.8.m.m.. = @ 4 v 5 G.iXaXkX0.U j # X X $ Z L L L Q ! / Q Q / Q / Q hXiX/ w.0.4.5.8.w.0.SXgX5./ 3.7.5 o 2 D G.m.i v j D N M m m m m M i @ v v M b b z i m v v i j M v M M M b M B B K B B.f.r.I 6 5 5 v 6 5 v sXpXpXiXpXsXB O # 2 pXJ.H.H.H.K.B = v = = 6 3.r.3.o.6.v i 6 i i 6 6 i i i i 5 5 5 5 5 6 6 6 6 i = = * i i x i i i i J m = = o . . b L aXS.Y v j v v 6 K H 6 . + 2 5 5 5 E B B H #                                                                                                                                                                                                                                         ",
"                                                                                                                                                                                                                                                                                                                                                                              6 6 5 = o = 2 = = v B o.4 = ; = # . . = 1 @ @ O D v v 5 2 i M i 2 7 v v v v B N M B M M M M M M M B L a.l.h.i.J.8.n M B U 3.Z.U M 5 2 = o . . o B M B v v b K Q b . Z L b V L Z Z w Z L / e.bXmXBXJ.VXKXKXmXl.e.5.w.d.p.p.0.8.B.pXi @ > % @ U nXZ.aXkX0.P L 5 . X @ K B L P L / ! Q ! ) ! / Q gXW.Q w.0.0.4.8.w.w.DXkX4.Q Y 3.4 o 5 D G.v.v v j L D i M B m m m 4 : + @ = @ + o o # o + + @ + @ = = = = = 1 2 5 6 H.i.i.i + 2 6 6 6 5 L K.G.C.B.0.4.6 X O o >.a.d.y.y.i.K = + 6 6 o . N.i.o.6.1 @ @ @ @ = = = = = @ # # # X X @ @ = = # O # 4 i i x i i i B S v = = o . . 3 V U.J.4.j j v v 6 K K v . + 2 5 4 5 4 6 V K > w                                                                                                                                                                                                                                       ",
"                                                                                                                                                                                                                                                                                                                                                                                @ 6 5 = = 1 = = v B o.2 = ; = O . . $ 2 = O + M 6 i 7 4 i M i 5 7 z z z v M M M B M M M M M M v L l.l.M.N.N.J.8.B M B U o.d.U M 5 1 + o . . o B M B M v b V Q v . V Z b V V V L w V Z L Q q.sXnXFXKXKXxXz.z.M.M.i.h.y.M.d.i.a.h.aXP X . J.kXp.0.iXbX0.L H @ . X $ Z B L Q P W Q Q W W W / W fXU.Q w.q.0.3.8.w.p.lXS.A.P U Q 5 O 2 D G.f.B M j o.Y u K I m m m i N = 4 B.H.H.G.Z.N.N.N.N.m.v.m.B.B.B.Z.B.B.B.B.N.v.8.y.5 o 6 i > + 8.sXv.d.d.a.6 . b C.w . . G.s.6.r.8.N.m.o 2 5 2 o N.v.,.6.7.i.d.h.m.N.B.B.B.V.m.h.h.h.h.h.x.v.M.v.. 1 5 u i i p m i i u D v ; = o . X X n J.H.J.v v v v v H I K . o 2 5 4 5 6 v v V K B                                                                                                                                                                                                                                       ",
"                                                                                                                                                                                                                                                                                                                                                                                X i i 1 = = = = v B o.2 = = = O . . 2 2 4 @ + M 6 6 6 6 v M b i i z i z v M N M M M M v v M M v Q M.l.Q Z.M.Z.Y n M B U Y v.U M 5 1 + o o o o B M v B b b K 3.v . V Z n Z n V Z n n Z Z Q ( C.xXKXBXlXU.l.l.h.l.i.d.p.i.p.a.a.j.C.0.a.iXU.iXw.0.A.E.sXp.U > . X $ n B L Q Q P W P W W W Q L aXI.Q w.q./ 5.0.p.i.aXU.I.P Y 3.6 @ = B N.s.H N v D o.6.D D m m m m m i i 6 m.G.0.9.6.6.3.3.3.3.3.8.8.8.9.6.Y T U m.m.7.i.6 @ 6 6 o y.Z.i.B M v 8.N.v.8.6 X 6 J.d.i.Y 6 j v.r.8.= 5 2 . H.m.3.9.B v M B K d.i.y.y.i.y.7.7.6.6.3.,.r.4.K . 4 i i i z x m u u u M m i ; * . . . v a.l.H.b v v v v v L Y . o 1 5 i 6 3 9 v M B K M X                                                                                                                                                                                                                                   ",
"                                                                                                                                                                                                                                                                                                                                                                                o M v 2 = = = = v B Y = = = = o . . 2 4 4 = o m 6 4 5 4 z M b i z v i v v M N M M M M b v M M v 3.C.h.n a.C.V v n b M U Y B.U b 4 1 + o o o + M v v B b b Z / j X V K V V C Z A V b Z Z Z Z I.zXFXvXT.iXl.l.h.d.M.4.4.i.p.a.a.a.p.a.J.bXJ.h.0.0.C.C.bXh.W 6 # . 2 6 B L Q Q Q P L W W W W A iXI.Q w.4.5.w.0.0.q.sXaXiXQ U 3.5 @ . N d.i.6.D N v D 6.m i m m m m j m M = y.d.8.7.8.7.3.>.>.3.K H H D D B 6 M b d.B.7.y.6 > 6 5 o 7.d.$ # X # K i.d.a.P $ Y U.7.o.v . @ U 3.B.@ 2 2 . K.H.8.r.H B v 9 6 7.>.U U H 3.7.6.3.6.6.6.9.b 5 o 4 i i x x x i i i u m x M ; = . . . 9 8.C.sXK M b v j j B o.o o 2 6 i 6 6 6 v v K T B 5                                                                                                                                                                                                                                   ",
"                                                                                                                                                                                                                                                                                                                                                                                o M m i 2 = 4 4 v D Y = = o * o . . 5 6 5 = o m 6 5 5 = = v v v m v v v m M N N M M M M M M N v 4.N.l.b U C.b v b M M Y Y s.U M 4 1 @ # o o + M b v 6 v w B Q j X H L V K V Z L Z n V Z L A E.W.j.q.S.nXh.j.Z.C.h.0.0.0.a.a.a.i.a.j.d.d.h.a.p.0.0.l.bXp.P B # . $ 5 b V V P Q W W Q W W P A aXI./ w.w.w.w.0.w.e.aXaXW.Q Y 7.5 = o i 3.m.y.o.N m m m m m m m M m p i z z 1 M d.r.7.3.Y U U Q # # . + @ 2 i.K.K.N.3.8.y.i.Y 5 5 4 @ o X . . . . U d.i.f.Q pX3.Y 5 # . . X = @ 2 2 = . :XH.i.y.v.N.N.N.v.2 O . . . I o.o.o.>.6.o.,.6 o 2 u u p x x a i i i i m m D : : . . . v 5.M.sXV v v j 9 6 D 3.o = 4 4 6 6 j i v v M B B Y 2                                                                                                                                                                                                                                 ",
"                                                                                                                                                                                                                                                                                                                                                                                  = i v 5 = 2 5 v D U = = 1 : o . . 2 6 5 > . v 5 5 5 = 4 6 i b v m v v m M N N M v v M M M N v 4.M.l.Z v Q d.V j b b Y Y m.U v 4 = = # o # o M M v v 9 9 B Q 9 X V K V K B Z A L V w B A L D.A.W L j.mXI.M.j.j.a.a.l.a.0.a.a.y.a.h.d.a.a.a.h.p.w.h.nXA.0.B # . X X v V K L Q W W W W W L A sXU./ w.w.0.w.w.w.q.l.fXSX0.7.6.2 + o 2 T m.N.O.N m m m m m m m N m i m z z i 4 2 1 o . . . . . . U.iXB.Z.H.M.0.Q Q y.y.y.m.y.= 2 6 5 = X . . . . o 2 v.B.i.s.V b o . . . . . . X O 6 sXH.y.i.y.K 3.i.d.N.d.M.m.m.H . . o . o o = . . o 4 u i p x i i i a i i x m I ; : . X . v 5.M.hXK B v i 9 9 V 3.O # # 4 5 6 j i v D B v K L $                                                                                                                                                                                                                                 ",
"                                                                                                                                                                                                                                                                                                                                                                                  # 6 m 5 = 2 5 v D T @ = : * . . . 4 6 4 = @ M i 2 4 5 6 = N B M v 6 v m B N M M M M M M v N v 5.C.M.Z 9 K M.U v B v U o.m.>.D 6 4 = # o . # v v b b 9 0 C Y 6 . H K L K B V Q P v v C L / M.l.w n a.bXkXU.l.M.h.a.v.h.8.a.a.a.a.a.a.a.a.a.a.a.p.h.xXA.M.K 8 X . . 9 n Z L Q Q Q Q Q P P L fXiX4.0.0.0.0.0.q.Q C.lXHXa.0.y.5 O . 2 N d.B.o.M M m m m m m m m m i x x z z i 1 . H r.8.8.0.0.0.h.d.7.7.8.7.U = 2 iXp.0.i.m.H.= # X . . 3.m.v.m.3.= N.G.N.3.H 2 2 6 6 i @ o . . B m.jXB.i.y.y.2 v U 8.3.8.7.7.7.o.>.7.y.i.7.6.o o = o = 4 i p p i u u p S i i i I 4 4 . X X b 8.Z.hXU B v j 9 9 D U @ # . 2 2 6 i i 6 M v v I K 2                                                                                                                                                                                                                                 ",
"                                                                                                                                                                                                                                                                                                                                                                                  # 6 v 5 = > 5 m H T = > * * . . . 4 6 4 > o @ i z 2 5 6 = N B M v 5 v m M N M M M M N M v N v 4.l.M.Z 9 K M.Y v B v U o.m.o.B i 4 = o o . # 5 i M B v v v Z 9 . H K L K b n L Q v v C P 0.z.j.0 w / e.mXfXh.M.h.C.d.h.C.a.a.a.a.a.s.s.a.a.d.d.a.j.E.dXaXL b 6 . . 3 b V L Q Q Q Q Q L P P gXaX4.0.0.5.5.L A Q fXSXKXw.y.r.m = . 6 b s.G.6.N v m m m k M m i m m m x x z v m = m.:Xm.m.v.h.v.i.0.Q B v > . m.h.B.i.y.p.d.v.x.i.s.s.x.N.B.h.C.N.@ N.G.N.3.b 2 a.U.U.K.v.m.m.m.H.pXi.y.y.i.i.i.d.j > 2 U 7.7.7.8.y.s.d.d.x.v.@ 2 4 1 4 6 p i i i i m m i m u 6 I 4 4 . o . i Y h.pXa.Y v v v v D U = # . 2 2 4 i i i 6 v v B B K H                                                                                                                                                                                                                               ",
"                                                                                                                                                                                                                                                                                                                                                                                  # 6 v 6 = 2 2 M H U = = : * . . . 4 i 6 2 o . i v i 6 6 = v D M v 4 j M N N M M v M M M v M v Y h.M.K 9 L M.Y v B v U Y m.o.B 6 4 * o o . o 4 j v v 6 j b P 9 . H K K H b b Z Y V v V Q j.p.e.3 w P / BXfXh.M.h.C.C.N.M.h.a.a.h.a.s.s.p.d.d.d.d.j.l.gXkXP Z b . . > 6 C Z L Q Q ! P L P W gXiX5.w.0.Q Q L Q q.I.kXFX0.r.6.U M . 5 6 i.K.7.m i m k m k B m m m m m x x x z i 4 7.d.y.i.0.4.8.L Y H 2 K L K h.d.Y Y h.d.i.d.m.m.m.m.N.B.7.3.d.p.# N.Z.N.8.L > 3.M.h.d.d.d.d.d.d.i.i.r.i.i.3.d.v.U K D B H M M U >.7.6.3.>.3.+ = 4 4 i u z i i p p D N p m i i X.u 4 o . . 5 K i.U.B.3.b v v v H U j 2 . > 2 4 6 i i i v v v b K B X                                                                                                                                                                                                                             ",
"                                                                                                                                                                                                                                                                                                                                                                                    2 9 v = 4 2 M H Y = = * * o . . 4 i i 4 o . 4 6 M i 4 = v N M 6 i i M M N N M v v M M b M M v 5.M.P w L M.Y b M b U Y m.>.M 5 4 = o o . o 2 v i 6 i v V Q 9 . H Z B B n b V P U v V Q w.0.e.3 w V W BXkXE.M.j.l.H.Z.h.Z.N.i.B.d.a.a.d.a.d.a.a.j.i.sXkXw.V b X . . @ n n B Q Q Q A L W W kXfX0.a.w.L w / 0.j.w.S.xX4.0.6.6.U . o 5 8.H.s.m m p p k k m m D m p m x x x z i i = @ i.v.a.0.4.o # 6 v iX:XG.8.U v B K.m.i.y.i.>.3.9.4.4.6.3.d.i.@ K.m.m.i.0.2 3.7.3.3.6.3.>.>.>.8.7.8.y.>.> U a.M.B.B.6 2 @ . 3.8.7.7.U o o + 4 i u i i z i p p k k I D u u p o.p 4 = . . = H v.U.J.4.v 6 v v B I K v . o 2 5 2 4 u 6 6 6 v 6 B M 3                                                                                                                                                                                                                             ",
"                                                                                                                                                                                                                                                                                                                                                                                      @ 9 = 4 2 M K Y = = = = o . . 4 i 4 = o o 4 6 M i 4 4 v i v 5 i M v m M N M v M N N N v v j Z B.M.8.K M.Y b M v U Y m.>.M 5 4 = o o . o o 6 v v v b H >.9 . V Z B B B b V B n 6 b L / 0.e.3 w Z V BXiXS.j.C.I.C.J.J.M.H.H.d.a.a.i.h.m.d.d.d.d.i.aXlXU.Y b X . X @ B n n L Y P / Q Q P S.J.w.5.Z Z Q 8.e.5.5.I.kX5.y.7.o.U . 2 6 7.G.K.M v k p k k u m i 4 p x x x z z i i 6 4 5 > 2 @ @ . a.sXU.h.8.>.K 6 B sXa.3.9 U y.3.6.7.9.8.>.y.M 5 2 kXd.i.d.d.B 2 7.v.o.6.o.T Y 7.Y i s.7.8.s.v K y.i.i.v.N.m.@ > 2 2 > @ . @ 4 i i i i i z i i i j i i v i u p o.p u 4 . . . 2 h.Z.sX0.9 6 v v M v U v # . = 2 > = 5 6 6 5 v j B V L #                                                                                                                                                                                                                           ",
"                                                                                                                                                                                                                                                                                                                                                                                      = 6 6 4 = v H Y = = : * o . . 4 4 6 2 o o = 4 D 4 4 i i v v 6 v v v i M m m v v M N v v v v B i.m.p.w.C.3.M M v T U v.o.M 4 = * # o o . . 2 6 B w 9 M 3.j . V B B b v V V K M 3 v K / w.w.w w L P iXU.nXM.N.A.K.K.B.Z.B.C.a.w.a.a.d.d.d.d.d.a.a.J.iXvXQ V . X . 2 B b n Z L P P W W W a.N.p.3.Q Q 3.5.4.e./ aXnXh.h.8.>.I o 2 i 6.v.pXm i m k p i i i j N i x x x x i i i i 6 2 o # L v.y.i.i.y.i.i.M 6 Y m.d.8.v H M.a.>.3.G.h.b h.M.B @ v sXd.y.0.y.3.2 3.G.3.I >.f.N Y 8.U K 8.0.7.7.B M y.a.y.s.8.3.>.U . . . o = 4 i i i i v m i i i j i u i i i p O.I N = . o o 5 8.m.kX0.n v j v v v Y b o . = 2 4 4 2 7 6 5 6 j v M V O                                                                                                                                                                                                                           ",
"                                                                                                                                                                                                                                                                                                                                                                                      @ 6 6 5 = v B U = * : = o . . 2 4 6 2 o o o 2 D j i i i i v i v v v i M m m v v M M N v v v v v m.M.l.M.3.M M v T K d.U j = + o + o o o . 2 i D 6 6 M 3.j . V B n b b V V K B 3 v B 4.w.4.w w K L 0.C.BXI.N.M.Z.J.C.C.N.h.4.i.a.a.p.a.a.a.d.a.a.p.C.bX0.Z b . . O b n B V Z P W W W W 0.0.4.4.0.4./ Q Q e.( U.BXM.Z.7.3.I # @ 5 I d.sXD m m k i i i i m D p z z x x i i i i v i @ = 3.K.B.y.6.y.Y 3.> K d.N.0.3.= 3.K.i.B 3.jXB.2 B.h.D 2 hXN.a.0.0.8.d.v T m.8.K 3.v.> K i.i.6 3.d.3.i.8.i H 8.y.i.8.i.d.i.. o o = 1 4 i i i i m m i i i j u i i i i i K I N = @ o o 2 U 3.lX0.B B 9 v v v U b o X @ 2 4 4 4 2 7 5 6 6 i b B o                                                                                                                                                                                                                           ",
"                                                                                                                                                                                                                                                                                                                                                                                        2 6 4 O M v Y = * * * o . . 4 5 5 = o o o = B v m i i i M i v v v j v m m v M M M M v v v b b l.l.M.M.o.m M j I U i.T i @ o o o o o . X = i M v 9 b Q 9 . M B n n b b K H b 9 v K 0.4.4.b w B Z / M.BXlXE.h.p.J.gXZ.m.h.3.0.a.d.a.a.d.d.a.a.a.p.N.kXM.Q / o . . # V Z L P Z Q Q W Q V 3 a.C.p.5.0.p.p.4./ S.SXU.K.7.8.3.o = O B y.hXD i m k i i i i x i 4 p x p p i i m m m v i = + @ i.6.Y 8.M 2 2 U.h.i.3.6 I i.y.>.v x.K.N.d.y.Y 6 M pX7.7.8.8.y.y.i o B m.y.3.7.K + 7.i.3.v U d.i.i.3.X H 7.7.8.6.i = o o + 4 5 i i i i i i i i i N N p i i i i i m D M 4 = o o 4 H U gX8.V b 9 v v 6 L 6 2 X @ = 4 5 4 4 6 5 5 5 j v b #                                                                                                                                                                                                                           ",
"                                                                                                                                                                                                                                                                                                                                                                                        @ 2 4 O j i 6 = * = 2 o . . 6 i 5 = o o o o 5 v B i i i M m v 5 6 v v v v v M M M M m v v b M L 0.C.h.Y m M j T U i.I i O o o . 2 m j O # 2 b v 9 v H 3 . B V n n B b n K b 9 v K 0./ Q w v B Z / m.nXgXE.l.M.A.J.vXJ.h.8.m.B.d.v.l.d.a.a.a.a.d.C.sXU.Q 3.# . . X Z Z L P V Q Q / 4.n 9 6 V h.0.a.p.4.P 4.I.SXW.U.8.8.7.o = # i r.jXD m m j p i i i i i i i x x i i i m m m M v 4 2 @ i D i i 2 >.pXi.a.8.B $ H.m.7.+ 7.B.i.v.d.y.5 # M sX7.8.8.8.3.8.i.H M F.7.3.7.7.5 d.a.7.D B v.i.i.6.i.2 v M D B @ O # = 4 5 4 z z i i i i i u M m M M S N m i i i H N 4 @ o o 5 V Q hX8.L L 9 v v 6 H 6 6 X @ = 4 5 5 5 5 6 5 2 6 v b #                                                                                                                                                                                                                           ",
"                                                                                                                                                                                                                                                                                                                                                                                        # = 5 @ v i o = O 2 2 o . . z i 5 = o o o . . v v i i j B K v 5 5 6 v v j v M M M M m v M b v v 7.v.B I m M i I U y.K 6 + o + = v B M @ # # 9 v b v v > . B V b b b n n V B 9 b L 0./ L 9 b B K Q a.gXBXvXA.C.M.M.jXZ.C.M.J.U.m.m.m.h.d.p.a.a.h.d.C.gX4.4.% X . X V K L L V Q / 5.8.b b . 9 j.a.j.5.4.4.( j.bXE.:X8.8.3.o @ @ i 7.pXH D N j p i p p i i m i p m i i v m m m N i i 4 = @ @ > . I y.d.7.7.7.2 j Z.i.Y @ v.m.v 8.7.s.= 3.i.sX7.8.8.8.7.7.v.K 6 i.y.3.B 8.>.M 6.s.3.D 5 i.i.6.d.j > 1 = @ o @ 2 u i 7 u z i i i i i i i i N M B N N S m i 4 I D 4 o . . 5 B U U.a.a.b v v v 6 B 9 M . @ = 4 5 u 6 4 6 i 5 6 v v #                                                                                                                                                                                                                           ",
"                                                                                                                                                                                                                                                                                                                                                                                        # > 2 5 v p o # o o o o . . 6 i i 4 * o o . . 6 i i i v D o.i 6 6 5 v 6 i v v M M M M v M M j v K 3.N m m m i Y Y B M ; O # > I D H B i = @ X v B v 6 > . D B b b b n n b V w C Q p.Q b 9 n b V V 0.l.DXVXaXI.M.M.M.N.J.J.S.J.fXm.d.h.d.w.d.h.d.y.h.xXM.8.% @ . . B L Z Z Z Q 5.a.p.b C X $ 8.j.j.8.w.5.5.j.vXS.U.8.8.o.o # = N r.hXo.T D m i i p p i i p p p i m m m m m m z z z i 4 2 @ . . m.m.r.7.6.Y @ Y pX7.Y @ d.d.o + D i.2 B.pX>.8.8.8.8.8.7.y.D > 2 m.Y = d.f.o 3.B.d.I @ 8.6.7.I d.6 . = @ = 4 5 u x p 7 i i i u u i p i i i x x p p x x x i o.I D o . . > v Q D.h.d.b v v j 9 v 6 v . o @ 5 4 4 i 6 2 2 v 6 v v #                                                                                                                                                                                                                           ",
"                                                                                                                                                                                                                                                                                                                                                                                          > 4 i z p o o # o o . . . 6 i M 4 @ + o . . = 5 M i 5 K o.. > 6 7 M i i v m M M M m v M m j v m i B v v v v 8.i.K j * # # > I D H B M O o . 5 6 6 9 % . C B C B V w b b V b V Q p.Q b 3 b b 9 H 4.q.FXBXS.C.h.j.Z.fXgXZ.fXaXC.d.a.a.a.d.d.N.h.d.M.vXiX3.v 9 . X @ L V L A Q 0.h.h.V Z . X 8 M.B.0.0.0.q.0.vXU.:X8.8.o.o o @ 4 o.L.s.o.D M j i p p p x p p x m m i m m m x z z v m i i m 6 o v 6 5 y.>.= f.H.8.3.U o 6 i . . = 2 . B. X9.8.8.8.8.8.7.7.8.7.. 5 = o 5 > o 3.d.3.Y D . h.3.B v . o # 2 u u i i i 4 u i i i M M p x x i a x x p p x x i i M D D o . . . j 3.d.M.m.b v v j j 6 M M X o @ 5 = 2 4 4 6 6 i 3 v v #                                                                                                                                                                                                                           ",
"                                                                                                                                                                                                                                                                                                                                                                                            4 m i i o o o o o . . . 4 i D i & O o . . o = I j 4 N K . = 6 7 M i i v N M M M M i v j j j j j M M v v N s.d.v i O o > j I D M N D 2 > . 2 5 6 9 % . C B V b b B 9 v V b K Q p.Q 9 2 b b v H Q Q bXBXnXS.l.C.C.J.W.lXaXA.a.a.a.a.d.d.d.N.d.a.m.fXgXw.L b . X . v C P W P 5.p.h.Z L . X 3 Y 5.p.5.0.0./ fXgXgXw.6.3.N o . 4 I m.K.i.j D M i i z p p x x x p p m N N p x x z z z i i j 5 4 2 O # 6 v o y.m.3.D 4 O = = = O X . O F.:Xi.r.8.r.8.7.9.9.7.>.o o o O = > = + 4 Y o.U @ M 6 o . o 2 4 u i i i i i i i p p p m m x p N S m p i i x u u i u i K D o . . . 6 Y 3.U.aXB b m j j 6 B V . . o = 2 2 4 5 5 6 5 5 9 v $                                                                                                                                                                                                                           ",
"                                                                                                                                                                                                                                                                                                                                                                                            4 m i = + + o o o . . . 4 i D i & + o . . . @ B 6 4 i D . = 6 i M i i v N N N M M j i v k j j j M m v B B 0.d.6 5 o . D T T M 4 M D v 6 . . 5 5 6 % . B B B b v V v v B v V W p.Q v 2 b b v H Q Q M.bXDXY.C.l.j.J.J.DXU.a.a.a.a.d.d.d.d.a.d.a.h.Z.bXS.4.b . X . v C P W W 4.0.p.Z L . # 9 6 Z M.5.q.0.4.U.gXDX8.y.8.o.O O 5 B >.K.f.i B N i p p p p x x m p p x x x x x x x m m m j i i i 6 5 O o . . Y y.Y i o @ * = = 2 = . O N. Xy.r.8.r.8.8.7.9.7.>.o . o 2 5 4 5 o o B K D . . O + + @ 2 4 i z z z i i i i p p p x m p p S o.D B m p p i u 7 4 5 K D # o . . 6 K K J.aXB b b v j 6 B V . . . # > 2 2 5 4 5 j 6 9 v $                                                                                                                                                                                                                           ",
"                                                                                                                                                                                                                                                                                                                                                                                            5 D 1 * + * o o . . . . 4 4 Y v & + o . . . X > 6 4 5 M . = 5 i M i i M M M M M M i j v m v j j m v v N b 8.i.4 5 . @ B 3.Y M v M K m 5 o . > j v 2 . H M 3 M b B C v V n B Q / P V 2 B V b V P L z.nXGXsXM.z.C.S.C.C.j.a.a.a.d.Z.m.a.d.i.d.d.0.0.lXU.p.V . . X 8 V Q P P 4.w.w.V L . . @ X V h.5.0.0.8.a.sXDX3.8.8.3.= + 2 B I :Xx.i D m x m m m m m m m m p p p p p x m m m m m m m j j v 5 2 5 O . . o o o = i i i i 7 2 # . v 6.G.7.8.8.8.7.7.i.U 6 X o = 5 u i u 4 1 o . . . . 4 4 4 4 i i i z z z i i p p p i i i p i i p m R >.m x x i i i 5 4 K D @ # o . 2 v K J.sXb M v M v j H K . . . @ = 2 2 5 4 5 5 9 M b >                                                                                                                                                                                                                           ",
"                                                                                                                                                                                                                                                                                                                                                                                            5 i 1 * o * o o . . . . 5 5 H v & + o . . . . o j i 5 6 . = 4 i M i i M M N M M M M v m m m v j v v v Y T Y 3.@ X o H K I M M K M M I D 2 o @ 5 b 4 . B b 2 B B V V b Z B V Q Q Q K 3 b B M b B L L iXGXdXsXU.Z.S.A.m.j.C.i.h.a.h.d.a.s.d.d.d.d.0.iXW.p.Y % # X # b K P P Q 4.w.P V . . # . V l.0.p.p.0.0.aXSXi.8.8.>.i @ + m K pXN.N z m m m m m M M M m m x p p p p x m m m m m m m v v m u 4 4 4 2 4 2 2 > 5 i v v v 6 7 > N.v K L.7.7.7.8.8.8.8.H v d.i > u u i u 6 5 = = = = = i i i i z i i i i i i i i i p p i i i i i i i m D i x x i i i 5 2 R D 1 @ # . @ 5 K J.sXM M v m M v H K o . . . @ = 2 4 4 5 5 5 v b $                                                                                                                                                                                                                           ",
"                                                                                                                                                                                                                                                                                                                                                                                            > = : * * * o . . . . . 5 5 N v * o o . . . . . 7 v 6 4 . = 5 j N i i M M N B N N D v m m m m j v v v 7.s.K B = o @ Y Y H 6 H Y v B Y B v o . > M 4 . M w $ b V B V b K B V Q Q Y b v v b M b C L W I.SXY.nXaXZ.A.C.j.M.sXp.d.h.h.d.d.s.d.s.s.s.i.U.iXl./ 3 $ X X 9 n P W L P w.a.q.. . @ . K J.h.p.p.p.w.sXSXh.0.8.3.6.= o i N pXV.m i m m D D D N N M m m m i i i p x m m m m m m m m m M i i 4 i 6 5 5 4 4 6 i v v v j 5 6 U.Y 6 d.d.y.8.8.8.8.Y > K B.B ; a i i i 4 6 5 4 6 7 6 M M m m i i i i i i i i i i i i i i i i i i i i p m x i i i i 5 4 D B 6 2 O . o O P J.iXM M v v M v B K o X . . . O = 2 2 5 5 4 j M #                                                                                                                                                                                                                           ",
"                                                                                                                                                                                                                                                                                                                                                                                              + * * * O o . . . . . 5 4 6 i O o o . . . o . 1 i i o o = 5 v M i i N M M M N D M v m v v v i v M v 7.m.v 2 o v K >.K v L I B H >.H B I @ o 2 v 2 . B v 2 B K H V b L B V 3.P K B 9 M K K b C L Z C.kXSXBXS.C.C.C.M.e.i.aXm.d.d.d.d.s.s.d.d.d.a.i.U.kX4.C 3 X X 6 b P Q P A 3.iXmX3 . . X V J.h.4.e.a.q.kXBXM.a.y.6.3.= o 6 M :Xx.m x m m N S D N N N m m m i i i p m D N m m m m k k m m m i i i i i i u i i i v i 2 5 . K.v.h.D 5 pXs.8.8.0.8.2 i.m.>.8.K @ @ O 5 5 i i i i i v m m i i p p x i i i i i i i i i i i i i i i i p x m m m i i u 5 4 4 i H 4 > o o X / J.W.Z v v v v v v M 5 @ . . o * O 2 2 5 5 4 6 j #                                                                                                                                                                                                                           ",
"                                                                                                                                                                                                                                                                                                                                                                                              o o o @ O o . . . . . 5 7 p v : # o . . o = o @ 4 u o o = 6 M v i i N M v M M N M v v m m m i v M v >.v.i @ X M T U H 6 L B H 3.I v K I 5 2 + = @ . B b v v v B K V V B V 3.Y Y V 9 b V K b C C V M.S.GXVXS.C.C.C.h.a.j.J.B.M.d.h.d.d.s.d.d.d.d.a.iXkX0.Q 3 X X # 3 L P L V Z M.I.iX3.X Y 0.m.0.0.0.0.5.vXmXJ.B.y.8.8.= o 5 M K.x.M x m x m m N D S N N N M m i i p S N m i m m M m m m m m i i i i i i i i 4 4 4 5 i 1 7.V.y.d.H = sXm.8.8.8.7.> K d.3.a.7.O 6 i = = i i i i b B M m v i i a i i i i i i i i i i i i i i p p p p p i i i i i 5 4 4 u i B 4 = o o % 5.Z.W.Y B i v v v v v b = . o o = O 2 2 5 5 5 5 6 @ #                                                                                                                                                                                                                         ",
"                                                                                                                                                                                                                                                                                                                                                                                              # o o . . . . . . . . 6 6 M i * o o . . = = o o = 4 > o 2 6 v v 6 6 M M m M N N M m M M M M j v v v 3.y.= . = K >.H H H B K 7.Y B M B I U 2 . o o . M B B 9 . V L B B b V 0.3.Y v 3 j b B v b C C j.C.SXnXI.C.C.h.a.h.M.a.Z.U.d.v.d.d.d.d.x.d.d.a.U.lX8.3.9 $ X X 8 V L V n Z L p.bXM.. Z.M.5.0.0.0.0.q.vXnXU.M.y.8.8.@ o = p H.v.N i m x m N D D D N N S M x m m M M m m m x x m m m m m m i m i i i i i i u u o v I 6 jXm.8.3.j U F.s.8.7.8.i.Y i Y 3.i.0.v m.r.= @ z i i z M M m m m m m p i i i i i i p u i i i i i p p M M M x x i i i i i 1 4 4 j o.; = o o @ a.J.:X3.H v j j v v v B 1 . o o o = = 4 5 5 5 5 5 @ O                                                                                                                                                                                                                         ",
"                                                                                                                                                                                                                                                                                                                                                                                              @ . . . . . . . . . X 6 6 M i * + o . . = = o o o = H = 5 5 v v 6 6 M M m M N N M m M M M M v v v v >.y.= o Y 4.3.v H 3.M >.6.K o.>.K I U 5 # + o . M M B 9 X # b B B b V 0.4.Y v 2 v b B j b B C q.0.vXxXbXiXj.j.Z.h.h.J.h.h.H.h.a.a.d.d.d.d.d.a.U.sXd.0.w 6 X X 2 V K n b C A 0.vXW.I.w./ 0.0.0.0.i.0.bXnXbXB.0.8.8.@ o > i d.f.m.N m m i K o.M N N N N N m m x x x i m N x m x m m m m m m m p i i i i i u u # f.:XG.7.7.s.j I K.s.B 7.7.2 H.m.M o x.8.7.B.7.U 2 @ M m m m k k m m m i i i i i i i i i x m p p i i i p p p p p x x z i i i i 6 7 6 j Y 4 = o o @ p.H.K.i.Y j j j v v v B 1 . o o # o = = = = 2 2 2 o o $                                                                                                                                                                                                                       ",
"                                                                                                                                                                                                                                                                                                                                                                                                j 6 2 O o . . . o # i i D i * o o . . 1 7 = o + = M 5 2 6 v v 6 i v m v M M N M m i M M M i i i v B Y $ @ s.Y >.3.Y K >.>.Y >.3.M v D D 6 2 o . X M V Q 9 X # v B B n C / 4.P b 9 9 b B B n b n L ! sXlXSXI.C.C.M.Z.C.h.H.U.H.m.a.a.a.a.d.m.h.a.h.J.sXU.B b . . 2 n K Z B n L q.J.0.W 5.5.0.0.0.0.w.j.sXiXBXsXa.0.8.@ . = i o.y.V.M D M o.6.>.Y o.D D N m m m m m p p B D p x i i x m m x m m p i i i i i u u # M L y.7.3.B 6 m.x.D d.pXi.8.>.v.0.b i 3.8.r.M B @ = M i x x x p m m m i i m i a a i p i x x i G i i i i i i i i i i z i m m m v 7 4 M o.4 O o o O d.0.i.K.8.v v 6 v v v D 1 . . o @ o = O * * = = O . @ 4 $                                                                                                                                                                                                                     ",
"                                                                                                                                                                                                                                                                                                                                                                                                2 i 5 @ O . . . # # i i I i + o o . . 1 i = # o @ v 6 6 i v v 6 i v v 6 M D M v m i M M M i i j w v v # # i.6.U 8.U Y 6.I T r.>.M M M D B v X X X M Z P 9 # X V B v b v Q 4.L w 9 9 b n B B v n A A C.fXSXJ.S.D.a.M.M.h.H.iXN.m.d.a.a.a.d.d.a.h.a.C.vXK.V b . . X 9 K K C b V 5.N./ 3 0.0.0.0.0.0.a.j.J.A.SXaX8.5.8.@ X X 6 B i.N.D B M Y >.o.I D D B M m m m m m x m N N m x z v p m m x m m p i i i i u i i + i B 3.>.r.o B B.d.v r.K.s.x.j v.i.B X 4.d.H 2 3 o = M i p x x x m m v i i i i v v i p x p p i m i i i i i i i i i i u z M M N M i v B I 4 = o . o 4.8.4.pX8.v v 6 v v v R = . . . o @ @ o * + * + o = 1 6 i 5                                                                                                                                                                                                                   ",
"                                                                                                                                                                                                                                                                                                                                                                                                . 4 6 O O . . . o # i i M N + o o . . 1 i = O o o . 6 6 i v j 6 6 v v v m M M m v i M M M i 6 V / 2 o o @ 8.p.M.6.8.7.Y Y 3.o.U K M v L H D # X o B V V 9 # # Q Q v v 9 Q 4.L w 9 9 b n n n b n K V q.iXSXnXgXU.j.8.p.I.U.M.K.a.h.a.a.a.a.i.a.j.h.iXnXH.Z B . . . X b b V V L 5.C./ 6 w.0.0.0.0.0.w.e.h.j.SXsXi.8.8.= X . 2 M i.B.K U o.2 @ . o # I T M m m m m m x m m m m m z m m m m x m m p i i i i i x M + 8.m.z K G.6 2 = =  XK.N.i.N.d.6 o o . I M 2 x.i.5 = m i x x x x m m v i i i v m m m p p i i i a i i i i i i i i i i M i o o o > H H B I 5 2 + . . B 3.7.hX0.b v 6 v v v D = . . . . o 2 v @ O = @ = i m M m 6 2                                                                                                                                                                                                                 ",
"                                                                                                                                                                                                                                                                                                                                                                                                X 4 i O # o . o + # i i B i = o o . . 5 i 2 = # o . = 5 v i 6 6 6 i v m v M B i v i v v m i 6 H 3.3 . 2 6 v a.:X7.7.3.K Y 3.T U K B T Y Y U v > . v b b 9 # 4.Q V b v j P Q K b n b 9 b b b b w n V W C.gXBXiXj.0.C.U.h.K.K.h.h.d.a.a.a.a.a.a.a.h.M.bXH.5.Q 3 O . . v v Z K P 0.J.4.6 p.0.0.5.0.0.i.e.M.d.SXsXa.0.7.V 2 o 5 i f.B.U K i @ . . o o i I R M x N B m x m m m m m x x p x x x z i j m x m m M S D = 7.m.M 6 3.= 2 5 4 B i.x.s.h.K O # # 2 = # X 7.9.1 @ m j x x m m m m i i i i i x x p p i i i i i i i i x x m i u u N 2 = o . # O 5 H K K m i O . X b Y 3.gXi.V v j j i i D = . . . . . + 4 D M u u u m m i i i 6 >                                                                                                                                                                                                               ",
"                                                                                                                                                                                                                                                                                                                                                                                                . > 5 5 O o o o # @ 6 6 I v = o o . . = 7 i 5 = # . o 4 j i u 5 6 6 i m v M B i v v v v v i 6 H 3.3 . 2 j v 3.B.i.r.3.7.o.3.Y U D H Y Y >.K V 2 o b b b 9 # 4.K n v w v L Q K n n n b b b b b w n V Q h.U.BXiXl.h.M.J.I.Z.B.h.h.h.a.a.d.a.a.a.a.j.a.sXsXC.L 9 2 X . j j Z K P 8.W.0.3 p.0.0.5.0.0.i.e.M.h.DXsXa.0.i.s.5 = 5 i i.F.6.H @ . = 5 . o = i o.I m M m m m m m m x x m i i p p p z i i i m m x m S N = T 6.M m # = 4 4 j # L 3.7.3.i O = = 5 o o o 3.K o = m j x x m m m m v i i j i x x i i i i i i i i i i i i x i u i i = o o 4 5 2 X v D o.v 2 O . . 6 M Q lXa.L v i i i i D = . . . . . X @ B b j m m m v i i i j 6 =                                                                                                                                                                                                             ",
"                                                                                                                                                                                                                                                                                                                                                                                                # 2 6 i > o o . # # 6 6 I v = + o . . o > v 2 2 = . . 2 j b 6 5 i i i v m M D v i j m m m i i H 3.5 . 2 6 6 L 3.Z.h.Y y.3.U 3.I U U Y o.I H H 6 X 9 M B Z @ 9 B B b 9 v L Q Z v B 9 v b b b b v b B P q.C.BXsXN.M.M.h.gXB.a.j.a.j.a.m.h.h.h.a.i.j.h.p.gXU.Y b 8 X X 6 v K Z P 8.iX0.3 p.0.0.0.0.0.0.a.l.p.GXsXp.i.i.i.> > = 4 r.N.6.j = o Y B + . . 5 f.I B m k m m m m m m m m i p p p i z i i i i i z m D D + o . o o + 5 i i m O o @ @ @ @ @ 4 i 6 5 # . . . o O i i p m m m x x i i p x i p i i i i i i i a i i i i i i i i D 4 # # = m 6 5 = = 6 v.D z O . . 2 b L kXM.L j i j j 9 V i 2 . . . . . o = i y.N i i i i i i j i 6 2                                                                                                                                                                                                           ",
"                                                                                                                                                                                                                                                                                                                                                                                                # 2 6 v 4 o o o # # 6 6 o.N ; + o o . . = v ; 2 = X . @ 2 j 5 5 i i i v v v M i i j j v m j i K 3.5 . 2 6 6 v B K.m.3.7.7.6.o.7.>.L T H H K I v # # 6 V L L 9 B B b 9 v L / Z b B v v v b b b n w b V ( a.BXlXJ.M.iXjXh.C.m.y.y.a.pXh.B.:Xd.d.h.j.h.a.gXpXQ j 2 X . X 9 K V P 0.iX0.3 p.0.0.0.0.0.i.a.p.5.DXiXm.i.i.i.> > O 2 7.m.m.B o o 5 6 5 . . 5 d.o.D m m m m m m m m m m i i i i i i z i i i i z z m S D i 2 2 2 1 i m v i z 4 @ O # 4 4 i z z z i 6 7 5 4 6 i i p m m m x p i p p p i i i i a u i i i i i i i i i i i i D 4 # # O o.K = O # j N.B 6 O o . 2 B L hXJ./ v 6 v j 9 V i 5 . . . . . o o o i I T i i i i i j j i 5 @                                                                                                                                                                                                         ",
"                                                                                                                                                                                                                                                                                                                                                                                                o 4 6 H i o o o # # 4 6 Y m ; @ o o . . = i j 6 = o . o O v 5 i i i j v v v v i i 5 i j m m i K 3.4 . 2 v v 6 6 d.f.y.o.6.7.>.U 3.7.I I K K Y B v @ 6 B B Y b B b v 9 B Y P B b B n v j b b b n b b b P w.vXbXvXC.Z.Z.U.M.h.a.h.M.J.K.N.Z.h.h.h.h.h.p.gXgXZ.K B . . X 2 L L Y 8.iX8.3 p.0.0.0.0.0.i.p.0.3.SXgXhX8.s.s.6 = o = >.d.:XB X o o = > o # i d.I m k m m m m p i k k p u u u i M i z z i p x m m m M N m m m m m m B m i i u u u 4 m m m p m m m m m m x x i v m m m m x p p x x m m i m M u u u u i u i i i i i u u u m v 5 + = v i @ # . i H.D 4 O o . # B Z aXI.5.M i v v v B b v . . . . . o . + 4 D I T i i u j j j v v i 5                                                                                                                                                                                                       ",
"                                                                                                                                                                                                                                                                                                                                                                                                o 5 4 K i o o o o # 5 6 T v = @ o o . . + 2 b v 2 # o . # 7 i 6 5 i i v v v b v i 4 i i M m v I 6.6 o 5 v i j j Y v.K.U 3.y.6.U 7.r.o.Y o.o.o.3.I . 5 6 v 6 b b b v 9 V Y Z b B n n v v b b n B b v b P 5.aXnXBXD.C.B.U.Z.l.h.v.N.N.iXZ.m.m.Z.h.j.j.i.iXsXaXQ w 2 . . 3 B L Q y.iX0.3 i.0.0.0.0.0.0.0.0.3.mXaXgX5.a.i.v 2 o = H 7. XL = . o o o o + D f.I u i N m m u u p p p S p u 4 i N i m z i x m M M M M m x m x m I N m x i i i i i z N p N N m x m m m m x x z v m m m m x p p p p m i i i D B 6 5 5 i u i i u u u u u u i m i o o o o # o = D N.D i = @ . X B Z aXU.5.v v v 6 6 M B v . . . . . . . . o 1 o.f.D z i i i v z v v 7 =                                                                                                                                                                                                     ",
"                                                                                                                                                                                                                                                                                                                                                                                                o 5 6 D i o o o o O 5 i I v = @ o . . . . . v i 2 @ # o o = v 6 4 7 i v m M N M i 4 6 j M M i I 6.6 o 5 v 4 6 6 2 y.K.Y 6.7.K 7.8.7.3.3.>.>.>.o.D @ o # B 6 j 6 b v 9 V / K 6 2 V n b v b b M B b v b L Q w.fXBXlXaXN.l.G.Z.d.h.m.C.J.U.J.d.iXh.a.p.p.0.B.gX0.B B X . X # L Q i.iX0.3 p.0.8.0.w.0.8.5.0.4.xXkXbX5.a.8.B 5 . > B U H.6.J o . . o @ 8.B.D m 4 O : 4 4 u u a p p i D D = u i D z x m m m M M M m m x m x x x m m i i i i i i i M i m m x x m S S m x x z z z z p m x x x x p m o + = U i.i u u i u i u u u u u u u i m N m m o o o o 7.d.D N 5 = = . X C A aXJ.0.P j 6 5 6 M M M . . . . . . . . o o 1 I 6.t.i D i m m m i z i 2                                                                                                                                                                                                   ",
"                                                                                                                                                                                                                                                                                                                                                                                                O 5 6 m 7 6 # o o = 4 i D z = + o . . . . o v j 5 > = o . O i 6 4 6 6 M m M M M i 5 6 i v i i K 3.4 . 2 v 6 6 3 5 3.s.v.y.r.6.y.y.y.d.K H Y I K H i > @ B 6 v 9 9 v v V 4.V 6 # 6 b b v j 6 b B b v v A P 0.aXnXbXl.m.N.m.a.m.m.v.N.Z.B.N.Z.M.M.J.0.0.0.J.sX5.V b X X # X K P i.iX0.2 i.5.8.8.0.8.8.8.8.0.i.kXbX4.s.7.o.j o 2 M m r.i.o.D I o.3.6.7.t.X.T I I I I X.X.X.O.,.3.3.6.,.T N i i p p x x m m m N m m m m x m m m p p p i i i i i p k p m p p p p p m m m m z i i i i p p p x p i # . i o.v.Y >.o.O.U O.O.O.O.o.O.U Y o.o.o.3.7.H I U o.t.O.i 4 < = = X X B Q J.M.d.Y 5 j j 9 v M D X . . . . . . . . o o 6 o.f.U B m m m m m x z i =                                                                                                                                                                                                 ",
"                                                                                                                                                                                                                                                                                                                                                                                                @ 6 6 4 6 v . o o = 6 i D v = O o . . . . . 6 i j j 2 o . . i i 6 6 6 M M M M M i i 6 6 v v 6 K 3.4 . 2 v 6 6 2 6 L Y :Xd.8.7.i.s.s.y.K I U D H H D 5 @ B v v 6 9 v v V 4.B 5 . . M b v j 3 v B b j v C L / iXbXVXM.h.h.G.K.m.m.m.m.N.M.N.K.h.N.C.0.i.i.Z.sXZ./ L X X X . C L 8.U.4.2 i.5.8.8.8.8.8.8.8.p.0.fXnX4.a.7.8.M = 2 6 6 3.B.L o.6.r.r.s.6.I I o.U o.U T O.<.6.6.6.6.6.6.>.3.I M i p p i u i m m m x x m m m m x p p p p p p i p p p k p m k k p p m m m m m z i i i i p p p x x i # o B 6.m.6.>.o.U U U o.O.O.>.O.o.o.o.o.o.6.i.o.>.6.t.o.m = 1 < = = o X b Q 0.4.J.P 6 j j j 9 b H X . . . . . . . . o o = D x.f.I B M m m m x z z i 2                                                                                                                                                                                               ",
"                                                                                                                                                                                                                                                                                                                                                                                                @ 6 6 2 M R # o # 2 6 i T N = O o . . . . . o = N m = = O # 2 = v 4 6 i N v M M 6 6 j j v v Y M v = . 2 v 4 i 7 6 L o.jXN.8.i.f.d.i.K i.o.3.>.U H B 4 o @ v M 6 b b C K i.5 2 . . H v b 9 9 6 9 j b b n n L M.dXDXH.M.h.m.m.m.m.m.m.m.v.v.v.G.Z.s.a.j.j.a.C.nXm.4.% X X X 9 b 3.B.Q 2 p.8.8.8.8.8.8.8.w.p.0.sXBXk.d.7.8.j = = = I ,.5 @ ; 1 u i i i u u 4 4 = = = ; ; ; 1 1 5 = = i f.B.f.4 u m z u a i p u u i m D m x a p x p p p p p p p p p k k k k m m m S S x z i i i i u m N a p N m = @ v.d.r.M u u 4 4 4 4 4 4 4 4 4 4 = 4 4 4 4 4 ; ; ; = < 1 1 1 * + o X V Q Q K H.5.6 j 9 9 j M H X . . . . . . . . o o + = = H.F.6.N i m m m x z z v                                                                                                                                                                                               ",
"                                                                                                                                                                                                                                                                                                                                                                                                O 5 6 2 m K # o # 2 6 v T N = @ o . . . . . . = N m 4 2 @ . o 2 b 6 6 6 M v M M v i i j v i o.B 6 @ . 2 v 2 i 7 j v H G.v.v.F.s.i.7.7.i.r.Y I D B D 4 X . v B 9 v n C Z i.5 2 = . 3 j B 9 9 9 9 b B n n n L q.I.VXaXh.m.h.d.N.N.M.M.m.v.v.p.m.h.i.s.a.j.j.C.bXC.Q 9 # X X # v / B.Q 6 p.w.8.8.0.8.0.8.p.p.8.E.bXS.v.y.y.K 2 o # i v = O ; t t t t 1 < ; = = = = = ; ; < 1 1 1 1 > @ H v.f.m u D D i u p p i u m D N m m p G m p p p p p p p p p k k p k m p p m p i i i z i m m m m S m p m 4 = 8.i.D 6 4 4 ; ; = : = ; ; ; = ; ; , 4 4 ; = = ; = = = = = : O o o X B Q U B U.5.9 j 9 9 j b H o . . . . . . . . o o o O + t.x.x.6.D p m m z z z m j                                                                                                                                                                                             ",
"                                                                                                                                                                                                                                                                                                                                                                                                # 4 i 2 z D 4 = # 4 6 v Y N = + o . . . . . . o M i m 4 = o . = v i 6 6 v v v m 5 B v i 6 i T v > o . 2 v 2 i 7 j i j Y H.:XG.i.Y 7.f.f.7.6.M M I I j 6 . 9 B 9 v n C V a.5 = @ . . 2 K v 6 9 9 B V B M n V Q j.mXgXU.vXB.m.N.N.N.h.h.m.d.i.8.y.s.i.a.a.h.C.nXgX8.A 2 X X X 9 3.M.Q 2 i.8.0.0.8.0.0.0.p.a.0.I.nXW.v.7.7.6.K + o . @ = 1 ; ; ; ; ; ; : : * : ; = = = ; ; ; = = = = . 4 i.x.H i I I p p p i 4 i m M i p p x m m m p i i p p p p p p p p i i p p p i i i i i i m m x x N x i m i = 7.y.4 @ + = ; : : * * * = : : : ; ; = ; ; = ; ; * : : = + O o o . . Y a.L n U.p.b v j j j B H # X . . . . . . . . o o # = 4 o.:Xx.X.F m m x x x m M v =                                                                                                                                                                                         ",
"                                                                                                                                                                                                                                                                                                                                                                                                . 4 6 4 7 M B 2 # 4 6 v o.N = + o . . . . . . X i v N 5 @ o . = 5 v i i j b v 5 o v j i 4 i T v 2 o . 2 m 2 i 6 i i 6 > F.pXy.3.r.d.f.i.>.o.U I H I B j o @ M b 9 b L Z d.6 = @ . . 3 L v j 9 b V B M B n C L q.nXnXfXB.sXJ.M.N.N.B.B.y.8.i.a.8.y.d.d.d.h.a.h.vXa.i.9 X . X w Y d.L 3 p.0.w.0.0.w.0.5.p.a.0.S.bXmXv.r.I o.o.. o . . + @ = = = = = : * + + + * * * * * * * * * + # o = B x.G.k k I D m p i B D M i i p i p p m x p p i p p p p p p p i x m p p p i i i i i i x x x p p D B j i = 7.y.7 = o : & + + * * ; ; : = = : : & : : : * O o @ @ # o o o o X . 5.J.Q b U.j.Q v j j i B K @ X X . . . . . . . o # + & : 4 M pXF.M M m x x m m m N N                                                                                                                                                                                         ",
"                                                                                                                                                                                                                                                                                                                                                                                                  v 2 6 6 7 B 4 O 4 6 m o.N = + o . . . . . . . O 4 D 4 2 2 o # O b v 6 i v m # o m z i 4 i o.v 2 o . 2 M 5 7 i i i 6 5 m.N.m.6.8.0.f.y.>.D o.>.o.B B M o o 6 M j j L L U i 2 = . o . 6 H 6 j B B M M C n b n W W.vXBXM.Z.J.U.N.M.m.m.m.d.y.i.s.i.y.a.d.a.a.h.vXB.5.9 # . X 2 9 p.K 3 p.0.w.0.8.w.w.5.p.a.i.N.Y.DXj.7.K H I N o o . . o o o o o o o o . . . . o o o o o o o o # o o = i d.G.D D J H D i m M N i i i p p p p p p i p i p p p p p p p i S S p p p i i i i i z x x x p p m z i i ; r.8.7 = o * + o o o o o o o o o o o # O O O o o o o o . . o o o % 5.5.5.V B W.j.p.j j j i B U > # . . . . . . . o o o O # O = 4 o.x.V.O.B N m m m m m m m v                                                                                                                                                                                     ",
"                                                                                                                                                                                                                                                                                                                                                                                                  5 + 2 7 4 K i 5 2 6 i o.N = O o . . . . . . . o 2 B v 5 5 o o o j m i i i v . o M z u i i 6.6 = . o 5 m i i i i i 6 i Y 7.K.y.s.r.7.y.3.o.6.Y Y D D B j # . v b b Q P j 4 * = o . . X L M j b B j B B b b n / h.xXVXl.J.J.iXH.h.m.v.N.N.v.x.d.v.r.a.d.a.a.l.kXiXJ.9 # . . X 8 p.L 3 p.0.w.w.8.0.0.0.0.p.p.N.S.FXM.8.U K I o.= > 5 v M B B B B B B B B V V Z Z B B B B B B D # o o @ 2 i.H.I D N J D M N m m p i p p p p i p p p i p p p m m p p p p p p p p i i M a i i i p x m m m i i i i 4 i.7.4 = # o . 2 6 6 9 j j v M M M M M M m v j 6 6 5 6 6 6 6 j j b d.0.Y V B E.l.m.i j j j M K 6 2 o . . . . . . . o o o O O + 4 1 i.L.u.,.D D D B M x x i i $                                                                                                                                                                                   ",
"                                                                                                                                                                                                                                                                                                                                                                                                    o 7 4 5 K N M = 5 i o.N = O o . . . . . . . . 2 b v 5 5 = # o = 4 i 6 i v . . v z u i i 6.6 = o o 5 M i i u 6 6 6 6 6 Y pXpXd.6.7.K 3.8.L T Y D M K H > o b B b Q L = = + @ o . . o M B B v 6 6 C v 9 9 v P 0.kXBXJ.J.J.C.W.H.d.a.d.d.d.d.d.s.s.s.d.a.d.h.J.hXsXn 3 X . X $ 5.Z 6 a.w.w.w.0.4.8.0.0.0.0.l.C.FXN.r.K K I D y.3.K >.0.a.s.s.d.s.h.j.h.h.l.l.j.h.h.h.h.d.s.i.@ # . o # r.B.I D N N B D D m m x i x p p p p p p p m m p p m m m p p a a i p p p p u m m i i p x m m i u u u u 6 f.8.4 = O o 2 d./ / 3./ 3.3.4.4.4.4.4.4.4.4.4.4.3.o.Q Q Q Q 7.7.0.0.3.K B B W.l.Z.6 j M B M M B 6 o . . . . . . . . o . o O + = = i p L. XI H H B N m m M v v 2                                                                                                                                                                                 ",
"                                                                                                                                                                                                                                                                                                                                                                                                    @ 6 6 4 M H m . 2 i o.N = @ o . . . . . . . . # @ N D 4 2 = o . > v 4 i 6 X . v j 6 6 v >.i @ . . 4 M j 4 4 u i 6 j j D d.jX8.>.7.y.7.>.U I K B D K K j = = j K Y K @ = + o . . . . X v K v j b n v 6 9 9 V Y W.nXkXU.C.W.M.N.U.p.s.d.s.s.s.f.s.a.a.a.a.d.8.kXsXV 9 > . X $ Q K 3 j.0.0.0.8.8.8.0.0.0.0.p.j.FXM.v.U I I I o.8.s.i.d.m.v.d.i.a.G.G.N.G.H.Z.N.N.B.m.m.d.h.h.2 = . . . y.v.y.I i i m N m M m m i p p p a m i i i p p i i a p m k p u i i i i p i i N D i p p x i p i u u u N v f.y.4 2 # o 5 4.A.W.p.a.d.8.0.i.a.p.a.s.p.p.p.0.6.w.7.7.9.8.y.y.p.7.Y H B V C.M.U.j 9 j j 9 v M j o . . . . . . . . o o . o # : * 4 i y.x. Xf.o.I M m v v v j i                                                                                                                                                                                 ",
"                                                                                                                                                                                                                                                                                                                                                                                                    @ 6 6 i 2 H m . 2 i o.N = = o . . . . . . . . . o B B 5 2 = o . @ i j 6 2 . . v j 6 6 v o.6 # . . 4 v j 5 4 u u 6 j j M b pX0.7.7.r.3.Y y.o.B U T I K K 2 o 6 H Y K @ = + . . . . . . 6 U B M B M w 9 9 9 6 Y D.fXGXaXh.M.M.p.5.M.m.d.a.a.s.f.f.s.a.a.p.0.w.gXgX/ v 3 X . # K K 6 h.0.0.0.5.5.8.8.0.0.0.8.a.DXS.G.6.I D o.I K T Y >.f.v.7.K 3.v.s.r.i.s.y.8.d.v.8.Y K Y h.B 6 . . . Y y.N.Y i k M u i i i m m i x x m p i p p p p i i a p m p p i S m i i p p p i i p p p x u u u u u i D D f.y.4 = + o = K S.iX0.i.r.Y >.0.8./ 3.3.3.3.3.9.K o.3.L >.7.7.7.4.B B B V B 8.N.iXv 6 9 6 6 6 M i . . . . . . . . . o . . . . * O * 4 i r.jXV.o.Y K m v v v j j j =                                                                                                                                                                             ",
"                                                                                                                                                                                                                                                                                                                                                                                                      6 5 6 4 D M @ 5 i U B = @ o . . . . . . . . . . 6 v v 5 = o o o 5 M 5 o . . v 6 3 i H M 1 o . . 5 M 6 4 4 i i i i j v v 7.K.K.3.>.3.i.D >.7.H I I K D O o = K U B + = o . . . . . . 5 Y B v j j v v 6 6 v U p.J.FXvXW.U.M.a.0.d.0.0.d.a.s.s.s.d.a.8.0.a.w.M.N.j.v 6 % . # n b 9 h.a.w.0.5.8.8.0.0.0.0.4.0.SXK.K.>.>.o.Y o.o.Y U Y I Y U I Y Y 6.3.3.7.6.3.Y >.H I >.Y >.a.b . . . M D F.7.i m N p p p x i i M p m D p i p p p p i p p p x i p p p p p i p p i p p p p i p u i a 1 z I M i f.y.i 1 + o O B z.J.V H I I K K K K I K K I U I K H B V V H H H K D H H H V K Z.hXb b 6 6 6 i v i . . . . . . . o o o o . . . @ * : = 4 p K B.jXK Y B M j m j j j i @                                                                                                                                                                           ",
"                                                                                                                                                                                                                                                                                                                                                                                                      > 2 i 4 M i = 4 i U B = = o o . . . . . . . . . O 2 D v = = o o = M 6 o . . v 6 2 i I 6 # . . . 5 b 4 5 6 i i 6 i 6 6 6 o.J.iX7.7.8.8.o.3.8.U K I I K M = @ 6 6 6 O o . . . . . . . @ 5 B D v v b M 9 6 v Y 7.h.FXvXU.iXh.a.M.w.M.a.a.d.s.s.s.d.p.i.a.i.0.0.Z.kXL b > X X @ 9 9 h.i.0.8.8.8.0.0.0.0.0.7.e.DXJ.K.3.>.o.o.o.o.Y U U L L L I U T 6.6.o.O.>.o.U U H I Y I I d.B . . . 2 M H.y.i m m k p p z i i M N S M m i i i p p p p p p p i p p p p p p p p p p p p p i i 7 i m D x m m i s.f.m 4 o . O B M.W.V L T I I K K K I K K I U I K K K K K K K K H H H H H K K B.hXY M 6 6 6 i B v . . . . . o + O O o o . . . o @ : : ; i m f.N.:X6.I D j m v b M M v v                                                                                                                                                                         ",
"                                                                                                                                                                                                                                                                                                                                                                                                        2 6 5 v 5 5 5 6 T D = @ o . . . . . . . . . . o 4 B i = 5 @ . . N 4 # . . v 6 2 i U 4 o . . o 5 b = 5 7 i u i 5 5 6 j M H.B.i.s.s.Y i.6.3.7.K I I R m 5 o . 2 2 + o . . . . . . . . . K K B v M M v 6 v U 4.p.bXkXgXK.M.Z.S.m.M.a.i.d.d.s.s.a.w.h.h.i.0.0.W.bX4.K 2 X X 3 6 6 p.5.8.4.8.8.8.8.8.8.0.i.p.DXgXiX6.3.>.o.o.o.Y U Y L U I U T U 6.r.>.Y o.>.O.U K I L K I a.B @ o . = i G.8.i k m k p p z i i x D D p m i i i i p p p p p p i p p p p p p i i p p p p p m i i i N D D m m i a.i.N 4 o . O n M.iXL U Y U I K L I I K K I U I I I T Y T K K K H B H H B K K M.hXB B 3 5 6 i K D . . . . # = * * * * # o . . o o = = ; = 4 N >.kXx.Y I D v v B B v D M 6                                                                                                                                                                       ",
"                                                                                                                                                                                                                                                                                                                                                                                                        4 5 4 6 6 5 2 5 o.D = @ o . . . . . . . . . . . = D v 6 4 # o o v = 5 . . i 6 5 M o.4 @ . . o 4 b 2 4 2 i 5 5 5 6 i 6 6 H d.vXH.d.o.8.8.8.7.T K D D D M M o # o . o . . . . . . . . . K Y H m v B M v v v L 4.h.mXFXJ.aXD.C.:Xd.m.J.i.d.d.y.a.a.d.a.0.p.0.sXMXa.L b # X X 2 3 0.5.5.L / 4.5.8.0.0.i.p.p.vXKXSXo.B.i.K K o.Y >.s.7.t.6.>.>.6.r.i.6.o.I r.f.D U T Y I K a.I 6 . X X 4 L.d.6.i j k k x x i i x x m S p p p p p i i p p p p p p i p p p p a p u i m p p m i J U I x N D m 7 i.f.D 4 o . # n C.iXP Y o.Y I K B o.0.8.Y I O.>.6.f.y.6.o.I 8.Y B H K H B H H N.hXi.Y 5 5 v v B j . . . . o = * = = = = 2 . . o o o * = ; = 4 m 7.pXpXj m M B B D D M B I v                                                                                                                                                                     ",
"                                                                                                                                                                                                                                                                                                                                                                                                        4 2 2 = 2 6 5 5 Y D = @ # . . . . . . . . . . . o 2 D M 2 = # . . 2 j . . v i 5 M o.4 @ . . o 4 b 2 4 = 6 4 5 6 i i 6 6 v i.hXi.d.s.y.7.8.3.6.I N D D D M . o o . . . . . . . . . . o 6 B Y v v M j 6 6 j V 3.8.mXFXU.U.U.U.B.h.m.C.m.d.d.d.a.a.p.0.0.i.i.Z.iXsX4.K 3 X X $ 8 0.3.5.L Y Q / 5.0.i.4.0.k.C.FXGXo.>.i.r.I T o.7.H m m M n B D T o.D M N S B 4.3.>.>.T K i.Y K . X X = r.f.d.m v k k p x i i x x m D N m m m i i i p p p p p p i p p p p a p u p m p p i m M D D x D S m 6 i.s.U 2 + . # 6 M.W.L Y o.Y U K K 3.V B M S D J I ,.O.I D N B B 3.K K H B K K y.B.y.3.j 6 6 v B j . . . . o = + * * 4 4 4 2 = . . o o = ; ; = i M v.v.y.U I 3.m M B D B H M v                                                                                                                                                                   ",
"                                                                                                                                                                                                                                                                                                                                                                                                          = > @ = j 6 5 I D = = # . . . . . . . . . . . . . v D i = O . . 2 6 . . v v 5 M o.= @ . o . 5 v 4 4 O 5 6 6 i i i j v i 3.:Xv.d.s.y.6.>.>.o.3.I D D N N = O # o . . . . . . . # . o o 5 o.B v M i 5 6 6 B Q Y MXDXVXI.J.U.Z.M.m.v.B.d.d.H.B.i.0.0.0.p.j.d.C.vXd.P b X X X 2 Y 3.4.Y V P Q 5.8.i.n 5.j.y.KXFX4.Q 7.7.I H o.7.i o & & - r r t y r r : o i f.f.r.Y I I 7.7.3.. X o o U v.V.4 j k k p p p k p p m D S M i a p p i p p p p p p i i i i i m m i p S m m p x x x m m m M i i f.i.6.i . . X @ a.J.0.7.Y K K L Y 3.6 o & : r t t t t y t : + D 0.L K V H K K Q 7.Z.8.j 6 6 i H i . . . . o = + ; u 1 4 2 i 4 @ . o o * ; , , = = 3.8. X>.I 3.K N D H D D H L M                                                                                                                                                                 ",
"                                                                                                                                                                                                                                                                                                                                                                                                          @ 2 2 @ 6 j 6 K D = = # . . . . . . . . . . . . . i i M 4 = o . @ 2 . . v v 6 M o.= o . o . 5 v 5 4 O 5 5 4 u i i j j 6 H K hXF.i.i.r.6.I K o.K D D M 2 D M 4 = o . . . . . . @ . o o 5 I D D 6 i j M 9 B L L h.fXKXU.M.J.kXJ.l.iXN.m.h.0.J.d.8.a.p.p.j.d.C.vXH.0.b X X X # V Y 3.3.3.v V Y C v 0.0.a.p.mXFXd.Y >.>.I I o.D . o #.~./.].[.[.[.]./.] t * v K.s.I >.>.7.7.3.. X o o i y.V.4 j k k p i k p p a N D m m i a p p i i i p p p p p i z m m p p i i i N m m x x x i 4 u M i j M 6.7.6 X . . o a.D.m.>.T K K U 3.j o f &.*.`.].[.[.].`./.&.y = 5 C.Y H K K L Y U :Xh.9 6 4 6 M i = . . . o = + < i 5 4 1 i i j @ . o o : ; 2 4 = D Y K.N.x.d.y.r.N D Y y.3.Y T b                                                                                                                                                               ",
"                                                                                                                                                                                                                                                                                                                                                                                                          O 6 2 = = i N o.D = = o . . . o @ o o . . . . . . 2 6 I 6 = = + X = o o b i 6 m U @ o . o . 2 v 5 4 = 4 5 4 i i i i 6 i m M pXs.s.i.y.7.Y H K 7.o.N i D D r.U 4 # o . . . . . @ o o . = a O.I j m v v v b B K h.gXLXW.M.M.N.K.J.Z.h.m.a.0.a.0.0.p.a.a.p.p.H.BXpXh.b . X X . 3 2 Y Q 4.U V 6 n K 4.y.0.0.mXFXB.Y H >.I I Y H O & *.).].<X6X6X1X-X}./.] o 6 K.m.i.6.Y o.4.7.# . X . 5 o.v.B N i i i k k p i p m p a m k a p p i i m m i i p m p p m m a p m i x m v N i p x i p i p i i N 7.f.2 o . . . Y h.iX7.I I K L Y M : } *.}.+X=XyXyX1X+XOX`.] : 6 K.8.Y K H K V V sXl.b 5 5 6 i 6 6 . . . o = = 4 u u 4 = i x i 6 = o o o @ = 4 = 6 m f.3.>.Y s.i.T o.8.y.3.H U B                                                                                                                                                               ",
"                                                                                                                                                                                                                                                                                                                                                                                                            6 5 2 2 i I 6.D = = o . . o + * # o . . . . . . o 5 B i 6 5 @ . # 4 @ i i 6 j K @ o o 4 . 2 v 5 5 = u 4 5 4 i i 6 i i i v 8.B.K.>.3.3.T I K o.o.B B >.U s.r.M 2 = o o o . . o O * o & r +.+.H M v v v b v V w.U.HXgXiXh.h.D.H.M.m.h.h.N.i.a.a.h.M.l.d.Z.pXmXZ.i.w . . X X # # B P 5.3.Y b K 5.5.0.w.q.mXDXH.3.B K T I U H 5 * ] *.=.;X6X6X[.[.`. .y @ b :Xm.y.>.I K 7.8.9 # . . = L s.6.D i i i k k p i i N M i m m a p p p p m m i i i S p p p p p m m x i m M m u i p p p i i i u m 7.d.6 @ @ . . B i.aXr.I I K K B H 4 a ] `.`.`.;X6X1X]./.=.s ; b H.8.I H H B M M aXl.L 6 6 6 6 i v X X . + = = 1 4 i i i m m p N u + o . o O 1 # = i 6.H D D 6.7.o.o.>.6.o.v M L L %                                                                                                                                                           ",
"                                                                                                                                                                                                                                                                                                                                                                                                            # 5 7 4 m D o.D = = o . . o = # o o . . . . . . o = i B M 4 = # o 5 i 6 i i i m + . = K o 4 v 5 4 = u 4 5 4 4 i 6 i j i 6 B K.hXo.o.T I o.o.o.v I Y 7.o.r.r.o.i > = o o . . . + - & o r .X1.F m i v v v 9 b 5.C.BXKXnXK.H.Z.G.H.B.M.K.pXZ.M.l.Z.J.Z.M.vXvXa.K 6 3 . . X $ 2 $ 9 K Q P L Y 0.0.8.0.w.0.nXDXI.8.U M I I T o.o.= = = = 4 = = = = = = 2 i L :Xa.U J J K >.a.B # . . X M y.d.I u i i p p p p k S D p m m a p p p p m m i i i S p p p p p x i M i m D i p p i i i i i a u v r.m.i = @ . . V i.aXr.U I K K H K B @ = ; ; 4 > 2 4 = = = = v o.U.7.I I V B M M iXC.4.b 6 6 5 j m o X . + = ; = = i m N m i i S m i = . . . @ = 2 i 3.D N N j M D v i i z i v U D .                                                                                                                                                           ",
"                                                                                                                                                                                                                                                                                                                                                                                                              4 4 1 v D = o + . o . . + * # + + o . . . . . . O @ B B 4 5 = o o o j i i i = o # > I . 5 j 5 4 * 4 7 7 = 5 i j j j i i 6 x.m.V.>.K Y 3.o.N O.6.6.3.o.O.7.B.D 7 = o o . . . o - - r r &.| o.B v v v v v v Z / a.KXLXPXKXKXFXFXDXSXSXKXFXbXsXnXmXBXBXU.8.U B 2 X . X # P V 9 $ 9 L Q Q V w./ p.h.w./ bXVXJ.i.Y H B D H H I O.,.t.u.d.x.x.f.i.7.f.f.v.I.8.>.o.U U H 3.y.6.+ o . . j Y m.Y i i k p p p k k m p p i m G p p p p p p p i i p p p p p p x B N i x x x p i i i i i i i m v f.N.p > @ . . M 3.hXy.U Y K H H B v K >.3.r.0.0.8.8.4.3.o.Q h.N.Y I I H B B M B iXN.w.b 6 6 6 j v . . o + : u u i i i m F F D D N B 6 . o . o = = 6 6.z u u 4 i m i 5 4 4 4 2 i 4 o                                                                                                                                                           ",
"                                                                                                                                                                                                                                                                                                                                                                                                              4 < < v D o * + o o . . + 2 @ @ + o o . . . . . . . M D 4 i = o . o v v i i = + # = K . 4 i 4 4 O 4 7 7 = 4 i j i j i i i 3.f.pXy.r.r.Y U o.6.t.t.3.o.T 6.L.o.D 4 @ o . . . o & r ] { s F 3.D b v v v v v v V / KXmXiXJ.K.Z.G.B.m.m.Z.V.v.>.0.i.y.i.V K C w 2 . . 9 w C L ( 9 9 v / Q Z / Z 0.i.5.Q bXBXJ.p.>.K B N B K I o.o.o.u.i.s.i.7.6.Y Y o.8.h.K Y U U U H 3.i.y.@ o . . i D G.o.i p p p p p k k m p p i m G p m p p p p p p p p p p p p p x D i x x x x p i i i i i i i m v f.d.D 5 2 . . 6 U hXy.U U I H H B M D K U >.>.6.6.3.>.O.U K 3.0.K I H H B B B D J.S.C.b 6 7 7 j v . . o + : 4 a i i i m F D F D D D m 5 o . . + = 4 6.i = = : 4 4 4 = = = = = = 4 #                                                                                                                                                           ",
"                                                                                                                                                                                                                                                                                                                                                                                                              B 6 4 v D & * # O o . . = 1 4 # = + o o . . . . . . B v 6 i = = . o M M i M = # O 4 T . 4 i 7 4 + 4 4 i = 5 i j i i i i i 5 6.hXG.v.o.N Y 6.6.r.o.o.U Y ,.s.H.3.i + o o . . . + r ' d r a 6.M D v v v v v v V Y KXlX0.y.7.7.7.3.>.>.Q >.3.U H H B B 6 6 6 2 $ # # V n V / j.n 3 2 4.Q 3.P n 5.Q W ( bXmXU.M.3.U I D D I H B B B H 3.Y I U J D M N D B I U U K H D >.y.8.@ = . . 2 v N.6.i i p D m m D p i i i i M D m v S x m p p p p p p p i i p p m i i p p x x M u i i i u u i j 6.f.D m = . . 2 K sXr.Y I K D D D D N M B Y Y Q >.U U U U U U L H H H V V V V K w.S.pXK j 5 3 9 b . . . o * ; i a a N N m N D I D S D N = . . o = i 6.4 , 1 4 1 = = = 1 4 4 * 5 5 o                                                                                                                                                           ",
"                                                                                                                                                                                                                                                                                                                                                                                                                = M D M + + + + o . . @ = i = * @ O o . . . . . . 6 i M 6 2 4 . . v v D D = o 4 m b . 5 i 6 4 + 4 5 5 5 i 4 7 i i i i i i K K.pXH.I o.6.6.6.>.3.8.I T o.7.L.6.M 5 + . . . . . y f f - u m I N v v v v v j V 4.H.8.B M B B M v j j i M B j 5 6 6 6 5 2 > # @ 3 Q W L Q 0.l.p.Q $ w L 3.P L q.P Z P S.dXkXJ.8.Y U I I I D D D H >.I I U I D D N N B B D H H H D I K Y 8.6 i . . 2 v N.6.N N B N N D i i i i i v p i D v p N p p p p p m m N M i i i p m p p p x m m i i p p p p m u I 3.r.j = . . 2 B aX8.>.U U K I I B M D D K I L B B B B V K K H H H H H H V H L L J.gXK j 3 3 9 b . . . o * : < u i N S G I o.o.I I H D M 2 # o 4 i O.4 4 1 = 1 = = = 1 4 4 1 4 6 o                                                                                                                                                           ",
"                                                                                                                                                                                                                                                                                                                                                                                                                @ D m = # O # o . . . # = m = + * * . . . . . . . . = B 6 5 4 o . 5 i I M = O D D 5 o 2 i 6 4 + 7 4 4 i i 7 5 i i i 7 4 5 D y.r.d.7.6.r.8.7.6.6.N.I U o.o.N.f.D 5 @ X . . . . : y f r - t O.M M v 6 v v 6 V w.h.K 6 j 6 i i 6 2 4 5 i j 5 4 2 > > 2 @ # X 9 b ! W 4.e.e.j.j.0.# 8 L Y P ! 4.K C L j.S.BXsXi.U U Y I Y D B D K o.U I Y U I I D B H U U U K K K U K L 3.v i . . > j m.6.o.H m m D m p i i i i i p i N m m p m p p p p m m p i i p m m p p p p m m i i i i v m x m i 4 K v.S ; . . 2 b U.v.i.U Y T I I B D H B B K K K H U L K L L K K K K K V K K K B K.hXL i 3 3 6 M . . . o * & ; 5 a S I J J O.6.O.I I K D 4 o o > u T 4 4 ; 4 1 1 : < 4 4 1 4 u 6 o                                                                                                                                                           ",
"                                                                                                                                                                                                                                                                                                                                                                                                                = B v = # + # . . . . # = m m 4 * * # . . . . . . . @ B i = 2 5 . . 4 K 4 # . B B 2 o 2 i 7 4 = 5 u 4 u 7 7 7 i j j 5 4 4 6 6 G.hXy.8.r.8.r.r.Y D y.s.>.O.Y f.d.m 2 O . o . . * t f r & ; N M B v 6 6 b 6 H 0.a.K i 6 6 6 6 5 2 4 i i 5 5 4 4 4 > 2 @ > X V P Q 4.q.a.q.e.z.z.q.$ 3 9 W P b V Q Q l.J.GXgXa.Y Y Y U Y o.>.6.7.8.7.y.y.r.r.r.6.T 6.y.y.y.r.8.8.H V H L v 2 X X # 2 o.O.r.T k m m m p i i i i i x p i D m p p p p p p m x p x p i M m p p p p p m i i a i m M x i i 4 D m.D u + . # 6 i.m.a.I I K H H 3.7.7.3.>.o.o.>.Y Y 3.7.4.7.4.3.>.>.>.Y H L K M Z.sXU K 3 3 6 B . . . o & : i p m J O.X.X.I o.U m m v m v u o + * i : ; ; 1 = ; ; 1 ; 4 4 4 u u o                                                                                                                                                           ",
"                                                                                                                                                                                                                                                                                                                                                                                                                = N i O O + # . . . . + = p M 4 = * O o . . . . . . o 6 6 v 4 6 . o = B 2 # . B B 2 o 4 i 6 4 = 5 4 7 u 7 7 7 i u i 5 5 5 6 5 s.hXG.s.r.y.r.7.D m f.f.3.o.D f.d.D 4 = . o . . o * t r - & , b B v 5 6 j 6 H y.8.I 6 6 6 6 4 5 2 7 4 5 5 4 4 4 4 2 @ . # 3 L P / e.0.0.h.q.C.C.C.w % 3 5.Z b Z Q / q.Z.KXgX0.o.o.U Y 6.>.K U o.Y Y o.T o.o.o.I B T >.o.>.>.3.3.7.Y H H L B . X o = D o.v.U k m M m i i i i p p x p i S m p p p p p x m x x p p p M G p i p p i i i i i i m M x i u 4 D m.D u O . . 2 0.G.N.I I U >.o.o.Y Y I K K K K V U U K K I H H K K K K o.L L M N.U.5.K 3 5 i B . . . o o * ; u m M N G J I X.I D M M N M m @ = * 5 ; ; ; = = = ; 1 ; ; = 4 u 5 o                                                                                                                                                           ",
"                                                                                                                                                                                                                                                                                                                                                                                                                  4 = + + + o . . . . o = = m i 5 * + o . . . . . . . o M M 6 6 = + o @ 2 o . D D = o = 4 u 4 = 4 i M 6 4 > 4 u 7 u 5 5 4 6 4 3.7.kXH.y.x.7.>.o.>.>.6.3.o.I >.r.7.v 5 o o o o o o o ; ; + . w V v 6 6 j 6 H y.8.I 6 4 4 5 5 5 4 4 5 4 4 4 4 5 5 = o o 6 Q P / 5.e.j.p.l.q.C.J.iXZ 3 8 4.W L L / / ( j.HXkX0.Y U D r.r.o.@ + = > = = = @ o o = = 4 2 2 2 2 2 3 Z.Q Y Q o.D o . . 2 i 6.N.o.3 = v b 6 i i p p p x x x x k k p p x x x m x p i i i x m u u p p i i i i p x m B m 4 o = N F.G u @ X . $ / J.N.K Y 7.8.y.6 = > = o o o o o # # @ = = @ # @ @ O i d.7.B n p.C.M.Q j 6 i B . . . . . + 4 4 x i i O.r.3.D D D M H o.o.o.7 2 o * 4 1 1 4 ; 4 = ; ; = > < u 6 o                                                                                                                                                           ",
"                                                                                                                                                                                                                                                                                                                                                                                                                    + @ 1 o . . . . . o = O M k 4 * = = o . . . . . . . D v 5 4 5 @ o o = o # B D = o = 4 6 4 = 4 u v i 4 = 4 i 7 u 5 4 6 i i v I kXm.7.a.>.>.>.,.,.6.3.o.K H >.F.D i o o o o + + . + & + . v V j 5 3 v i K 0.6.H 5 5 5 5 4 5 5 5 5 4 4 4 4 5 = o O K Y 5.Q Q 4.l.C.q.p.C.q.j.J.p.L % n L Q V ! ! / e.GXxX0.U U o.i.I 4 o o o o o + # + o o o o o # o o # # = H.d.s.U 3.K @ X o = u 6.B.>.1 4 2 6 N i i i p x x x x x p p p p x x z m z i i i i p m u 6 i i i i i i x x x i = 4 + = D K.D u + X X # L H.N.Z Y 3.a.b $ = @ # o o o o o o o o . o o # O O o 2 y.Y K V / 0.D.p.b v m D o . . . o o = : m F X.I D m m D O.o.T M D I F = . o * = ; 4 4 = = = ; ; > 2 4 6 .                                                                                                                                                           ",
"                                                                                                                                                                                                                                                                                                                                                                                                                      @ o X . . . . . o O @ m p m 1 = > @ . . . . . . o 6 M i 2 5 @ . . o = 6 K H , o = u i 4 = 4 = i u 5 = = 4 7 i 4 4 6 i i j B pXv.s.8.7.6.6.6.>.o.Y T J >.i.s.D 4 o # = = 5 = o o o o o v K b 6 6 v v U i.o.D 6 4 4 4 4 4 4 4 4 4 1 5 5 4 @ o O Y 0.Z.4.5.q.j.l.e.e.z.p.j.j.S.e.3 % n 4.P W W ! W BXvXe.V K 3.R 6 . . . . . . o o o o . o o . . . . . . . a.h.B.U 7.Y 6 = o = 4 6.B.3.6 @ X 5 m i i i v p i i i i u u u i i m m m m i u u i i i u u u u u u u i i i i 4 & = i 6 D  XG p > . X @ Z J.H.V Y Y >.5 # X . . . . . . o . . . . . . . . . . @ >.K 4.L Z L J.8.I v v m = O . . o o * : p I X.D N k D N O.>.O.u i I F 5 + o o + 1 4 4 4 4 4 = = , > 6 5 .                                                                                                                                                           ",
"                                                                                                                                                                                                                                                                                                                                                                                                                        O # # # @ o o o + = i S D i = > @ . . . . . . . . 5 v 5 5 5 i . . = M K J 4 o = u i 4 = = 4 4 u 5 4 * = 4 i 4 4 6 i i 9 j 6 iXvX5.r.8.6.>.Y Y I N I v.m.D i + + = 5 I D 6 = . o o o O 5 b H j > v U i.o.B 6 6 i i u 4 5 4 4 4 1 1 1 ; @ o X B M.hXl.C.C.p.w.j.a.0.C.h.q.T.l.3 % 3 Q 5.Q P W L mXvXm.Q >.6.2 o . . . . . . o o . . . . . . . . . . . X m M.Z.I 7.Y M = o * ; >.m.8.Y . X . @ = = = 4 4 ; = = = = ; ; = = = = = = = : : = = 1 ; : * * : : * * = @ @ : : m U N D K.I M 4 . . # Z J.H.B Y L M $ X X . . . o o o o o . . . . . . . X . . . Y m.L V Q K.a.Q b 6 j 2 @ . . . . + = ; N I i u N I o.D u m I u 4 m N m . o o ; 5 ; , 4 4 = = i 4 6 6 .                                                                                                                                                           ",
"                                                                                                                                                                                                                                                                                                                                                                                                                                    o o O @ = i m m ; = = @ . . . . . . . 2 M 5 5 j i . o 2 M K I 4 + = i i 4 = 2 5 4 u 5 4 = 4 4 i 4 5 i i j j j v K.U.y.y.6.>.3.U I m U v.r.3.6 = o + M B o.B 5 i . . o o 4 6 H H v 5 v U a.Y B i 6 4 4 5 5 5 5 5 4 4 4 = = + o o 2 K N.aXJ.j.z.l.l.j.l.j.e.e.A.S.S.b % b 4.W A L L bXxXC.4.8.o.= . . . . . . . o o . o + X . o . o . . . . X m.H.7.7.,.o.o o o = D Y d.m.K Y Y 3.6.o.o.7.7.7.t.r.6.6.6.7.t.7.7.8.7.7.7.7.6.7.7.6.3.6.6.6.6.6.6.o.o.o.O.o.O.6.7.7.r.r.I D 4 . . # b K.I.Z 4.L 9 # . . . . . + o o o * * * O . . . . X X X X Y M.L Z / I.N.m.b 5 6 5 @ . . . . o = + u m N I I I m i i i i u u u i m o o o = 4 ; 4 4 1 = = 4 i i 6 .                                                                                                                                                           ",
"                                                                                                                                                                                                                                                                                                                                                                                                                                    . O # * = 6 B D = = = = . . . . . . . 2 B i i 6 i = . 2 v K I u : = 7 m i = 5 5 5 u 5 5 2 2 4 z i 5 u i i 6 i j d.h.f.i.>.>.I U D Y >.v.U i = o = v K Y H M 6 i O o o o 5 i I B j 5 v L p.L M 6 4 5 5 4 5 5 4 4 4 u 4 = = O o o 2 9 5.aXW.l.C.z.a.j.A.M.l.j.e.I.gXA 3 X Q Q L W W bXxXJ.0.Q Y = . . . . . # O + @ O = = = = 2 @ O . . . . . a.N.M.8.3.3.@ # o = 6 M x.d.3.r.8.f.f.i.y.f.y.r.r.r.r.r.u.f.f.f.f.y.y.y.i.i.y.y.r.r.r.r.r.r.r.r.r.6.6.6.6.6.6.r.r.r.7.G S S 4 . . X 2 J.I.Q 3.K B o . . . O = ; ; ; ; ; ; ; : * + o . . X X X U m.0.3.Q m.D.J.v 6 6 5 = . o . . o + = 1 1 F I D M i < u u u u 4 4 u m o o o = ; 1 4 4 ; : ; = i i 2 X                                                                                                                                                           ",
"                                                                                                                                                                                                                                                                                                                                                                                                                                    o # @ = = 4 N D : = @ = . . . . . . . o @ R M 5 6 i o 2 v K I u : = 4 N i = 5 5 5 u 6 5 4 4 4 m j 4 5 4 6 6 6 6 Y 7.N.i.U >.K m m r.f.y.K 4 = = 6 6.>.K M v 6 5 = O o . > 5 H M 9 6 j L a.L m 2 4 5 5 5 4 4 u u u u u 4 = o o o 2 6 C I.sXsXA.j.C.M.j.A.A.A.0.j.Y.v.0.$ w b / Q W sXaXaXh.L U = . . # # O * * 4 4 u u u u u 4 4 * @ o . . . 5.p.iX4.Y >.4 = O : 6 U M > 4 4 1 6 4 i m 5 6 7 7 5 4 7 i i 6 6 6 i a a i i 6 5 5 5 6 6 6 i u 7 7 4 ; 2 4 u 6 7 4 4 1 = ; * 4 . . X 2 S.I.8.W K U . . . o = 6 5 u u 4 i i i 5 = 4 # . . . . . L a.Z.0.Q Q U.U.6 5 6 j 2 . . . . o + v i = M i 4 4 ; ; 4 4 4 4 5 4 u m + o o = 1 1 4 4 ; : ; : i = #                                                                                                                                                             ",
"                                                                                                                                                                                                                                                                                                                                                                                                                                    o = 4 = = = M D N 4 O @ o . . . . . . . + D v 5 5 5 4 4 i I I ; = o + M v = 1 1 4 u 4 5 4 4 5 m i 5 i i i j 4 5 i K pX:XY 7.7.>.o.r.s.M i @ = K 6.7.Y B B M B M j @ # . . # K B B v v K i.b 6 2 4 5 5 u u a G p u u u u = o . . @ 3 9 / S.xXj.z.C.M.A.l.j.T.l.A.S.dXC.# % 0 5./ ( C.A.gXiXY 3.> o . o # > o.i B N B D D D D m u , @ o . . . M Q sX3.3.6.v 5 o = 1 m 5 4 4 4 4 = = = = = = = = > = = ; ; ; ; 1 2 < 4 1 = = = = = = = = = ; ; = ; = = = = = = = = = * & * + o o X 2 J.J.p.K Z U X . . # o 6 M i M M M M M 6 4 4 > o . . . . 6 Q H.0.P A I.U.9 v 6 v 6 . . o o o + N N S i 5 = 4 4 5 u 4 4 u 5 4 4 i N = o o = ; 4 4 ; ; ; = m = X                                                                                                                                                             ",
"                                                                                                                                                                                                                                                                                                                                                                                                                                    o 1 5 = = = i M H 5 * + O o . . . . . . . i 6 6 4 5 4 4 6 K J : * o . z 4 2 2 1 1 u u 4 4 4 4 m i 4 6 i i 6 2 4 6 B pXK.d.y.7.6.6.i.s.j 2 o 5 7.Y T D B B M B M v 5 O o . # v B K v j K s.6 5 2 5 4 u a g g u a t u u t ; o . . o @ 3 9 l.dXY.T.M.C.A.C.l.C.C.S.D.nXxXC 8 3 Q 4.4.j.h.lXiXL >.> . . o # = m 4 * = @ @ @ @ @ = = 4 @ . . . . 6 K hXQ Y Q v 5 o O = 2 4 < u ; = = = 4 + + O + + @ * + @ @ @ @ + * * : * * & & = + + + + O O O O O O o O @ @ @ = O # # * * O o o + 5 S.D.M.L K U . . . # . @ = @ o o o o o . . o @ # . . . . 6 B J.0.V Z I.U.w B 9 b 5 . . o o o + N N z 4 = @ 4 4 4 u u u u 4 5 5 4 D = o o + 2 5 4 ; ; ; = m =                                                                                                                                                               ",
"                                                                                                                                                                                                                                                                                                                                                                                                                                    o ; 4 = = = = 4 I 5 + = = @ . . . . . . o = 6 v 6 4 2 4 u D G : : = . = 7 z 2 2 5 u u u u 4 6 m i = 5 4 5 4 2 4 4 i 7.m.vXd.Y 3.6.a.f.2 @ 2 K m.i.B K M K M j M j v 6 O . 2 6 V K b i V p.j 6 5 5 u a l c g s f y t a t < o . . o = 2 3 Z Q vXE.C.C.q.z.S.z.C.I.A.BXSXq.3 8 3 ! Q 0.5.mXkXB Q 2 . o # # * O # o o . . . . . . . > @ . . . . 4 B gXQ L T B 5 . . + = 5 4 1 = = = @ @ O o + + @ # = * * = @ + + * @ + = = = = = * O O O O * * @ @ @ = @ @ O * # o o # O O # . . o 5 N.Z.J.L K U o . . o . . . . . . . . . . . . + o . . . . 8 9 U.a.Q A Z.U.Q Y v B 6 . . . . o @ D i : 4 4 O ; 4 4 u u u u 1 1 1 4 m = . o . = 2 ; ; ; ; ; m =                                                                                                                                                               ",
"                                                                                                                                                                                                                                                                                                                                                                                                                                    o 4 5 = = = * 4 K i i 1 = + o . . . . . . o 2 v 6 4 5 7 7 D D : : = o . 4 z 2 1 i 6 4 7 4 5 6 z i = = 4 6 6 2 2 2 6 B 6. Xy.Y 3.f.y.7.= . O > d.B.y.H i B B L Y B j 6 = . X X v B K j V p.j i 4 4 u p S y [ ^.$.f g a t < o . o o # @ 2 w P vXaXS.C.A.z.j.z.lXY.C.z.C.DX4.3 % W P q.4.mXxXB Y B 6 o . o o o o o o . . . . . . . . . . . . . 4 M gX/ Q Y U 6 . . . o O O o o o . . . . . . . o o o o o o . . . . . . . o o . o o o o . o o o o . . o o o O # o . o o o # o . . . 5 4.p.J.U K U > o . # . . . . . . . . . . . . o . . . . . # 3 J.M./ L 0.a.>.y.n B 6 . . . . o = H N 4 4 = o + 4 4 u u u u < < 1 4 m 1 = . . + = ; ; = ; 4 G 4                                                                                                                                                               ",
"                                                                                                                                                                                                                                                                                                                                                                                                                                    o 4 5 * * * + 4 D m M = = @ o . . . . . . . @ M j 5 5 u 7 D D = * * o . 5 v 5 5 i i u 4 4 4 4 z i = = 4 i 5 2 2 5 6 j 3. Xd.6.6.x.r.U o . o 2 U 8.N.I B B D Y 3.K v i 4 X . . 6 v B v H p.v i 5 u u p g ' /.+X^.d g p < ; o . 1 . X @ 2 9 b gXiXfXA.z.C.M.C.lXsXl.l.j.SXC.W % C A q./ mXvXV Y I v . . . o + + + = + o o . . . o . . . . o + 2 v sXe.0.3.>.B o . . . . o . . . . . . . . . . . . o . . . . . . . . . . . . . . . . . . . . . . . . . . o o o o . o o o o . . . o 5 K 5.W./ Q >.6 2 o o o . . . + + o o o o + X . . . . . . X 2 Z.M.w.L ! 4.h.h.v B 6 . . . . o O z i 4 ; : # . = 4 u u u u < 1 1 1 i u 4 o . . * : : = ; 4 B 5 X                                                                                                                                                             ",
"                                                                                                                                                                                                                                                                                                                                                                                                                                    o 4 4 + + @ + 4 4 H D @ = = = # o . . . . . @ 6 j i i u i D D O * * o . 7 i m v i i i 4 5 5 4 i i = = 4 5 2 2 2 5 6 6 b 0.G.K.f.m.7.2 o . @ v M 7.K.Y M K K H 6 K B 5 v > . . v 6 2 v V 8.M 6 5 u x u r [ 1XyXOXd g S ; ; o + i = . # $ v 9 0.l.SXS.l.C.D.kXJ.q._ j.A.GXbXl.. % 0 / Q BXbXZ Q U B o . . o & - : 1 1 < 1 = = = o o . . . o + 1 6 A.D.C.4./ B . . . . . . . . . . . . . . o o o o o . . . . . . . . . . . . . . o . . . o . . . . . . . . . . o o o . . . . . . o > j Y W.4.3.4.j 5 # o o o o 1 1 = = ; = = = = . . . . . . o # P a.C.Z B Q gXZ.9 b 2 . . . . o + i 4 = = = O o ; 4 u u u u 1 < < ; ; i 7 X . o * : ; : ; 4 N 5 X                                                                                                                                                             ",
"                                                                                                                                                                                                                                                                                                                                                                                                                                    o 4 u + + + + 4 1 H D @ = 1 = # o . . . . . . X i M 5 i M D D * * * + o o + m x = 4 u i 4 = u 4 6 = = = 4 2 2 5 5 i j b Y H.:XH.f.3.o . = = i 5 M s.B.m.U U B B 3.U H M 6 4 . 2 $ 2 6 B U v 5 4 u p u r [ `.}.^.d g G t ; o + 5 b 5 X X 9 b b Z vXgXvXS.C.A.l.e.k.S.Y.U.xXiXW # 8 P ! BXbXL 3.Y B @ . . o & - : u ; < ; & & * * o . . . o + 1 i Q iXA.Y 3.K 6 o . . . o O @ @ @ @ @ = = = = 1 = = = = @ @ = = = @ = = = 1 = 1 = = = = = = = @ = = = = = = = = = 4 4 4 5 5 2 = o # v Y iX5./ 3.M 9 @ o o + 1 = * : ; ; ; : : = + . . . . . o X b h.K.4.0.p.gXC.9 b 2 . . . . o + i 4 = = = * o 4 u u u u < 1 < ; ; = 4 i X . o * ; ; ; ; u S 5 X                                                                                                                                                             ",
"                                                                                                                                                                                                                                                                                                                                                                                                                                    o 4 5 + + + + + 5 B i v 2 = = # o . . . . . . . 6 v 5 i M m m * * : + o o . M m 4 5 5 4 4 4 2 6 4 = = = 4 5 4 5 5 6 i j v M.kXkX3.K o . @ 2 2 5 5 B K.B.K U H K 6.>.Y B j 6 . o @ 5 3 B U 6 4 u u a u ; r [ $.[ s g y r * o o 2 M 6 . X 9 v 9 0 U.xXnXA.C.e.e.k.C.Q.T.C.sXfXS.# q A ( VXmX/ 3.3.I . . . . o & 4 4 ; i = : & * & o . . . . * , 6 w sXK.3.7.Y B . . . o @ 2 2 2 2 6 6 i 6 i z j i i 6 6 i 6 6 6 6 6 6 6 6 6 6 6 6 6 6 6 6 i i v j 6 i i i i 4 i j j v v 6 6 6 @ @ . 6 P iXq.3.U V v o o o @ 1 * + ; 4 4 + = = ; = . . . . . X X 3 a.U.l.a.M.U.M.v v 2 . . . . o * i 4 4 1 ; 1 4 u u p p 4 u u 1 ; ; ; 4 u = . . o 4 ; ; ; u S 2 .                                                                                                                                                             ",
"                                                                                                                                                                                                                                                                                                                                                                                                                                    o 4 5 + + + * O = u v I 4 = = # o . . . . . . o O v 2 i N z 4 : : & & o o o M N m 5 4 4 4 4 6 6 4 = = 2 4 4 4 5 4 i i j v >.r.d.D 6 o o @ 2 2 2 5 4 G.h.G.Y 3.y.K U >.I M 4 @ . . . 6 M I 6 4 t ; u p ..r - - r ....r - & o o 1 j H H X # > b v / xXDXC.C.j.j.I.sXk.k.S.S.lXkXe % % C S.T.j.5.7.K . . . . o & = ; 1 4 < = : ; ; o . . . . * 4 6 j bXmXsXd.0.Q . o 6 6 B T o.2.2.3.y.d.7.r.r.r.8.8.7.6.6.6.6.6.6.6.3.3.3.3.>.7.6.6.6.6.6.6.6.6.7.8.8.8.6.6.3.6.7.U 3.7.3.o.Y b 5 . 6 P E.C.l.T V v o o o @ 1 * + 1 4 2 + = ; & = + o . . . X # 5 0.H.kXB.a.h.a.3.6 2 . . . . o * 5 4 ; = : 1 u m u u u m m m i u ; = 1 u ; X . o u ; ; ; u N 4 X                                                                                                                                                             ",
"                                                                                                                                                                                                                                                                                                                                                                                                                                    o 4 5 + O O * * * = m I u 2 2 = + o o . . . . . @ i 6 j i i j @ = : & o o o = i D 5 4 4 2 4 4 i 6 = > 5 4 4 4 4 5 6 6 i v 6.8.o.i 5 o + = 6 7 5 5 5 3.m.aX5.4.6.7.U U >.U 5 5 @ # . 2 v K 6 = t t t a g a l g g g t - * o o o 2 2 B D 3 X > 9 b V I.xXzXY.I.iXI.D.z.S.I.Q.fXbXS.$ % 0 E.sXgXi.4.L . . . . o & : ; ; ; 1 1 = ; ; + . . . . * 4 6 6 sXiXM.4.P K . o = 2 j B B B D I Y o.T o.o.T Y Y D D D D D D D D K D D N N K H D K I K K K I I I K K K K D B B N B B B M M j @ o @ V J.W.Z.Y Y D o o o + 1 = * = 5 4 & : : : = + . . . . o . 5 3.h.I./ V L L 3.8 # . . . . o * 5 4 = = = 4 p p ; u u S u u ; u u u = u i . . o u ; ; : = m 4 X                                                                                                                                                             ",
"                                                                                                                                                                                                                                                                                                                                                                                                                                    # 4 5 + + + * * * = i T i 4 2 = = o o o . . . . o = i v 4 m i @ : : * # o . . i D 4 4 5 4 5 5 i 6 2 > 5 4 4 4 4 4 6 6 i v 6.r.6 i = o # = 5 7 5 5 5 5 s.lXm.0.P 7.8.K U K v i = . . > j >.5 4 u u u t u p a a g y & * + o o o 2 2 M U B % @ 5 b b l.C.GXxXQ.sXS.0.C.Q.Q.dXdXcXBX9 8 0 aXkXVXh.4.U 2 . . . o & : ; ; ; ; 1 < ; ; o . . . . + , 4 v N.M.K 9 v B . . . . @ 2 2 2 2 5 6 6 6 4 6 4 4 4 5 5 4 4 4 2 2 2 2 2 2 2 = 4 4 4 4 2 4 4 4 4 4 4 4 4 4 4 2 2 2 = = = = = = = . o # v 0.gXsXU 4.D . . . o : = * = 4 4 ; : = : : + . . . . o . 6 K 4.h.v > 6 B K O . . . . . o * 5 4 = ; 4 p i u 4 u i u < & + 4 u u ; u i . . o u 1 ; : ; p ; X                                                                                                                                                             ",
"                                                                                                                                                                                                                                                                                                                                                                                                                                    O 7 4 + + + = * = = u u D N 1 = = + o . . . . . . . 5 v 2 i i = : : * + # . . i m 6 5 5 4 5 6 i 6 2 4 4 5 5 5 4 4 j i i v 3.i.i i = o o = 4 4 4 5 5 5 D h.4.w.Y U 3.d.L Y Y 6 i > . . @ 6 4 = ; ; < u a t * : - & o * o o o # 2 2 2 i 3.v O 2 6 w w Z mXbXE.z.l.Q.fXdXsXQ.W.Q.DXlXl.$ a.I.SXm.4.L M X . . o & : ; 1 < < < < ; ; o . . . . + 2 4 v i.6.v i M B . . . . . . . . . . . X X o o o o o o o X X o o . . . . . . . o X X . . o . X . . . o o o o o o o o . . . . . . . o = 6 8.0.0.b Y B . . . o & = = = 4 5 4 & = = : + . . . . o . 2 V / B.b > 5 M Y = . . . . . + : 4 4 ; = = u : 4 4 i i * : d f r : G i i i . . o u ; 4 = 1 i 4 X                                                                                                                                                             ",
"                                                                                                                                                                                                                                                                                                                                                                                                                                    # 4 5 + + = 2 o * * 4 4 I B 2 5 4 = o . . . . . . . 2 i v 6 i : * * * @ # . . = 6 b 5 5 2 4 i i 4 2 > 4 4 4 4 4 u v 6 6 v 3.i.4 4 @ . o = 5 4 4 5 6 v j j U.M.P Y Q 3.3.T D D 6 5 2 . . > = * ; ; ; ; ; : & & o o o o o o o # 2 5 2 5 H B j @ 3 6 v v lXbXbXl.I.dXY.Q.Q.Q.E.aXKXmXM.% j.C.vXa.3.>.L o . . o & : 1 1 < < < = ; 4 + o . . . X 2 4 j 0.7.v v M b o . . . . . . . . . . . . . . . o o o . . . . o . . . . . . . . . . . . . . . . . . . o o o o o o o . . . . . . o o ; 6 8.4.4.j V v X . . . & ; ; ; 1 4 4 : @ ; : o . . . . o . 5 B Q H.M 2 3 M Y > . . . . . + : u 4 ; ; : = u ; 1 u a o r *.`. .r G p p a . . o u ; ; 4 5 a 4 #                                                                                                                                                             ",
"                                                                                                                                                                                                                                                                                                                                                                                                                                    O 7 5 + + @ 1 + O * = 7 o.B 4 4 5 5 + . . . . . . . . # b 4 = * * * * + o . . . o M 6 2 4 i u 4 4 5 = > 4 5 4 u u 6 5 6 v 3.i.4 = O o # = 5 5 5 4 7 i 6 2 jXK.L Q K B y.L H D H m 4 o o o # * : + O + + + + o o o o o o o o o 5 2 2 2 5 Y Y X 4 6 6 6 L aXSXsXsXE.E.Q.Q.E.E.gXKXSXh.X 0.a.fX0.4.7.Y o . . o * : ; < < < u = ; 1 + o . . . X 2 2 j 0.7.v v M b o . . . . . . . . . . . . . . . . . o . . o o o o . o o o o o o o . . o o o o o o o . . o o o o o o . . . . . . o o ; i 8.6.3.i B w . . . . * ; ; ; 1 4 u : @ & = = . . . . o . 2 n P H.M 2 3 M Y > o . . . . o - u 4 ; ; 1 4 m 4 1 i a * r /.<X=.r G p x p . . o 4 = + 2 u u = %                                                                                                                                                             ",
"                                                                                                                                                                                                                                                                                                                                                                                                                                    # 4 4 + + + + + # * = 1 i D T i 4 5 + . . . . . . . . # B u u * * * @ o . . . . X v M v 5 2 5 4 4 4 4 = = 4 4 7 6 4 5 4 B o.8.= = O o . = 4 i 6 7 6 i 6 6 3.h.sX3.L V B H B Y Y K j i 6 + @ o o o . . o o o o . . . . . . o @ 5 > > 2 5 K K O @ > 5 6 n p.I.VXlXI.Q.sXiXU.SXHX0.L 6 # ! q.sX0.0.w.4.X . . o & & ; < < < < 1 4 4 o o o . . X $ > 6 8.7.N v j i . . o @ = 6 i 5 = @ 2 v 4 6 5 6 i i i i i i i i i i i i i u i i i i i i i i i j j i i i 6 j M 4 5 i i 4 @ @ . . o & 4 i 0.i.y.B B j . . . . @ ; : : ; 4 u @ * 4 = o . . . . o . 2 b A Z.K 6 5 M Y > o . . . . o & 4 5 u 4 4 i i 4 4 4 p + r #.#.f r ..F S m . . o = : : : = = # X                                                                                                                                                             ",
"                                                                                                                                                                                                                                                                                                                                                                                                                                    # 4 4 + + + * + + = = 2 i D o.i 5 5 = o . . . . . . . . 3 i 7 * * * # . . . . . . 2 v v 5 5 7 7 4 4 4 = > 5 5 5 4 4 4 4 m K r.= O . o O 2 4 i 6 7 6 6 i 6 D v.hXY L V H L h.o.Q Y D i v 4 5 o . . . . . . . . . . . . . . X @ 5 > = 2 2 B U 5 = . 5 9 w ( C.FXbXI.Q.fXaXDXvXhXQ M $ @ W Q U.Y Y Q Q X . . o * & ; 1 ; 1 1 1 4 4 O o . . . . $ > 6 8.7.U v v i . . o * = u 4 = o . = 4 5 = @ @ = 2 4 4 4 1 1 4 4 4 4 4 4 4 ; ; 4 4 4 4 4 4 4 4 4 4 4 4 5 5 2 . # @ 5 4 @ @ X . o & 4 i 7.7.Q V B 9 . . . . @ ; : : ; 4 u @ * : * + . . . o o . 2 b Z M.V 5 5 M Y > o . . . . o & ; 4 4 4 u ; 4 1 ; 1 u 4 = t r y a O.S m i . . o = * * = = * . X                                                                                                                                                             ",
"                                                                                                                                                                                                                                                                                                                                                                                                                                    # 4 4 + + + + + + * = 2 i M 3.i u 5 2 4 . . . . . . . . . 6 i + + # o . . . . . . o i 6 2 5 6 7 4 4 > > 2 5 5 5 4 > > 2 v I 6.@ o . . # 4 i 5 5 7 4 6 i 6 4 3.B.Q >.V L U i.d.3.o.I H N p i 5 O @ @ @ + O o o . o . . . . o o 5 > > 2 2 v I v 2 . > v b B L IXSXE.sXlXkXIXMXv v 2 # $ K Z C.L V V P X . . o & * ; ; ; 4 1 & ; 1 O o o . . . > > 6 8.3.D v v i . . o * ; u = o o o . . 6 = O + # # O O : : = = = = : & * : : : = = * : : 2 : : = : * 2 6 O . . . . @ 2 2 O # . o & 4 i 4.U K 6 B v . . . o * = : : ; 4 u ; : + = = o . . o o . > b V h.V 5 5 v U 2 o . . . . + & ; 1 ; = 4 = 1 : = = 1 p 4 & : g G X.p p 5 . . o # @ O o + . . .                                                                                                                                                             ",
"                                                                                                                                                                                                                                                                                                                                                                                                                                    # 4 4 1 @ O + + * @ * 2 4 i I D i 5 5 4 o . . . . . . . . o + o o o o . . . . . . . 5 b 6 6 6 6 4 4 > > > > 4 5 4 > > 2 v I 3.@ o . o # 4 i 5 = 5 i 6 5 4 6 M B pXm.L Y Y H hXh.3.>.o.Y D m i i 4 u N i 4 ; 4 = + o . . . o # 2 > 2 2 2 2 6 K 6 . > v b B V gXsXcXBXKXPXZ.H B 2 X Q i.K 6 8.B 9 B L . . o o & = ; ; ; < ; : ; 1 + o o . . . > > 9 8.3.b v v i . . o + ; u = o X . . o o 4 = O * O # # + : = : = = : + * : : : = = = : : = : * : @ u 1 . . . o . . . O 2 = # . o + ; i 7.U L 6 B v . . . . # = : : : 4 4 ; : 4 = @ . . . o o . > b V d.B 3 3 j I = . . . . . + : < ; = = 4 4 + : = = 4 u a S G ..F p i x 6 . . . . o o . . . o @ 2                                                                                                                                                           ",
"                                                                                                                                                                                                                                                                                                                                                                                                                                    # 4 4 4 = O + + + + # 2 5 i N R D i 4 4 @ . . . . . . . . . o o o o o . . . . . . . 2 i D 5 6 6 7 4 = = = 4 4 4 4 = 2 4 v H 3.@ o . . O 4 6 2 @ 5 v 6 5 4 4 j v B.G.d.T Y 3.3.Z.v.7.Y K I B m l p p S S m u 5 = = = @ @ o o o = > 2 2 > = = K b X $ 9 b n V q.kXDXVXBXkXi.j 2 # n Y Y b 6 5.V v B V . . o o & : ; ; ; ; 1 4 ; ; + o o . . . $ > 6 7.>.B i v 9 . . o * = i = o X . . . . 4 6 O * : O O : : = : = = : = : : : : = = = * = = : * * : i 2 o o . o . . . . = = # . o & ; 6 3.U L 6 B v . X . . o = = = = ; 4 ; : 4 = + . . . o o . 2 b K d.B 3 3 j B # . . . . . . & ; ; = ; < 4 = ; = = 4 4 4 u i S S u u p 5 . . . . . . . . o $ 2 6                                                                                                                                                           ",
"                                                                                                                                                                                                                                                                                                                                                                                                                                    O 4 4 = @ # + + o o # 4 1 4 4 L N v 4 5 @ . . . . . . . . . o . . . . . . . . . . . . = K 5 6 6 6 5 = = = , u 6 4 = 4 4 i I 7.= o . . O 4 i = = 5 i 5 2 = 2 j 5 d.G.jXY Q >.3.8.i.a.6.>.3.V D K N N N D D i 4 4 5 4 5 4 . o o . 2 = = > > 2 L K K O # 6 b V V dXIXKXbXY b 3 $ b 5.5.B 3 6 0.H b H B . . X o & & & : : * ; ; ; O o o o . . . $ > 6 Y o.K 6 v j . . o o = m + o X . . o . 2 6 O * = * * : ; = = ; ; : = ; = : - = ; = = = = = * * * 4 4 o o . o . . . . = = o . o & 4 5 U U K 4 b j . o o o o * = * * : 4 5 4 u * o . . . o o . 2 v P i.B 2 9 b M o . . . . . . & & ; u i u u 4 4 4 4 4 4 4 u u u u u a 4 o . . . . . . . X 2 2 6 6 6 #                                                                                                                                                       ",
"                                                                                                                                                                                                                                                                                                                                                                                                                                    O 4 4 = = # + + o + + 4 = * * I N i 4 5 2 = o . . . . . . . . . . . . . . . . . . . . @ H 6 4 6 6 6 2 = = = 5 5 4 = 4 4 i D 6.= o . o O 4 i = 2 = 2 i 2 = 2 i 5 U B.U.3.3.Q L SXFXDXhXpXU.B.Z.K.f.7.7.7.>.6.o.o.o.O.o.B 5 = o o 2 2 2 = 2 4 6 B Y @ X 2 v b B E.VXM.5.6 O . @ 4.8.H 6 3 6 0.V b H B . X . o + * & * = + : : O o o o . . . X = 2 i 3.3.b 6 v j . . o + = m @ . . . . o . ; 6 o O = * : - : = = ; ; : = ; : ; ; ; ; ; = = = = * * * 4 4 o o . o . . . 5 5 = o . o & 4 5 Y Y K 6 V j . o o o o + + + o * = = = + o . . . . o o o = v Q 7.M 3 v b B o . . . . . . o * : : = = @ + O * = @ * ; = ; : ; ; ; o . . o o o o O @ @ = 4 6 6 j v                                                                                                                                                       ",
"                                                                                                                                                                                                                                                                                                                                                                                                                                    O 4 5 1 * + + + o + + * = + * D B m 2 4 5 5 o . . . . . . . . . . . . . . . . . . . . o i v i 2 6 6 = = + > u 5 4 = 4 i i D 6.= o . o = 4 6 1 1 = 2 4 4 = 5 5 6 5 d.K.J.a.8.U.nXSXbXJ.Z.m.d.x.m.y.3.3.>.U U o.o.T T I m i ; + . @ 5 4 2 4 5 2 M Y 6 # @ 6 b C C.bXq.b = . > 6 4.3.j 3 5 v 8.Y B B B . X . . . o o o o o o * o o o o . . . o = 2 v 4.7.D M b j . . . o = i 2 o . . . . = 5 > @ = @ = = = 2 2 2 2 = = 4 4 4 = = = ; ; 4 4 : : = = = 4 5 = . . o . . > j 6 @ o o # & = 5 Y U U b V v . X . . o o . . . . o + o . . . . . . o o o 4 b Q 4.M 3 6 9 B # . . . . . . . . # @ * # o o o o o o o o o o o o o o . . o o o + = = = = 4 4 4 v v v 4                                                                                                                                                     ",
"                                                                                                                                                                                                                                                                                                                                                                                                                                    # 4 4 1 * + + + + + + * * + = M v H 4 i 5 5 o . . . . . . . . . . . . @ . . . . . . . . X M v 5 6 6 = = @ 5 u 5 4 = 5 4 6 I 7.> # o o 1 4 6 1 1 = 2 5 4 4 5 5 5 6 v 8.mXD.J.LXv.Y 4.B M v v v m M v v v 7 6 i z m m i i u u = . o 1 2 5 2 2 2 M I U $ . 6 b n e.S.b 2 @ . i 3.3.v 6 3 5 b y.Y H B B . . . . . . o o o o o o o o o . . . . o = 2 v 7.7.o.M M j . . . X + 4 6 o . . . o j 2 2 2 2 4 4 4 4 5 5 5 5 5 5 6 u 5 5 5 5 5 4 4 u = = 4 > = = 2 6 # o o o 2 M 5 > o o o o & * 5 Y Y U b K v o o . . o . . . . . . . . . . . . . . . + o 4 b Q 4.b 3 6 9 B # . . . . . . . . . o . . . . . . . . . . o . . . . . . o o o + * = 1 1 4 5 1 4 v v v B j                                                                                                                                                   ",
"                                                                                                                                                                                                                                                                                                                                                                                                                                    X 7 4 = * + + + + + + + + O * 2 v o.i 4 2 2 5 o . . . . . . X . . O # @ # o . . . . . . o 6 v v 5 u i = = 2 i 5 5 4 4 6 i I 7.> o . o 1 4 6 = = = = 5 2 5 4 5 5 6 6 B M.vXvXH.K B m 4 5 4 4 4 5 2 2 1 = = = = = 4 4 4 ; ; = = . . + 4 5 5 2 2 5 6 3.j > # 6 n e.C.b $ . 2 Z U v v 5 9 j M U H v M M . . . o o : * = * # O + o o # . . . . . @ 1 v 7.7.B b M j . . . . . @ 1 2 = 2 2 4 = + @ O @ @ + + + + + + + + + + + + + + + + + + + o X + + + + + @ 2 2 2 2 4 2 > . . o o o & : 5 Y L T 6 K M # o o o # o . . . . . o o + + @ @ o o . o o 4 B 3.Q b 3 6 9 B # . . . . . . . . . . . . . . . . . . . . . . . . . . . . o = 4 = 4 1 4 4 5 1 4 i a z m M M                                                                                                                                                 ",
"                                                                                                                                                                                                                                                                                                                                                                                                                                    # 7 4 = * + + + + + + + + # = # i U M 4 6 4 5 @ . . . . . . . . . @ = @ = = . . . . . . . 6 v v 4 u 4 , > = i 5 2 4 4 7 i I 6.> o o o 1 1 7 = = = = 5 2 2 5 4 5 5 j v J.hXMX6 B 6 u , = : = * @ + + + + + + + # * = ; ; = = = . . o 7 5 4 2 2 2 5 Y K v . 5 b 8.l.v $ . i H 3.i 6 6 6 v b 7.K M M v X . o * : 1 = u 1 ; 4 = = = 2 > = @ . . o 1 B 7.7.D b B j . . . . . . o @ = = = + o . . . . . . . . . . . . . . . . . . . . . . . . . . . . . . . o @ = = = = @ X o . . o o & : 5 U L Y b H M o o o + = o + = = * = 4 4 2 1 2 = = o o o # 3 b Y >.B 9 9 j B o . . . . . . . . . . . . o # # o o o o X . . o . . . . @ * = ; 4 5 4 4 4 1 = 4 4 i m m m N =                                                                                                                                               ",
"                                                                                                                                                                                                                                                                                                                                                                                                                                    # 4 4 = = @ + + + + + + + # = = 5 j D N i 6 5 = o o . . . . . . # 2 5 * = = . . . . . . . 5 v v i 4 2 5 2 = i 4 > 4 4 4 i I 6.2 o o o 1 1 4 1 = = = 5 4 4 4 7 5 5 2 o.DXG.B i 2 = = : ; = = = = @ + + + + + + O = = = ; = ; = o . o 4 4 4 2 5 5 5 5 8.>.X 5 v 4.h.0 % . i L o.6 z 6 i m b a.T B N v X . O 4 u i H o.o.o.I D D D I M 6 2 @ . . @ v >.4.0.M B j . . . . . . . o o o . . X . . . . . . . . . . . . . . . . . . . . . . . . . . . . . . . . . . . . . . o o o . . o o = 6 U U >.B B v o o o + 4 m z i i v v B D K K D M z o o o o 2 v K 4.B 9 9 v B o . . . . . . . . . . o + @ @ @ = 2 2 2 : + * = + + o = 4 5 5 4 4 4 4 4 i = @ 4 4 i N m u 5 +                                                                                                                                               ",
"                                                                                                                                                                                                                                                                                                                                                                                                                                    # 5 i = ; 4 + + o o + + + o = 2 2 2 I M 2 5 6 5 # . . . . . . . = 5 4 * = * . . . . . . . . O 5 m 5 5 5 = = i 4 > = > 4 6 I 6.5 o o o 1 1 4 1 = * = = 5 4 5 6 5 2 > H pX8.D 5 = = = = = = B N N N i 4 5 N u < < ; u u ; & : : o . o u 4 4 4 5 5 5 5 6.K . = v 3.h.3 # . 4 v L 6 v v v v b p.I b H B . . . + > 2 4 4 4 4 4 4 4 4 i 4 = @ o . . X v 3.8.B n M v . . . . . . . . . . . . . . X . . . . . . . . . . . . . . . . . . . . . . . . . . . . . . . . . O = @ o o o . . o o ; 5 U >.o.9 b j . o o @ = 4 4 1 = = @ = 2 2 2 = @ @ + o . o 2 v U 7.D 9 9 j B o . . . . . . . . . o o = = o * = i u u 4 = 4 4 4 4 4 4 4 u u i z B i m D i 4 4 4 4 4 4 5 5 +                                                                                                                                               ",
"                                                                                                                                                                                                                                                                                                                                                                                                                                      6 4 i 4 = + + + o + + + # = = = = o.m i 4 6 4 = . o . . . . . = 4 6 ; = O . . . . . . . . . 2 N 4 4 5 = = i 7 2 = i 5 4 H 3.4 o o o 1 1 4 1 = * = = = 5 4 6 5 2 2 D H.Y 5 4 = = = = j M >.I N m m G S F F a a S p i 4 4 = + . . o u 4 4 7 4 5 5 2 6.D . @ v 3.d.3 # . 4 j K 6 v v v v b p.I b B M o o o o O @ + = = = = = > = = @ @ @ o . . X v >.7.v M M v X . . . . . . . . o . O O O O @ o . . . . o o o o o o o o o o o o o . . . . . . . . o o . . . o = 4 2 o . . . . o o ; 4 T >.o.9 v 6 . o o O @ = = = = = = 1 2 @ = = @ @ + o . o 2 v U 7.D 5 5 i M o . . . . . . . . . o + ; u < 4 5 v v v i 4 i z 5 5 6 v N N N G D H M B D 4 4 4 4 4 @ = = 4 + @                                                                                                                                             ",
"                                                                                                                                                                                                                                                                                                                                                                                                                                        = m 2 * + o o o o o o = * # # # o.H D 4 4 4 = o . . . . . o # 4 i : o o . . . . . . . . . = D u 5 5 = = i i 4 4 u 4 6 H >.v o . . = 2 5 1 = = = = = 4 4 i = 4 v J m.H 4 4 = * * = D r.,.J G G G G G G G G G G G m u p = * . . o u 4 4 i 5 5 5 4 7.D . # v Q d.3 # . 5 v I i i j j j b 8.B B j j o o o o o . . o @ = = = 2 = o . . . . X X X j Y U 6 v n j . . . . . . # = = @ = 4 4 4 5 5 5 5 5 4 4 4 2 4 4 5 5 5 5 4 4 4 4 2 = = = = = 2 2 > 2 = @ o o o 1 5 = # . o o . o o ; 5 I / Q 9 v 6 . . . . . . o = + # O # # o o o . . . . . . @ v K 6.B 6 6 v B o . . . . . . . . o + + = i 6.S D X.I O.I I o.o.D I X.I I o.O.o.o.o.T U H i 1 = = = = = > 4 o @                                                                                                                                             ",
"                                                                                                                                                                                                                                                                                                                                                                                                                                        = v 4 * + o o o o o o + o # # # M D T 2 > = 2 O . . . . o O & 4 i * O o . . . . . . . . . @ i u 4 5 2 = i i u 4 6 5 6 M >.M o . . = 2 4 = = = = * = = 4 2 2 = v I i.M 4 2 = * + O.o.k u u h h ; ; : : : & & * * : & ; ; : . . o 4 ; 4 4 5 5 4 6 3.B . # v Q d.2 o . 5 j K 6 i j j j b 7.B 6 j j o o . . . . . . . # o o @ o . . . . o . X X 9 Q Q v 9 v 6 . . . . @ @ + @ * = 2 7 4 5 5 5 4 4 5 4 4 4 = 4 4 4 4 4 u u 4 4 4 4 4 = = = = = = = = 4 = = o o @ = 4 = O o . . o o = 6 L / Q 9 v 6 . . . . . . . . o . o o o o . o . o . . . . o 6 B 6.D 6 6 6 M o . . . . . . . # # + + ; a 7.D M m m N m D M N m D m D D D D D D B m m i K 6 * = = = = , 5 o #                                                                                                                                             ",
"                                                                                                                                                                                                                                                                                                                                                                                                                                        @ v 2 * * o # o o o + o + + + = 6 B U 2 2 4 = = . . . . o @ + 4 i = * o . . . . . . . . . o @ M v 5 5 4 7 4 6 i 4 6 i B o.D o . . = = = = = = = = = 1 1 , 5 > m D 7.M 4 = * * i I T u 2 O & O + + o o o & & o o + & + = : o o o ; ; 4 5 6 5 4 i >.H X @ v Y a.2 # . 3 j K 5 j v v v b Y M v i j o . . . . . o o o # # # . . o o o o o . . X 9 >.6.b 6 6 6 . . . = 5 = @ # = = = 4 4 5 4 4 u i u 4 4 4 4 4 4 4 4 4 4 4 4 5 4 4 4 4 5 5 4 4 = * * = 1 = O o o O 4 = = . . . o o ; 6 L / Y 9 v 6 X . . . . . o o o o o o . . . . . . o . . . . i K 7.B 6 6 6 v o . . . . . . o # @ @ 4 p G o.F m a u u i M i 5 i m i u u u u u u u 5 4 5 N i > + = = = , 5 o #                                                                                                                                             ",
"                                                                                                                                                                                                                                                                                                                                                                                                                                        @ v 1 = * + # o o + + o + + O = = N Y i i 5 = 2 . . . . o @ + 4 i = * o . . . . o . . . . . o b 6 O 5 u u u 5 5 2 6 i B o.D o . o * = = = = = = = = 4 5 4 = = M D 3.v = * + = D i i 1 * o o o o o o o o & & o o o o o o = o o o ; ; 4 4 5 5 u i o.Z X = v U i.2 X . 3 j K i 6 i i 6 6 B v M 9 i o . . . . . . . . o . . . . . o o o o o o @ m Q 3.v 5 6 6 . . . 1 v i O # = = = = 4 4 4 4 4 u u 5 5 4 4 4 4 4 4 4 4 5 5 5 4 * 4 4 5 4 4 4 = * * = 4 7 = o o # = = + . . . o o ; 6 K 3.U 9 b 6 X o . o . o o o o . o o o . . . . o = # . . . v Y 7.B 6 6 6 m X . . . . . . o # @ 4 i S 7.; : = = ; : = 4 = ; ; ; : = : ; ; : ; : * * * 1 v D 4 = = = 4 7 o X                                                                                                                                             ",
"                                                                                                                                                                                                                                                                                                                                                                                                                                        @ v 1 = + = # O + + + o + + + = = b T D M 4 = = o . . . o * * 4 4 o * o . . . . o o . . . . . v v 6 5 5 4 4 5 4 = 5 i B o.D o . o O = 1 = = = = = 1 5 5 4 = = M D Y i * O + ; v p i & o o - - - - r r r r - r - & + o o o o o & ; ; u 4 5 5 4 i >.Z X @ v U i.2 o . 3 v K b 6 5 5 6 6 7.M j j v + . o @ = = = = = 2 5 5 2 2 2 5 5 2 2 @ o O # Q Q 9 5 9 6 . . o 1 5 M 2 O = = = = 4 4 4 4 4 4 u 4 4 5 5 5 4 1 1 4 4 4 4 4 4 u 4 4 4 4 < 4 = * * = = 4 = o o # + = @ . . . o o ; 6 K Q U 9 b j o o + o o o * * * * = 4 6 = @ @ @ = = O . . . M Y 6.B 7 6 6 M X . . . . . o o # @ 4 I I i : ; * ; : : < u u u u u u u y u t t u t = = : + 4 5 D 4 : ; 4 4 O X                                                                                                                                             ",
"                                                                                                                                                                                                                                                                                                                                                                                                                                        @ i i 4 + = + + + + + o * + # O = 4 i o.j 5 5 4 2 + . . . + : u 4 o # o . . . o o o o o o . . 2 6 v 5 5 5 2 5 5 2 2 j B >.D o o o o = 4 u = = = 1 1 1 4 > 4 4 M D U i = * + = D x u o o & r s s ' ' ' ' ' ' [ s - & o o . . . o g u u 5 5 4 5 6 >.Z X > v Q d.5 + . 3 v Y B 9 5 4 5 M K B v M H @ o @ = i i 5 i v m v v M M M i i N j 2 # o o U Y B 9 v i X . o @ 5 M M 6 > = = > 4 4 4 4 4 5 5 5 4 4 5 5 4 1 1 4 4 7 7 4 4 7 7 4 4 5 u 4 1 = * = = 5 = = . o o : = o . . o o ; 6 U Y P B K M # . = O = 1 1 4 u i i i i v 6 5 5 6 6 4 = . X j L 3.D v v j B o . . . X . o # 4 u N D N ; * & : t t t t a g g c c c c c g y t r t 4 = * + * = D j k , , 5 @ #                                                                                                                                             ",
"                                                                                                                                                                                                                                                                                                                                                                                                                                        @ i M 2 = # + + + + + o * + + O = = 4 K v 5 4 6 6 = . . . o * i 4 o # o . . . o o # # o o . . o 5 v 6 5 5 2 2 5 4 5 j B >.D o o o o @ i m 2 = = 1 4 5 4 > > 4 M D U i = * * = D x u o o r s ' [ #.$.$.$.$.$.$.[ s - o . . . . o g h u 4 4 4 5 6 >.Z X > v Q d.5 + . 3 v Y 6 9 5 2 2 B B B H H H + # = @ B B M B K o.N N I >.o.N I o.K 5 O o o Y L L b B i X . o o 2 B H v = = 4 i 4 4 5 4 u u 7 7 4 5 4 5 4 4 4 4 4 4 7 4 i i i 4 4 5 4 u 5 4 ; + * 5 2 2 . . o * = O . . o o ; i Q Q L L L M X . O O 4 u i N D H K D D >.D M M B M v 2 . . 2 M 3.H M M v B o . . . X . o O j B R i = = & ; ; p p g c G c c } } } } } ..g g g g i u * + = = 4 B D , , 5 @ %                                                                                                                                             "
};
