/* XPM */
static char *_ee07b7e15304788e176fdf6de78c70fRZXwG8NrZqy1vM1T[] = {
/* columns rows colors chars-per-pixel */
"640 640 245 2 ",
"   c None",
".  c #030305",
"X  c #05050B",
"o  c #08070B",
"O  c #07080E",
"+  c #0A090E",
"@  c #080607",
"#  c #110D0E",
"$  c #060612",
"%  c #070812",
"&  c #0C0C13",
"*  c #0C0D1A",
"=  c #06081B",
"-  c #100F13",
";  c #100F19",
":  c #0F101B",
">  c #0F1016",
",  c #131116",
"<  c #15141A",
"1  c #18171B",
"2  c #1B1A1D",
"3  c #191616",
"4  c #14100F",
"5  c #211D1D",
"6  c #231C15",
"7  c #26211E",
"8  c #33291D",
"9  c #080C25",
"0  c #0D1228",
"q  c #141523",
"w  c #1D1C23",
"e  c #1D1D29",
"r  c #151729",
"t  c #050D35",
"y  c #0B1438",
"u  c #161B36",
"i  c #211F23",
"p  c #201F29",
"a  c #1D2138",
"s  c #1F2029",
"d  c #242225",
"f  c #292525",
"g  c #2D2826",
"h  c #24232A",
"j  c #29262B",
"k  c #2C2A2C",
"l  c #27282D",
"z  c #322D2D",
"x  c #322B25",
"c  c #35302E",
"v  c #3A332C",
"b  c #242433",
"n  c #2D2B32",
"m  c #2C2C3B",
"M  c #252638",
"N  c #312E32",
"B  c #302F3B",
"V  c #343234",
"C  c #3A3534",
"Z  c #3E3936",
"A  c #35333A",
"S  c #39363A",
"D  c #3C3A3C",
"F  c #2F303E",
"G  c #423D3C",
"H  c #423B36",
"J  c #463B2B",
"K  c #46413E",
"L  c #49423E",
"P  c #4C4235",
"I  c #584A34",
"U  c #63543D",
"Y  c #091847",
"T  c #131D44",
"R  c #071B57",
"E  c #0D1A4D",
"W  c #192448",
"Q  c #0B2458",
"!  c #172857",
"~  c #0E2953",
"^  c #272B46",
"/  c #353443",
"(  c #3D3B42",
")  c #393848",
"_  c #283358",
"`  c #363B56",
"'  c #282F50",
"]  c #061D67",
"[  c #0A2768",
"{  c #152C65",
"}  c #19336A",
"|  c #082877",
" . c #0C3678",
".. c #173777",
"X. c #0E306F",
"o. c #273868",
"O. c #263D72",
"+. c #413E42",
"@. c #403F4A",
"#. c #294379",
"$. c #374978",
"%. c #38466B",
"&. c #2C4267",
"*. c #454244",
"=. c #4A4544",
"-. c #4E4946",
";. c #45434A",
":. c #49464A",
">. c #4D4A4C",
",. c #524D4C",
"<. c #514A46",
"1. c #56504E",
"2. c #59524F",
"3. c #4D4B52",
"4. c #464656",
"5. c #514E52",
"6. c #514F59",
"7. c #555253",
"8. c #5A5554",
"9. c #5E5856",
"0. c #55535A",
"q. c #5A565A",
"w. c #5D595B",
"e. c #4F505E",
"r. c #625D5C",
"t. c #615A56",
"y. c #66605E",
"u. c #69625E",
"i. c #5B5A63",
"p. c #4C526E",
"a. c #625E61",
"s. c #615F68",
"d. c #656163",
"f. c #6A6564",
"g. c #6E6866",
"h. c #6A666A",
"j. c #6E696A",
"k. c #65636A",
"l. c #736D6C",
"z. c #716A66",
"x. c #76706E",
"c. c #7A726E",
"v. c #6B6973",
"b. c #726E72",
"n. c #767172",
"m. c #7B7573",
"M. c #7E7876",
"N. c #7E797A",
"B. c #79757A",
"V. c #5C627A",
"C. c #827A75",
"Z. c #837D7B",
"A. c #837975",
"S. c #8A827E",
"D. c #86807E",
"F. c #052A87",
"G. c #0C3887",
"H. c #163B85",
"J. c #073598",
"K. c #093295",
"L. c #063AA7",
"P. c #053DB3",
"I. c #233984",
"U. c #184488",
"Y. c #174996",
"T. c #124C94",
"R. c #294886",
"E. c #2F5392",
"W. c #1656A7",
"Q. c #0645B8",
"!. c #114FAE",
"~. c #2859A8",
"^. c #1A67B2",
"/. c #2F6BB1",
"(. c #33649A",
"). c #55678D",
"_. c #717589",
"`. c #4875AF",
"'. c #4B5D88",
"]. c #054AC7",
"[. c #0658D6",
"{. c #0A54CD",
"}. c #116BD1",
"|. c #2D73CC",
" X c #0359ED",
".X c #0567E7",
"XX c #0269F6",
"oX c #0378F7",
"OX c #0977EA",
"+X c #297BE6",
"@X c #3A72C5",
"#X c #837E81",
"$X c #368AD2",
"%X c #0588F7",
"&X c #0698F9",
"*X c #1190EF",
"=X c #07A7FA",
"-X c #08B7FB",
";X c #16AEF8",
":X c #2DB1F6",
">X c #2790E4",
",X c #4D90D0",
"<X c #52B0E9",
"1X c #60A4DD",
"2X c #09C7FB",
"3X c #17D7FC",
"4X c #12CDFB",
"5X c #2FD3FB",
"6X c #33E6FC",
"7X c #1CE2FC",
"8X c #4ED4F9",
"9X c #6CD2F7",
"0X c #58E9FB",
"qX c #47E9FC",
"wX c #6EEBFB",
"eX c #5B86B6",
"rX c #8B8583",
"tX c #8B8686",
"yX c #928A85",
"uX c #938D8B",
"iX c #928984",
"pX c #98918E",
"aX c #9B9593",
"sX c #9B9695",
"dX c #8F8C92",
"fX c #A39D9B",
"gX c #A19996",
"hX c #A7A19E",
"jX c #ABA5A3",
"kX c #ABA6A5",
"lX c #B2ACAA",
"zX c #BBB6B4",
"xX c #B7B1AE",
"cX c #A49FA0",
"vX c #C2BCBB",
"bX c #C5C1BF",
"nX c #8FEEFB",
"mX c #AFF1FB",
"MX c #94D5F4",
"NX c #C9C6C5",
"BX c #D5D3D1",
"VX c #CFF5FA",
"CX c #E8F7F7",
"ZX c #E0DFDE",
"AX c #96BADA",
/* pixels */
"                                                                                                                                                                                                                                                                                                                                                                                                                                                                                                                                                                                                                                                                                                                                                                                                                                                                                                                                                                                                                                                                                                                                                                                                                                                                                                                                ",
"                                                                                                                                                                                                                                                                                                                                                                                                                                                                                                                                                                                                                                                                                                                                                                                                                                                                                                                                                                                                                                                                                                                                                                                                                                                                                                                                ",
"                                                                                                                                                                                                                                                                                                                                                                                                                                                                                                                                                                                                                                                                                                                                                                                                                                                                                                                                                                                                                                                                                                                                                                                                                                                                                                                                ",
"                                                                                                                                                                                                                                                                                                                                                                                                                                                                                                                                                                                                                                                                                                                                                                                                                                                                                                                                                                                                                                                                                                                                                                                                                                                                                                                                ",
"                                                                                                                                                                                                                                                                                                                                                                                                                                                                                                                                                                                                                                                                                                                                                                                                                                                                                                                                                                                                                                                                                                                                                                                                                                                                                                                                ",
"                                                                                                                                                                                                                                                                                                                                                                                                                                                                                                                                                                                                                                                                                                                                                                                                                                                                                                                                                                                                                                                                                                                                                                                                                                                                                                                                ",
"                                                                                                                                                                                                                                                                                                                                                                                                                                                                                                                                                                                                                                                                                                                                                                                                                                                                                                                                                                                                                                                                                                                                                                                                                                                                                                                                ",
"                                                                                                                                                                                                                                                                                                                                                                                                                                                                                                                                                                                                                                                                                                                                                                                                                                                                                                                                                                                                                                                                                                                                                                                                                                                                                                                                ",
"                                                                                                                                                                                                                                                                                                                                                                                                                                                                                                                                                                                                                                                                                                                                                                                                                                                                                                                                                                                                                                                                                                                                                                                                                                                                                                                                ",
"                                                                                                                                                                                                                                                                                                                                                                                                                                                                                                                                                                                                                                                                                                                                                                                                                                                                                                                                                                                                                                                                                                                                                                                                                                                                                                                                ",
"                                                                                                                                                                                                                                                                                                                                                                                                                                                                                                                                                                                                                                                                                                                                                                                                                                                                                                                                                                                                                                                                                                                                                                                                                                                                                                                                ",
"                                                                                                                                                                                                                                                                                                                                                                                                                                                                                                                                                                                                                                                                                                                                                                                                                                                                                                                                                                                                                                                                                                                                                                                                                                                                                                                                ",
"                                                                                                                                                                                                                                                                                                                                                                                                                                                                                                                                                                                                                                                                                                                                                                                                                                                                                                                                                                                                                                                                                                                                                                                                                                                                                                                                ",
"                                                                                                                                                                                                                                                                                                                                                                                                                                                                                                                                                                                                                                                                                                                                                                                                                                                                                                                                                                                                                                                                                                                                                                                                                                                                                                                                ",
"                                                                                                                                                                                                                                                                                                                                                                                                                                                                                                                                                                                                                                                                                                                                                                                                                                                                                                                                                                                                                                                                                                                                                                                                                                                                                                                                ",
"                                                                                                                                                                                                                                                                                                                                                                                                                                                                                                                                                                                                                                                                                                                                                                                                                                                                                                                                                                                                                                                                                                                                                                                                                                                                                                                                ",
"                                                                                                                                                                                                                                                                                                                                                                                                                                                                                                                                                                                                                                                                                                                                                                                                                                                                                                                                                                                                                                                                                                                                                                                                                                                                                                                                ",
"                                                                                                                                                                                                                                                                                                                                                                                                                                                                                                                                                                                                                                                                                                                                                                                                                                                                                                                                                                                                                                                                                                                                                                                                                                                                                                                                ",
"                                                                                                                                                                                                                                                                                                                                                                                                                                                                                                                                                                                                                                                                                                                                                                                                                                                                                                                                                                                                                                                                                                                                                                                                                                                                                                                                ",
"                                                                                                                                                                                                                                                                                                                                                                                                                                                                                                                                                                                                                                                                                                                                                                                                                                                                                                                                                                                                                                                                                                                                                                                                                                                                                                                                ",
"                                                                                                                                                                                                                                                                                                                                                                                                                                                                                                                                                                                                                                                                                                                                                                                                                                                                                                                                                                                                                                                                                                                                                                                                                                                                                                                                ",
"                                                                                                                                                                                                                                                                                                                                                                                                                                                                                                                                                                                                                                                                                                                                                                                                                                                                                                                                                                                                                                                                                                                                                                                                                                                                                                                                ",
"                                                                                                                                                                                                                                                                                                                                                                                                                                                                                                                                                                                                                                                                                                                                                                                                                                                                                                                                                                                                                                                                                                                                                                                                                                                                                                                                ",
"                                                                                                                                                                                                                                                                                                                                                                                                                                                                                                                                                                                                                                                                                                                                                                                                                                                                                                                                                                                                                                                                                                                                                                                                                                                                                                                                ",
"                                                                                                                                                                                                                                                                                                                                                                                                                                                                                                                                                                                                                                                                                                                                                                                                                                                                                                                                                                                                                                                                                                                                                                                                                                                                                                                                ",
"                                                                                                                                                                                                                                                                                                                                                                                                                                                                                                                                                                                                                                                                                                                                                                                                                                                                                                                                                                                                                                                                                                                                                                                                                                                                                                                                ",
"                                                                                                                                                                                                                                                                                                                                                                                                                                                                                                                                                                                                                                                                                                                                                                                                                                                                                                                                                                                                                                                                                                                                                                                                                                                                                                                                ",
"                                                                                                                                                                                                                                                                                                                                                                                                                                                                                                                                                                                                                                                                                                                                                                                                                                                                                                                                                                                                                                                                                                                                                                                                                                                                                                                                ",
"                                                                                                                                                                                                                                                                                                                                                                                                                                                                                                                                                                                                                                                                                                                                                                                                                                                                                                                                                                                                                                                                                                                                                                                                                                                                                                                                ",
"                                                                                                                                                                                                                                                                                                                                                                                                                                                                                                                                                                                                                                                                                                                                                                                                                                                                                                                                                                                                                                                                                                                                                                                                                                                                                                                                ",
"                                                                                                                                                                                                                                                                                                                                                                                                                                                                                                                                                                                                                                                                                                                                                                                                                                                                                                                                                                                                                                                                                                                                                                                                                                                                                                                                ",
"                                                                                                                                                                                                                                                                                                                                                                                                                                                                                                                                                                                                                                                                                                                                                                                                                                                                                                                                                                                                                                                                                                                                                                                                                                                                                                                                ",
"                                                                                                                                                                                                                                                                                                                                                                                                                                                                                                                                                                                                                                                                                                                                                                                                                                                                                                                                                                                                                                                                                                                                                                                                                                                                                                                                ",
"                                                                                                                                                                                                                                                                                                                                                                                                                                                                                                                                                                                                                                                                                                                                                                                                                                                                                                                                                                                                                                                                                                                                                                                                                                                                                                                                ",
"                                                                                                                                                                                                                                                                                                                                                                                                                                                                                                                                                                                                                                                                                                                                                                                                                                                                                                                                                                                                                                                                                                                                                                                                                                                                                                                                ",
"                                                                                                                                                                                                                                                                                                                                                                                                                                                                                                                                                                                                                                                                                                                                                                                                                                                                                                                                                                                                                                                                                                                                                                                                                                                                                                                                ",
"                                                                                                                                                                                                                                                                                                                                                                                                                                                                                                                                                                                                                                                                                                                                                                                                                                                                                                                                                                                                                                                                                                                                                                                                                                                                                                                                ",
"                                                                                                                                                                                                                                                                                                                                                                                                                                                                                                                                                                                                                                                                                                                                                                                                                                                                                                                                                                                                                                                                                                                                                                                                                                                                                                                                ",
"                                                                                                                                                                                                                                                                                                                                                                                                                                                                                                                                                                                                                                                                                                                                                                                                                                                                                                                                                                                                                                                                                                                                                                                                                                                                                                                                ",
"                                                                                                                                                                                                                                                                                                                                                                                                                                                                                                                                                                                                                                                                                                                                                                                                                                                                                                                                                                                                                                                                                                                                                                                                                                                                                                                                ",
"                                                                                                                                                                                                                                                                                                                                                                                                                                                                                                                                                                                                                                                                                                                                                                                                                                                                                                                                                                                                                                                                                                                                                                                                                                                                                                                                ",
"                                                                                                                                                                                                                                                                                                                                                                                                                                                                                                                                                                                                                                                                                                                                                                                                                                                                                                                                                                                                                                                                                                                                                                                                                                                                                                                                ",
"                                                                                                                                                                                                                                                                                                                                                                                                                                                                                                                                                                                                                                                                                                                                                                                                                                                                                                                                                                                                                                                                                                                                                                                                                                                                                                                                ",
"                                                                                                                                                                                                                                                                                                                                                                                                                                                                                                                                                                                                                                                                                                                                                                                                                                                                                                                                                                                                                                                                                                                                                                                                                                                                                                                                ",
"                                                                                                                                                                                                                                                                                                                                                                                                                                                                                                                                                                                                                                                                                                                                                                                                                                                                                                                                                                                                                                                                                                                                                                                                                                                                                                                                ",
"                                                                                                                                                                                                                                                                                                                                                                                                                                                                                                                                                                                                                                                                                                                                                                                                                                                                                                                                                                                                                                                                                                                                                                                                                                                                                                                                ",
"                                                                                                                                                                                                                                                                                                                                                                                                                                                                                                                                                                                                                                                                                                                                                                                                                                                                                                                                                                                                                                                                                                                                                                                                                                                                                                                                ",
"                                                                                                                                                                                                                                                                                                                                                                                                                                                                                                                                                                                                                                                                                                                                                                                                                                                                                                                                                                                                                                                                                                                                                                                                                                                                                                                                ",
"                                                                                                                                                                                                                                                                                                                                                                                                                                                                                                                                                                                                                                                                                                                                                                                                                                                                                                                                                                                                                                                                                                                                                                                                                                                                                                                                ",
"                                                                                                                                                                                                                                                                                                                                                                                                                                                                                                                                                                                                                                                                                                                                                                                                                                                                                                                                                                                                                                                                                                                                                                                                                                                                                                                                ",
"                                                                                                                                                                                                                                                                                                                                                                                                                                                                                                                                                                                                                                                                                                                                                                                                                                                                                                                                                                                                                                                                                                                                                                                                                                                                                                                                ",
"                                                                                                                                                                                                                                                                                                                                                                                                                                                                                                                                                                                                                                                                                                                                                                                                                                                                                                                                                                                                                                                                                                                                                                                                                                                                                                                                ",
"                                                                                                                                                                                                                                                                                                                                                                                                                                                                                                                                                                                                                                                                                                                                                                                                                                                                                                                                                                                                                                                                                                                                                                                                                                                                                                                                ",
"                                                                                                                                                                                                                                                                                                                                                                                                                                                                                                                                                                                                                                                                                                                                                                                                                                                                                                                                                                                                                                                                                                                                                                                                                                                                                                                                ",
"                                                                                                                                                                                                                                                                                                                                                                                                                                                                                                                                                                                                                                                                                                                                                                                                                                                                                                                                                                                                                                                                                                                                                                                                                                                                                                                                ",
"                                                                                                                                                                                                                                                                                                                                                                                                                                                                                                                                                                                                                                                                                                                                                                                                                                                                                                                                                                                                                                                                                                                                                                                                                                                                                                                                ",
"                                                                                                                                                                                                                                                                                                                                                                                                                                                                                                                                                                                                                                                                                                                                                                                                                                                                                                                                                                                                                                                                                                                                                                                                                                                                                                                                ",
"                                                                                                                                                                                                                                                                                                                                                                                                                                                                                                                                                                                                                                                                                                                                                                                                                                                                                                                                                                                                                                                                                                                                                                                                                                                                                                                                ",
"                                                                                                                                                                                                                                                                                                                                                                                                                                                                                                                                                                                                                                                                                                                                                                                                                                                                                                                                                                                                                                                                                                                                                                                                                                                                                                                                ",
"                                                                                                                                                                                                                                                                                                                                                                                                                                                                                                                                                                                                                                                                                                                                                                                                                                                                                                                                                                                                                                                                                                                                                                                                                                                                                                                                ",
"                                                                                                                                                                                                                                                                                                                                                                                                                                                                                                                                                                                                                                                                                                                                                                                                                                                                                                                                                                                                                                                                                                                                                                                                                                                                                                                                ",
"                                                                                                                                                                                                                                                                                                                                                                                                                                                                                                                                                                                                                                                                                                                                                                                                                                                                                                                                                                                                                                                                                                                                                                                                                                                                                                                                ",
"                                                                                                                                                                                                                                                                                                                                                                                                                                                                                                                                                                                                                                                                                                                                                                                                                                                                                                                                                                                                                                                                                                                                                                                                                                                                                                                                ",
"                                                                                                                                                                                                                                                                                                                                                                                                                                                                                                                                                                                                                                                                                                                                                                                                                                                                                                                                                                                                                                                                                                                                                                                                                                                                                                                                ",
"                                                                                                                                                                                                                                                                                                                                                                                                                                                                                                                                                                                                                                                                                                                                                                                                                                                                                                                                                                                                                                                                                                                                                                                                                                                                                                                                ",
"                                                                                                                                                                                                                                                                                                                                                                                                                                                                                                                                                                                                                                                                                                                                                                                                                                                                                                                                                                                                                                                                                                                                                                                                                                                                                                                                ",
"                                                                                                                                                                                                                                                                                                                                                                                                                                                                                                                                                                                                                                                                                                                                                                                                                                                                                                                                                                                                                                                                                                                                                                                                                                                                                                                                ",
"                                                                                                                                                                                                                                                                                                                                                                                                                                                                                                                                                                                                                                                                                                                                                                                                                                                                                                                                                                                                                                                                                                                                                                                                                                                                                                                                ",
"                                                                                                                                                                                                                                                                                                                                                                                                                                                                                                                                                                                                                                                                                                                                                                                                                                                                                                                                                                                                                                                                                                                                                                                                                                                                                                                                ",
"                                                                                                                                                                                                                                                                                                                                                                                                                                                                                                                                                                                                                                                                                                                                                                                                                                                                                                                                                                                                                                                                                                                                                                                                                                                                                                                                ",
"                                                                                                                                                                                                                                                                                                                                                                                                                                                                                                                                                                                                                                                                                                                                                                                                                                                                                                                                                                                                                                                                                                                                                                                                                                                                                                                                ",
"                                                                                                                                                                                                                                                                                                                                                                                                                                                                                                                                                                                                                                                                                                                                                                                                                                                                                                                                                                                                                                                                                                                                                                                                                                                                                                                                ",
"                                                                                                                                                                                                                                                                                                                                                                                                                                                                                                                                                                                                                                                                                                                                                                                                                                                                                                                                                                                                                                                                                                                                                                                                                                                                                                                                ",
"                                                                                                                                                                                                                                                                                                                                                                                                                                                                                                                                                                                                                                                                                                                                                                                                                                                                                                                                                                                                                                                                                                                                                                                                                                                                                                                                ",
"                                                                                                                                                                                                                                                                                                                                                                                                                                                                                                                                                                                                                                                                                                                                                                                                                                                                                                                                                                                                                                                                                                                                                                                                                                                                                                                                ",
"                                                                                                                                                                                                                                                                                                                                                                                                                                                                                                                                                                                                                                                                                                                                                                                                                                                                                                                                                                                                                                                                                                                                                                                                                                                                                                                                ",
"                                                                                                                                                                                                                                                                                                                                                                                                                                                                                                                                                                                                                                                                                                                                                                                                                                                                                                                                                                                                                                                                                                                                                                                                                                                                                                                                ",
"                                                                                                                                                                                                                                                                                                                                                                                                                                                                                                                                                                                                                                                                                                                                                                                                                                                                                                                                                                                                                                                                                                                                                                                                                                                                                                                                ",
"                                                                                                                                                                                                                                                                                                                                                                                                                                                                                                                                                                                                                                                                                                                                                                                                                                                                                                                                                                                                                                                                                                                                                                                                                                                                                                                                ",
"                                                                                                                                                                                                                                                                                                                                                                                                                                                                                                                                                                                                                                                                                                                                                                                                                                                                                                                                                                                                                                                                                                                                                                                                                                                                                                                                ",
"                                                                                                                                                                                                                                                                                                                                                                                                                                                                                                                                                                                                                                                                                                                                                                                                                                                                                                                                                                                                                                                                                                                                                                                                                                                                                                                                ",
"                                                                                                                                                                                                                                                                                                                                                                                                                                                                                                                                                                                                                                                                                                                                                                                                                                                                                                                                                                                                                                                                                                                                                                                                                                                                                                                                ",
"                                                                                                                                                                                                                                                                                                                                                                                                                                                                                                                                                                                                                                                                                                                                                                                                                                                                                                                                                                                                                                                                                                                                                                                                                                                                                                                                ",
"                                                                                                                                                                                                                                                                                                                                                                                                                                                                                                                                                                                                                                                                                                                                                                                                                                                                                                                                                                                                                                                                                                                                                                                                                                                                                                                                ",
"                                                                                                                                                                                                                                                                                                                                                                                                                                                                                                                                                                                                                                                                                                                                                                                                                                                                                                                                                                                                                                                                                                                                                                                                                                                                                                                                ",
"                                                                                                                                                                                                                                                                                                                                                                                                                                                                                                                                                                                                                                                                                                                                                                                                                                                                                                                                                                                                                                                                                                                                                                                                                                                                                                                                ",
"                                                                                                                                                                                                                                                                                                                                                                                                                                                                                                                                                                                                                                                                                                                                                                                                                                                                                                                                                                                                                                                                                                                                                                                                                                                                                                                                ",
"                                                                                                                                                                                                                                                                                                                                                                                                                                                                                                                                                                                                                                                                                                                                                                                                                                                                                                                                                                                                                                                                                                                                                                                                                                                                                                                                ",
"                                                                                                                                                                                                                                                                                                                                                                                                                                                                                                                                                                                                                                                                                                                                                                                                                                                                                                                                                                                                                                                                                                                                                                                                                                                                                                                                ",
"                                                                                                                                                                                                                                                                                                                                                                                                                                                                                                                                                                                                                                                                                                                                                                                                                                                                                                                                                                                                                                                                                                                                                                                                                                                                                                                                ",
"                                                                                                                                                                                                                                                                                                                                                                                                                                                                                                                                                                                                                                                                                                                                                                                                                                                                                                                                                                                                                                                                                                                                                                                                                                                                                                                                ",
"                                                                                                                                                                                                                                                                                                                                                                                                                                                                                                                                                                                                                                                                                                                                                                                                                                                                                                                                                                                                                                                                                                                                                                                                                                                                                                                                ",
"                                                                                                                                                                                                                                                                                                                                                                                                                                                                                                                                                                                                                                                                                                                                                                                                                                                                                                                                                                                                                                                                                                                                                                                                                                                                                                                                ",
"                                                                                                                                                                                                                                                                                                                                                                                                                                                                                                                                                                                                                                                                                                                                                                                                                                                                                                                                                                                                                                                                                                                                                                                                                                                                                                                                ",
"                                                                                                                                                                                                                                                                                                                                                                                                                                                                                                                                                                                                                                                                                                                                                                                                                                                                                                                                                                                                                                                                                                                                                                                                                                                                                                                                ",
"                                                                                                                                                                                                                                                                                                                                                                                                                                                                                                                                                                                                                                                                                                                                                                                                                                                                                                                                                                                                                                                                                                                                                                                                                                                                                                                                ",
"                                                                                                                                                                                                                                                                                                                                                                                                                                                                                                                                                                                                                                                                                                                                                                                                                                                                                                                                                                                                                                                                                                                                                                                                                                                                                                                                ",
"                                                                                                                                                                                                                                                                                                                                                                                                                                                                                                                                                                                                                                                                                                                                                                                                                                                                                                                                                                                                                                                                                                                                                                                                                                                                                                                                ",
"                                                                                                                                                                                                                                                                                                                                                                                                                                                                                                                                                                                                                                                                                                                                                                                                                                                                                                                                                                                                                                                                                                                                                                                                                                                                                                                                ",
"                                                                                                                                                                                                                                                                                                                                                                                                                                                                                                                                                                                                                                                                                                                                                                                                                                                                                                                                                                                                                                                                                                                                                                                                                                                                                                                                ",
"                                                                                                                                                                                                                                                                                                                                                                                                                                                                                                                                                                                                                                                                                                                                                                                                                                                                                                                                                                                                                                                                                                                                                                                                                                                                                                                                ",
"                                                                                                                                                                                                                                                                                                                                                                                                                                                                                                                                                                                                                                                                                                                                                                                                                                                                                                                                                                                                                                                                                                                                                                                                                                                                                                                                ",
"                                                                                                                                                                                                                                                                                                                                                                                                                                                                                                                                                                                                                                                                                                                                                                                                                                                                                                                                                                                                                                                                                                                                                                                                                                                                                                                                ",
"                                                                                                                                                                                                                                                                                                                                                                                                                                                                                                                                                                                                                                                                                                                                                                                                                                                                                                                                                                                                                                                                                                                                                                                                                                                                                                                                ",
"                                                                                                                                                                                                                                                                                                                                                                                                                                                                                                                                                                                                                                                                                                                                                                                                                                                                                                                                                                                                                                                                                                                                                                                                                                                                                                                                ",
"                                                                                                                                                                                                                                                                                                                                                                                                                                                                                                                                                                                                                                                                                                                                                                                                                                                                                                                                                                                                                                                                                                                                                                                                                                                                                                                                ",
"                                                                                                                                                                                                                                                                                                                                                                                                                                                                                                                                                                                                                                                                                                                                                                                                                                                                                                                                                                                                                                                                                                                                                                                                                                                                                                                                ",
"                                                                                                                                                                                                                                                                                                                                                                                                                                                                                                                                                                                                                                                                                                                                                                                                                                                                                                                                                                                                                                                                                                                                                                                                                                                                                                                                ",
"                                                                                                                                                                                                                                                                                                                                                                                                                                                                                                                                                                                                                                                                                                                                                                                                                                                                                                                                                                                                                                                                                                                                                                                                                                                                                                                                ",
"                                                                                                                                                                                                                                                                                                                                                                                                                                                                                                                                                                                                                                                                                                                                                                                                                                                                                                                                                                                                                                                                                                                                                                                                                                                                                                                                ",
"                                                                                                                                                                                                                                                                                                                                                                                                                                                                                                                                                                                                                                                                                                                                                                                                                                                                                                                                                                                                                                                                                                                                                                                                                                                                                                                                ",
"                                                                                                                                                                                                                                                                                                                                                                                                                                                                                                                                                                                                                                                                                                                                                                                                                                                                                                                                                                                                                                                                                                                                                                                                                                                                                                                                ",
"                                                                                                                                                                                                                                                                                                                                                                                                                                                                                                                                                                                                                                                                                                                                                                                                                                                                                                                                                                                                                                                                                                                                                                                                                                                                                                                                ",
"                                                                                                                                                                                                                                                                                                                                                                                                                                                                                                                                                                                                                                                                                                                                                                                                                                                                                                                                                                                                                                                                                                                                                                                                                                                                                                                                ",
"                                                                                                                                                                                                                                                                                                                                                                                                                                                                                                                                                                                                                                                                                                                                                                                                                                                                                                                                                                                                                                                                                                                                                                                                                                                                                                                                ",
"                                                                                                                                                                                                                                                                                                                                                                                                                                                                                                                                                                                                                                                                                                                                                                                                                                                                                                                                                                                                                                                                                                                                                                                                                                                                                                                                ",
"                                                                                                                                                                                                                                                                                                                                                                                                                                                                                                                                                                                                                                                                                                                                                                                                                                                                                                                                                                                                                                                                                                                                                                                                                                                                                                                                ",
"                                                                                                                                                                                                                                                                                                                                                                                                                                                                                                                                                                                                                                                                                                                                                                                                                                                                                                                                                                                                                                                                                                                                                                                                                                                                                                                                ",
"                                                                                                                                                                                                                                                                                                                                                                                                                                                                                                                                                                                                                                                                                                                                                                                                                                                                                                                                                                                                                                                                                                                                                                                                                                                                                                                                ",
"                                                                                                                                                                                                                                                                                                                                                                                                                                                                                                                                                                                                                                                                                                                                                                                                                                                                                                                                                                                                                                                                                                                                                                                                                                                                                                                                ",
"                                                                                                                                                                                                                                                                                                                                                                                                                                                                                                                                                                                                                                                                                                                                                                                                                                                                                                                                                                                                                                                                                                                                                                                                                                                                                                                                ",
"                                                                                                                                                                                                                                                                                                                                                                                                                                                                                                                                                                                                                                                                                                                                                                                                                                                                                                                                                                                                                                                                                                                                                                                                                                                                                                                                ",
"                                                                                                                                                                                                                                                                                                                                                                                                                                                                                                                                                                                                                                                                                                                                                                                                                                                                                                                                                                                                                                                                                                                                                                                                                                                                                                                                ",
"                                                                                                                                                                                                                                                                                                                                                                                                                                                                                                                                                                                                                                                                                                                                                                                                                                                                                                                                                                                                                                                                                                                                                                                                                                                                                                                                ",
"                                                                                                                                                                                                                                                                                                                                                                                                                                                                                                                                                                                                                                                                                                                                                                                                                                                                                                                                                                                                                                                                                                                                                                                                                                                                                                                                ",
"                                                                                                                                                                                                                                                                                                                                                                                                                                                                                                                                                                                                                                                                                                                                                                                                                                                                                                                                                                                                                                                                                                                                                                                                                                                                                                                                ",
"                                                                                                                                                                                                                                                                                                                                                                                                                                                                                                                                                                                                                                                                                                                                                                                                                                                                                                                                                                                                                                                                                                                                                                                                                                                                                                                                ",
"                                                                                                                                                                                                                                                                                                                                                                                                                                                                                                                                                                                                                                                                                                                                                                                                                                                                                                                                                                                                                                                                                                                                                                                                                                                                                                                                ",
"                                                                                                                                                                                                                                                                                                                                                                                                                                                                                                                                                                                                                                                                                                                                                                                                                                                                                                                                                                                                                                                                                                                                                                                                                                                                                                                                ",
"                                                                                                                                                                                                                                                                                                                                                                                                                                                                                                                                                                                                                                                                                                                                                                                                                                                                                                                                                                                                                                                                                                                                                                                                                                                                                                                                ",
"                                                                                                                                                                                                                                                                                                                                                                                                                                                                                                                                                                                                                                                                                                                                                                                                                                                                                                                                                                                                                                                                                                                                                                                                                                                                                                                                ",
"                                                                                                                                                                                                                                                                                                                                                                                                                                                                                                                                                                                                                                                                                                                                                                                                                                                                                                                                                                                                                                                                                                                                                                                                                                                                                                                                ",
"                                                                                                                                                                                                                                                                                                                                                                                                                                                                                                                                                                                                                                                                                                                                                                                                                                                                                                                                                                                                                                                                                                                                                                                                                                                                                                                                ",
"                                                                                                                                                                                                                                                                                                                                                                                                                                                                                                                                                                                                                                                                                                                                                                                                                                                                                                                                                                                                                                                                                                                                                                                                                                                                                                                                ",
"                                                                                                                                                                                                                                                                                                                                                                                                                                                                                                                                                                                                                                                                                                                                                                                                                                                                                                                                                                                                                                                                                                                                                                                                                                                                                                                                ",
"                                                                                                                                                                                                                                                                                                                                                                                                                                                                                                                                                                                                                                                                                                                                                                                                                                                                                                                                                                                                                                                                                                                                                                                                                                                                                                                                ",
"                                                                                                                                                                                                                                                                                                                                                                                                                                                                                                                                                                                                                                                                                                                                                                                                                                                                                                                                                                                                                                                                                                                                                                                                                                                                                                                                ",
"                                                                                                                                                                                                                                                                                                                                                                                                                                                                                                                                                                                                                                                                                                                                                                                                                                                                                                                                                                                                                                                                                                                                                                                                                                                                                                                                ",
"                                                                                                                                                                                                                                                                                                                                                                                                                                                                                                                                                                                                                                                                                                                                                                                                                                                                                                                                                                                                                                                                                                                                                                                                                                                                                                                                ",
"                                                                                                                                                                                                                                                                                                                                                                                                                                                                                                                                                                                                                                                                                                                                                                                                                                                                                                                                                                                                                                                                                                                                                                                                                                                                                                                                ",
"                                                                                                                                                                                                                                                                                                                                                                                                                                                                                                                                                                                                                                                                                                                                                                                                                                                                                                                                                                                                                                                                                                                                                                                                                                                                                                                                ",
"                                                                                                                                                                                                                                                                                                                                                                                                                                                                                                                                                                                                                                                                                                                                                                                                                                                                                                                                                                                                                                                                                                                                                                                                                                                                                                                                ",
"                                                                                                                                                                                                                                                                                                                                                                                                                                                                                                                                                                                                                                                                                                                                                                                                                                                                                                                                                                                                                                                                                                                                                                                                                                                                                                                                ",
"                                                                                                                                                                                                                                                                                                                                                                                                                                                                                                                                                                                                                                                                                                                                                                                                                                                                                                                                                                                                                                                                                                                                                                                                                                                                                                                                ",
"                                                                                                                                                                                                                                                                                                                                                                                                                                                                                                                                                                                                                                                                                                                                                                                                                                                                                                                                                                                                                                                                                                                                                                                                                                                                                                                                ",
"                                                                                                                                                                                                                                                                                                                                                                                                                                                                                                                                                                                                                                                                                                                                                                                                                                                                                                                                                                                                                                                                                                                                                                                                                                                                                                                                ",
"                                                                                                                                                                                                                                                                                                                                                                                                                                                                                                                                                                                                                                                                                                                                                                                                                                                                                                                                                                                                                                                                                                                                                                                                                                                                                                                                ",
"                                                                                                                                                                                                                                                                                                                                                                                                                                                                                                                                                                                                                                                                                                                                                                                                                                                                                                                                                                                                                                                                                                                                                                                                                                                                                                                                ",
"                                                                                                                                                                                                                                                                                                                                                                                                                                                                                                                                                                                                                                                                                                                                                                                                                                                                                                                                                                                                                                                                                                                                                                                                                                                                                                                                ",
"                                                                                                                                                                                                                                                                                                                                                                                                                                                                                                                                                                                                                                                                                                                                                                                                                                                                                                                                                                                                                                                                                                                                                                                                                                                                                                                                ",
"                                                                                                                                                                                                                                                                                                                                                                                                                                                                                                                                                                                                                                                                                                                                                                                                                                                                                                                                                                                                                                                                                                                                                                                                                                                                                                                                ",
"                                                                                                                                                                                                                                                                                                                                                                                                                                                                                                                                                                                                                                                                                                                                                                                                                                                                                                                                                                                                                                                                                                                                                                                                                                                                                                                                ",
"                                                                                                                                                                                                                                                                                                                                                                                                                                                                                                                                                                                                                                                                                                                                                                                                                                                                                                                                                                                                                                                                                                                                                                                                                                                                                                                                ",
"                                                                                                                                                                                                                                                                                                                                                                                                                                                                                                                                                                                                                                                                                                                                                                                                                                                                                                                                                                                                                                                                                                                                                                                                                                                                                                                                ",
"                                                                                                                                                                                                                                                                                                                                                                                                                                                                                                                                                                                                                                                                                                                                                                                                                                                                                                                                                                                                                                                                                                                                                                                                                                                                                                                                ",
"                                                                                                                                                                                                                                                                                                                                                                                                                                                                                                                                                                                                                                                                                                                                                                                                                                                                                                                                                                                                                                                                                                                                                                                                                                                                                                                                ",
"                                                                                                                                                                                                                                                                                                                                                                                                                                                                                                                                                                                                                                                                                                                                                                                                                                                                                                                                                                                                                                                                                                                                                                                                                                                                                                                                ",
"                                                                                                                                                                                                                                                                                                                                                                                                                                                                                                                                                                                                                                                                                                                                                                                                                                                                                                                                                                                                                                                                                                                                                                                                                                                                                                                                ",
"                                                                                                                                                                                                                                                                                                                                                                                                                                                                                                                                                                                                                                                                                                                                                                                                                                                                                                                                                                                                                                                                                                                                                                                                                                                                                                                                ",
"                                                                                                                                                                                                                                                                                                                                                                                                                                                                                                                                                                                                                                                                                                                                                                                                                                                                                                                                                                                                                                                                                                                                                                                                                                                                                                                                ",
"                                                                                                                                                                                                                                                                                                                                                                                                                                                                                                                                                                                                                                                                                                                                                                                                                                                                                                                                                                                                                                                                                                                                                                                                                                                                                                                                ",
"                                                                                                                                                                                                                                                                                                                                                                                                                                                                                                                                                                                                                                                                                                                                                                                                                                                                                                                                                                                                                                                                                                                                                                                                                                                                                                                                ",
"                                                                                                                                                                                                                                                                                                                                                                                                                                                                                                                                                                                                                                                                                                                                                                                                                                                                                                                                                                                                                                                                                                                                                                                                                                                                                                                                ",
"                                                                                                                                                                                                                                                                                                                                                                                                                                                                                                                                                                                                                                                                                                                                                                                                                                                                                                                                                                                                                                                                                                                                                                                                                                                                                                                                ",
"                                                                                                                                                                                                                                                                                                                                                                                                                                                                                                                                                                                                                                                                                                                                                                                                                                                                                                                                                                                                                                                                                                                                                                                                                                                                                                                                ",
"                                                                                                                                                                                                                                                                                                                                                                                                                                                                                                                                                                                                                                                                                                                                                                                                                                                                                                                                                                                                                                                                                                                                                                                                                                                                                                                                ",
"                                                                                                                                                                                                                                                                                                                                                                                                                                                                                                                                                                                                                                                                                                                                                                                                                                                                                                                                                                                                                                                                                                                                                                                                                                                                                                                                ",
"                                                                                                                                                                                                                                                                                                                                                                                                                                                                                                                                                                                                                                                                                                                                                                                                                                                                                                                                                                                                                                                                                                                                                                                                                                                                                                                                ",
"                                                                                                                                                                                                                                                                                                                                                                                                                                                                                                                                                                                                                                                                                                                                                                                                                                                                                                                                                                                                                                                                                                                                                                                                                                                                                                                                ",
"                                                                                                                                                                                                                                                                                                                                                                                                                                                                                                                                                                                                                                                                                                                                                                                                                                                                                                                                                                                                                                                                                                                                                                                                                                                                                                                                ",
"                                                                                                                                                                                                                                                                                                                                                                                                                                                                                                                                                                                                                                                                                                                                                                                                                                                                                                                                                                                                                                                                                                                                                                                                                                                                                                                                ",
"                                                                                                                                                                                                                                                                                                                                                                                                                                                                                                                                                                                                                                                                                                                                                                                                                                                                                                                                                                                                                                                                                                                                                                                                                                                                                                                                ",
"                                                                                                                                                                                                                                                                                                                                                                                                                                                                                                                                                                                                                                                                                                                                                                                                                                                                                                                                                                                                                                                                                                                                                                                                                                                                                                                                ",
"                                                                                                                                                                                                                                                                                                                                                                                                                                                                                                                                                                                                                                                                                                                                                                                                                                                                                                                                                                                                                                                                                                                                                                                                                                                                                                                                ",
"                                                                                                                                                                                                                                                                                                                                                                                                                                                                                                                                                                                                                                                                                                                                                                                                                                                                                                                                                                                                                                                                                                                                                                                                                                                                                                                                ",
"                                                                                                                                                                                                                                                                                                                                                                                                                                                                                                                                                                                                                                                                                                                                                                                                                                                                                                                                                                                                                                                                                                                                                                                                                                                                                                                                ",
"                                                                                                                                                                                                                                                                                                                                                                                                                                                                                                                                                                                                                                                                                                                                                                                                                                                                                                                                                                                                                                                                                                                                                                                                                                                                                                                                ",
"                                                                                                                                                                                                                                                                                                                                                                                                                                                                                                                                                                                                                                                                                                                                                                                                                                                                                                                                                                                                                                                                                                                                                                                                                                                                                                                                ",
"                                                                                                                                                                                                                                                                                                                                                                                                                                                                                                                                                                                                                                                                                                                                                                                                                                                                                                                                                                                                                                                                                                                                                                                                                                                                                                                                ",
"                                                                                                                                                                                                                                                                                                                                                                                                                                                                                                                                                                                                                                                                                                                                                                                                                                                                                                                                                                                                                                                                                                                                                                                                                                                                                                                                ",
"                                                                                                                                                                                                                                                                                                                                                                                                                                                                                                                                                                                                                                                                                                                                                                                                                                                                                                                                                                                                                                                                                                                                                                                                                                                                                                                                ",
"                                                                                                                                                                                                                                                                                                                                                                                                                                                                                                                                                                                                                                                                                                                                                                                                                                                                                                                                                                                                                                                                                                                                                                                                                                                                                                                                ",
"                                                                                                                                                                                                                                                                                                                                                                                                                                                                                                                                                                                                                                                                                                                                                                                                                                                                                                                                                                                                                                                                                                                                                                                                                                                                                                                                ",
"                                                                                                                                                                                                                                                                                                                                                                                                                                                                                                                                                                                                                                                                                                                                                                                                                                                                                                                                                                                                                                                                                                                                                                                                                                                                                                                                ",
"                                                                                                                                                                                                                                                                                                                                                                                                                                                                                                                                                                                                                                                                                                                                                                                                                                                                                                                                                                                                                                                                                                                                                                                                                                                                                                                                ",
"                                                                                                                                                                                                                                                                                                                                                                                                                                                                                                                                                                                                                                                                                                                                                                                                                                                                                                                                                                                                                                                                                                                                                                                                                                                                                                                                ",
"                                                                                                                                                                                                                                                                                                                                                                                                                                                                                                                                                                                                                                                                                                                                                                                                                                                                                                                                                                                                                                                                                                                                                                                                                                                                                                                                ",
"                                                                                                                                                                                                                                                                                                                                                                                                                                                                                                                                                                                                                                                                                                                                                                                                                                                                                                                                                                                                                                                                                                                                                                                                                                                                                                                                ",
"                                                                                                                                                                                                                                                                                                                                                                                                                                                                                                                                                                                                                                                                                                                                                                                                                                                                                                                                                                                                                                                                                                                                                                                                                                                                                                                                ",
"                                                                                                                                                                                                                                                                                                                                                                                                                                                                                                                                                                                                                                                                                                                                                                                                                                                                                                                                                                                                                                                                                                                                                                                                                                                                                                                                ",
"                                                                                                                                                                                                                                                                                                                                                                                                                                                                                                                                                                                                                                                                                                                                                                                                                                                                                                                                                                                                                                                                                                                                                                                                                                                                                                                                ",
"                                                                                                                                                                                                                                                                                                                                                                                                                                                                                                                                                                                                                                                                                                                                                                                                                                                                                                                                                                                                                                                                                                                                                                                                                                                                                                                                ",
"                                                                                                                                                                                                                                                                                                                                                                                                                                                                                                                                                                                                                                                                                                                                                                                                                                                                                                                                                                                                                                                                                                                                                                                                                                                                                                                                ",
"                                                                                                                                                                                                                                                                                                                                                                                                                                                                                                                                                                                                                                                                                                                                                                                                                                                                                                                                                                                                                                                                                                                                                                                                                                                                                                                                ",
"                                                                                                                                                                                                                                                                                                                                                                                                                                                                                                                                                                                                                                                                                                                                                                                                                                                                                                                                                                                                                                                                                                                                                                                                                                                                                                                                ",
"                                                                                                                                                                                                                                                                                                                                                                                                                                                                                                                                                                    aXfXfXfXsXpXyXtXtXyXtXrXrXZ.Z.rXtXrX#XZ.Z.N.N.Z.Z.Z.Z.Z.Z.N.M.m.n.n.n.m.B.                                                                                                                                                                                                                                                                                                                                                                                                                                                                                                                                                                                                                                                                                  ",
"                                                                                                                                                                                                                                                                                                                                                                                                                                                                                                                                                                  yXaXfXkXlXkXfXsXpXaXpXuXyXtXrXtXtXtXtXtXtXrXrX#X#XrXrXrXtX#XZ.Z.Z.N.N.N.Z.Z.N.                                                                                                                                                                                                                                                                                                                                                                                                                                                                                                                                                                                                                                                                                ",
"                                                                                                                                                                                                                                                                                                                                                                                                                                                                                                                                                                Z.tXaXjXxXzXxXlXfXgXfXsXsXuXyXtXrXtXdXdXyXtXtXtXrXrXrXtXtXtXrXZ.Z.Z.#X#XtXtXrXN.l.                                                                                                                                                                                                                                                                                                                                                                                                                                                                                                                                                                                                                                                                              ",
"                                                                                                                                                                                                                                                                                                                                                                                                                                                                                                                                                              m.Z.tXsXjXxXzXxXkXfXaXsXsXpXyXrX#XZ.#XtXtXrXrXrX#XN.B.B.N.Z.Z.N.m.m.B.N.N.Z.rXrXB.j.r.                                                                                                                                                                                                                                                                                                                                                                                                                                                                                                                                                                                                                                                                            ",
"                                                                                                                                                                                                                                                                                                                                                                                                                                                                                                                                                            l.m.Z.yXsXkXlXlXjXsXtXrXrXrX#XB.b.j.j.j.l.b.n.n.n.b.h.d.d.h.h.j.f.d.d.f.h.j.b.m.n.l.d.9.8.                                                                                                                                                                                                                                                                                                                                                                                                                                                                                                                                                                                                                                                                          ",
"                                                                                                                                                                                                                                                                                                                                                                                                                                                                                                                                                          g.l.M.tXsXhXjXfXpXrXm.g.d.d.f.d.9.7.7.5.5.7.7.8.q.q.7.,.-.:.>.3.,.>.=.:.>.>.5.8.w.r.9.8.8.8.8.                                                                                                                                                                                                                                                                                                                                                                                                                                                                                                                                                                                                                                                                        ",
"                                                                                                                                                                                                                                                                                                                                                                                                                                                                                                                                                        f.g.m.D.pXfXhXsXtXx.r.,.*.G +.*.+.D S C V V C C S D D S V V N N V V N k k n N V S G *.*.:.,.7.8.7.                                                                                                                                                                                                                                                                                                                                                                                                                                                                                                                                                                                                                                                                      ",
"                                                                                                                                                                                                                                                                                                                                                                                                                                                                                                                                                      f.g.l.Z.uXfXhXsXtXl.7.H z d 5 i d d i w w w 2 2 2 2 w w w w 2 2 2 2 2 1 3 3 < 3 2 i d k V D *.>.7.7.1.                                                                                                                                                                                                                                                                                                                                                                                                                                                                                                                                                                                                                                                                    ",
"                                                                                                                                                                                                                                                                                                                                                                                                                                                                                                                                                    f.j.l.Z.yXfXjXfXtXl.7.G g 5 3 - , , < < < < , , & & & > , , , , - - & & & & & & & - , 2 i j N S *.>.1.1.,.                                                                                                                                                                                                                                                                                                                                                                                                                                                                                                                                                                                                                                                                  ",
"                                                                                                                                                                                                                                                                                                                                                                                                                                                                                                                                                  f.j.l.M.tXsXjXfXyXl.7.G k i 3 - + & , , , , < , & & & & & & & & & & & & & & & & & + o + , 3 w d k C *.-.,.,.<.                                                                                                                                                                                                                                                                                                                                                                                                                                                                                                                                                                                                                                                                ",
"                                                                                                                                                                                                                                                                                                                                                                                                                                                                                                                                                  g.z.x.Z.uXfXfXpXm.8.D k d 3 , , , < 3 3 3 1 1 1 1 < , , > & * < < < < < 1 < < < , , + o + & < 2 d g C K -.>.,.1.                                                                                                                                                                                                                                                                                                                                                                                                                                                                                                                                                                                                                                                              ",
"                                                                                                                                                                                                                                                                                                                                                                                                                                                                                                                                                g.g.g.l.M.tXaXuXN.w.G g d 1 , - < 2 i i w w w w w w w 2 1 1 1 1 1 q q w r w w w 2 2 3 , + o o & < 2 d z C G =.,.7.7.                                                                                                                                                                                                                                                                                                                                                                                                                                                                                                                                                                                                                                                            ",
"                                                                                                                                                                                                                                                                                                                                                                                                                                                                                                                                              r.d.f.f.f.z.m.Z.n.w.*.k d 2 , & , 2 d j j d d d d d d w w w w w w w r r e p d d w w w 2 < , & o + - 3 5 f z S *.>.,.,.-.                                                                                                                                                                                                                                                                                                                                                                                                                                                                                                                                                                                                                                                          ",
"                                                                                                                                                                                                                                                                                                                                                                                                                                                                                                                                            K ,.9.r.r.r.r.r.r.7.+.n d 2 < , , 1 w h j d i i i i w w w 2 2 2 w 2 q w r w w w w w w w 2 1 < < & + o , 2 d g V D *.=.=.+.C                                                                                                                                                                                                                                                                                                                                                                                                                                                                                                                                                                                                                                                         ",
"                                                                                                                                                                                                                                                                                                                                                                                                                                                                                                                                            C *.,.7.8.9.t.8.>.D k d 2 , , , 2 w d d d w 2 1 1 1 1 1 < < < 1 1 1 < < < 1 1 2 1 < < < < 1 1 1 , & o + 3 2 f z S D D D C k w                                                                                                                                                                                                                                                                                                                                                                                                                                                                                                                                                                                                                                                       ",
"                                                                                                                                                                                                                                                                                                                                                                                                                                                                                                                                            z D *.-.1.r.r.8.*.z d 2 < - , 2 d j h w 2 < & * * : q 0 0 0 0 u u u y 0 0 0 0 q : & * * < < 1 2 1 < & o + < i j N V V N k f 2                                                                                                                                                                                                                                                                                                                                                                                                                                                                                                                                                                                                                                                       ",
"                                                                                                                                                                                                                                                                                                                                                                                                                                                                                                                                            k C D *.1.r.u.9.*.z d 2 , & < w h k h w < * = = 9 y y Y E ~ ~ ~ ~ ~ ~ ~ Q E Y y 9 = 9 9 9 : < w w 1 , & o - 3 d j k k j j d 2                                                                                                                                                                                                                                                                                                                                                                                                                                                                                                                                                                                                                                                       ",
"                                                                                                                                                                                                                                                                                                                                                                                                                                                                                                                                            k V D K ,.r.f.r.=.k d 1 - & 1 d j j e q 0 9 9 t y Q Q [  . ...#.U.#. . . .X.[ Q y 9 t Y y 0 : 1 w w < & X o , w f j j j j d 1                                                                                                                                                                                                                                                                                                                                                                                                                                                                                                                                                                                                                                                       ",
"                                                                                                                                                                                                                                                                                                                                                                                                                                                                                                                                            g V Z K ,.r.f.r.=.k d 1 & & 2 d j d r y y Y Y Y Q [  .G.T.T.W.^.^.^.W.T.T.U. .[ Y y Y [ Q Y 0 < w w < & X o , 2 f j j j j d 1                                                                                                                                                                                                                                                                                                                                                                                                                                                                                                                                                                                                                                                       ",
"                                                                                                                                                                                                                                                                                                                                                                                                                                                                                                                                            g V Z *.1.d.g.r.:.z d 1 & & 1 w i w r y E R R E Q X.G.T.T.W.^.^.^.^.^.W.T.T.G.X.Y Y [  . .Q y q 1 q < & X o , w j k k j j i 3                                                                                                                                                                                                                                                                                                                                                                                                                                                                                                                                                                                                                                                       ",
"                                                                                                                                                                                                                                                                                                                                                                                                                                                                                                                                            j V Z *.7.d.j.d.>.N d 2 & & 1 w w q 0 Y Q [ Q R Q X. .H.T.W.~.^.^.^.W.T.T.T.G.[ Y Y [ G.G.[ y 0 < < * & X o , w j n k j d w <                                                                                                                                                                                                                                                                                                                                                                                                                                                                                                                                                                                                                                                       ",
"                                                                                                                                                                                                                                                                                                                                                                                                                                                                                                                                            f z C *.7.f.l.f.>.V f 2 & & < w r q 0 Y R [ Q R R [ X. ...U.U.E.E.E.U.U. . .X.[ Q R [ G.G.[ Y 0 < < < & X o < i n n n k d 2 ,                                                                                                                                                                                                                                                                                                                                                                                                                                                                                                                                                                                                                                                       ",
"                                                                                                                                                                                                                                                                                                                                                                                                                                                                                                                                            f z C *.8.g.l.f.,.V j 2 & & < w q q 0 y E R R R Q [  . . ...U.U.U.U.U. . . . . .X.Q [ X.X.Q Y 0 q q < * $ o < d n N N k d 2 ,                                                                                                                                                                                                                                                                                                                                                                                                                                                                                                                                                                                                                                                       ",
"                                                                                                                                                                                                                                                                                                                                                                                                                                                                                                                                            f z C *.8.g.l.f.,.V f 2 & & < r q q 9 t y Y R [  .G.T.T.T.T.T.T.T.T.T.U.U.T.T.T.U. .Q Q Q Y y 0 q q q * % & 3 h n V N k d 2 ,                                                                                                                                                                                                                                                                                                                                                                                                                                                                                                                                                                                                                                                       ",
"                                                                                                                                                                                                                                                                                                                                                                                                                                                                                                                                            f z C *.8.g.l.f.,.V d 2 & & < r r q 9 9 t Y [ G.T.T.!.!.!.W.W.W.W.W.T.T.T.W.W.W.W.T.[ R Y t 9 0 r r r q & & 3 j n V N k d 2 ,                                                                                                                                                                                                                                                                                                                                                                                                                                                                                                                                                                                                                                                       ",
"                                                                                                                                                                                                                                                                                                                                                                                                                                                                                                                                            j V Z =.8.g.l.f.>.V d 2 & & < r r q 0 t Y [ G.T.!.!.!.!.W.W.W.W.W.W.W.W.W.W.^.^.^.W.G.[ Y y 9 q e e e q & & 1 j N A N j d 2 ,                                                                                                                                                                                                                                                                                                                                                                                                                                                                                                                                                                                                                                                       ",
"                                                                                                                                                                                                                                                                                                                                                                                                                                                                                                                                            z C D =.8.f.l.d.>.V d 2 & & q r e r y Y Q  .T.!.!.!.T.T.T.T.T.T.T.T.T.T.T.T.W.W.^.W.T. .[ y 9 q e b s r * & 2 j V V n j d 2 ,                                                                                                                                                                                                                                                                                                                                                                                                                                                                                                                                                                                                                                                       ",
"                                                                                                                                                                                                                                                                                                                                                                                                                                                                                                                                            C D H =.7.f.j.d.>.N d 2 & & q e u u y Q  .T.W.!.!.T.G. . . . . . . . . . . .U.T.W.W.!.T. .Q y r s M b r * & w j N V k j d 2 <                                                                                                                                                                                                                                                                                                                                                                                                                                                                                                                                                                                                                                                       ",
"                                                                                                                                                                                                                                                                                                                                                                                                                                                                                                                                          G G G G *.7.d.g.r.:.V d 2 & * q e u u T X.T.W.!.W.T. .Q Q Y Q [ | | [ [ Q Q Q Q X.U.T.!.!.T.X.Y r a M b r : & w h N N k d d 2 ,                                                                                                                                                                                                                                                                                                                                                                                                                                                                                                                                                                                                                                                       ",
"                                                                                                                                                                                                                                                                                                                                                                                                                                                                                                                                          G *.G G K ,.r.f.r.=.V j 2 , * r s b u ~  .T.W.!.T. .Q Y t Y R | K.K.F.| R Y t Y R X.U.!.^.W. .Y u M M b r < , w j n n j d d 2 ,                                                                                                                                                                                                                                                                                                                                                                                                                                                                                                                                                                                                                                                       ",
"                                                                                                                                                                                                                                                                                                                                                                                                                                                                                                                                          C G G D G >.r.f.r.,.D z d < : r b b a ! U.W.W.W.U.[ Y t t Y | J.!.!.Q.K.] R t 9 t R  .W.^.^.U.Q u M M M r : < w k V n k j j w <                                                                                                                                                                                                                                                                                                                                                                                                                                                                                                                                                                                                                                                       ",
"                                                                                                                                                                                                                                                                                                                                                                                                                                                                                                                                        f z C D C Z -.r.g.g.9.>.G z 2 < r b b a ! U.W.W.T. .Q t 9 t R G.!.}.}.{.!.F.R t 9 9 Y X.W.^.^.T.Q u a M M e : ; i N D *.S S N j 2                                                                                                                                                                                                                                                                                                                                                                                                                                                                                                                                                                                                                                                       ",
"                                                                                                                                                                                                                                                                                                                                                                                                                                                                                                                                      g d j z V V C -.r.c.M.l.f.7.G d < r s a u ~ U.W.W.Y.} Y t t Y [ J.^.|.$X|.!.K.[ Y 9 9 t [ T.^.^.T.~ u M ^ M e : * i D 7.q.7.>.*.C j                                                                                                                                                                                                                                                                                                                                                                                                                                                                                                                                                                                                                                                       ",
"                                                                                                                                                                                                                                                                                                                                                                                                                                                                                                                          l.M.m.j.r.-.V f f g z z C =.f.Z.yXrXZ.g.,.z 1 r s s u ~ U.W.W.E.} y 9 t Y | Y.|.,X,X$X|.Y.| Y t 9 t ~ T.^.^.T.~ u a ^ M e 9 & d *.d.b.j.a.7.*.V                                                                                                                                                                                                                                                                                                                                                                                                                                                                                                                                                                                                                                                       ",
"                                                                                                                                                                                                                                                                                                                                                                                                                                                                                                                      >.9.j.M.M.n.f.7.G k f f g z V =.f.rXsXsXuXM.9.D w r s s u ~ U.W.~.E.} y 9 t R | !.|.<X<X<X$XW. .R t 9 t ~ T.^.^.U.~ a a ^ M u * & d :.j.N.N.b.a.>.S                                                                                                                                                                                                                                                                                                                                                                                                                                                                                                                                                                                                                                                       ",
"                                                                                                                                                                                                                                                                                                                                                                                                                                                                                                                    ,.5.8.f.n.m.m.l.r.,.D z g g z V *.f.tXfXjXsXrXf.=.n e u u u ~ ..W.~.E.} y 9 t R | !.|.<X<X<X$X^.G.R t t y ~ T.^.^.U.~ u a ^ M u * & w *.h.#XtXZ.j.0.*.                                                                                                                                                                                                                                                                                                                                                                                                                                                                                                                                                                                                                                                      ",
"                                                                                                                                                                                                                                                                                                                                                                                                                                                                                                                  ,.8.8.8.r.f.n.m.m.l.d.7.*.C z z V K y.tXhXkXfXtXl.7.S e r u u ~ ..W.W.E.} y 9 t Y | Y.|.1X<X<X$XW. .R t t y ~ T.^.^.U.~ u a M M e * O < S i.N.uXyXn.w.;.V                                                                                                                                                                                                                                                                                                                                                                                                                                                                                                                                                                                                                                                     ",
"                                                                                                                                                                                                                                                                                                                                                                                                                                                                                                                D 7.r.d.r.9.r.f.l.N.Z.M.j.8.=.C z c K r.tXjXlXhXuXm.w.( s y u u ~ U.W.W.Y.} Y t t Y ] K./.,X<X,X|.T.[ Y t 9 y ~ T.^.^.U.~ u a M M r * O , k 7.N.sXsXZ.d.>.S k n                                                                                                                                                                                                                                                                                                                                                                                                                                                                                                                                                                                                                                                 ",
"                                                                                                                                                                                                                                                                                                                                                                                                                                                                                                              j D ,.r.j.j.d.9.9.g.M.tXtXM.f.5.D z V K r.rXhXlXjXuXN.d.*.h 0 y u ~ U.W.W.Y. .E t t t R  .~.|.$X|.^.U.Q y t t y { T.^.^.U.~ u u a u r * % & d >.N.cXjXtXh.3.S N S ;.                                                                                                                                                                                                                                                                                                                                                                                                                                                                                                                                                                                                                                              ",
"                                                                                                                                                                                                                                                                                                                                                                                                                                                                                                              d C :.9.j.x.l.f.r.f.m.rXtXM.f.5.D z c G 9.Z.fXlXjXpXZ.f.-.b r y u ~ U.W.W.W. .Q y t t Y [ U.~./.~.T.X.E t t t Y X.T.^.^...E y u u u r * & & w ;.N.kXkXdXj.7.D S +.3.7.                                                                                                                                                                                                                                                                                                                                                                                                                                                                                                                                                                                                                                            ",
"                                                                                                                                                                                                                                                                                                                                                                                                                                                                                                              d N G ,.r.l.x.l.z.z.x.Z.Z.z.9.=.V g z Z 1.m.aXkXjXpXZ.j.5.V e u u ~  .W.!.!.T.X.E t t Y R  .U.T.U. .Q Y t t Y Q  .W.^.W. .Y 0 r u u r * & & 2 *.N.jXkXuXb.q.*.D ;.5.7.>.                                                                                                                                                                                                                                                                                                                                                                                                                                                                                                                                                                                                                                          ",
"                                                                                                                                                                                                                                                                                                                                                                                                                                                                                                              i k C G ,.r.j.n.m.m.x.l.f.7.;.C j f z C =.f.tXfXhXaXrXn.q.( b u u E  .T.!.!.W.U.X.Q Y Q Q [  . . .[ Q R Y Q Q  .T.W.W.T.X.Y 0 r e r 0 * % & q ( n.sXcXuXB.a.:.D *.3.3.;.                                                                                                                                                                                                                                                                                                                                                                                                                                                                                                                                                                                                                                          ",
"                                                                                                                                                                                                                                                                                                                                                                                                                                                                                                              i j N V D >.9.j.m.M.l.r.,.G V g d d g V D 8.Z.sXhXaXtXM.d.>.m e u Y [ G.!.!.W.W.U.X.X.X. . . . . .X.X.X.X. .G.T.T.W.T. .Q y 0 r e r q * & & 1 S d.yXsXpX#Xh.5.D ( ;.;.( V                                                                                                                                                                                                                                                                                                                                                                                                                                                                                                                                                                                                                                         ",
"                                                                                                                                                                                                                                                                                                                                                                                                                                                                                                              i j k j g C =.9.z.x.g.8.G N k f 5 d g c C >.n.aXhXfXuXD.l.q.S u y Y R  .T.W.!.W.W.T.T.T.T.T.T.T.U.U.U.G.U.T.T.!.!.T.G.X.Y t 0 r e r r * & & < k 7.m.pXsXuXn.q.+.S S S V j                                                                                                                                                                                                                                                                                                                                                                                                                                                                                                                                                                                                                                         ",
"                                                                                                                                                                                                                                                                                                                                                                                                                                                                                                              d j k d 5 d V -.r.f.r.>.V j j f i d z V V =.l.aXjXhXsXtXM.a.+.b u y Y [  .T.W.!.W.!.!.W.W.W.W.W.W.Y.Y.T.!.!.!.!.T.U.X.E t 9 r e b u r * & & < w ( f.uXjXsX#Xd.>.S N n j i                                                                                                                                                                                                                                                                                                                                                                                                                                                                                                                                                                                                                                         ",
"                                                                                                                                                                                                                                                                                                                                                                                                                                                                                                              d g g d 3 3 f D ,.8.,.G k d j d i d z V V *.j.pXjXkXfXpXZ.g.>.m u u T Y Q  .T.!.W.!.!.!.!.^.^.W.W.Y.Y.T.!.!.!.!.G.X.Q t 9 0 e M m M e q & & * 1 n w.dXlXkXdXn.q.D k h i 2                                                                                                                                                                                                                                                                                                                                                                                                                                                                                                                                                                                                                                         ",
"                                                                                                                                                                                                                                                                                                                                                                                                                                                                                                              f g g d 3 - 2 c =.-.=.C f i d d w d c C C *.f.yXjXkXjXsXtXx.7.) ^ T T y Y Q  .T.T.T.T.T.W.W.W.T.T.T.G.G.J.T.T.G.X.Q y 9 9 r b A / m e q & & & < h q.uXxXlXpXN.a.*.n d 2 <                                                                                                                                                                                                                                                                                                                                                                                                                                                                                                                                                                                                                                         ",
"                                                                                                                                                                                                                                                                                                                                                                                                                                                                                                            V g z z f 3 4 2 z K =.G z d w i i 2 d c C V G 9.Z.fXlXkXfXuXC.r.;.^ W T u y Y Q X. . . . .G.G.U.G.G. . .| | | | [ R y 9 9 0 e m / / m e q % & & < h 7.dXlXlXsXrXh.>.N i < -                                                                                                                                                                                                                                                                                                                                                                                                                                                                                                                                                                                                                                         ",
"                                                                                                                                                                                                                                                                                                                                                                                                                                                                                                l.g.d.r.r.7.*.V z V g 5 3 2 z K =.G z w 2 w w 2 d z C V Z ,.l.pXkXxXkXaXD.g.3.^ W W T u 0 y Y Q Q Q [ [ X.X.X.X.[ [ [ [ [ R E y t 9 0 r b / ) / m e * $ & & < d >.rXjXkXsXtXl.7.C w , &                                                                                                                                                                                                                                                                                                                                                                                                                                                                                                                                                                                                                                         ",
"                                                                                                                                                                                                                                                                                                                                                                                                                                                                                            Z.Z.m.l.f.f.d.9.>.C V Z C z d 7 c *.=.G k w 1 2 2 2 d z V c V K y.tXkXxXxXfXtXl.5.m u W W u 0 0 y T Y Q Q [ X.X. .X.X.[ [ [ Q E T y 0 y u e M / / m b q = X o & 1 d *.l.pXcXfXuXm.9.D d & o                                                                                                                                                                                                                                                                                                                                                                                                                                                                                                                                                                                                                                         ",
"                                                                                                                                                                                                                                                                                                                                                                                                                                                                                        Z.D.D.Z.C.m.l.g.f.r.,.D V H K G V g C =.=.G k w < 1 1 3 i z c z z Z 8.rXkXzXzXlXpXN.q.S u u u u 0 0 y T E Q { X.X... ...X.X.[ { ! W u u u u u a M m m M r * $ X o & 1 w S w.rXfXkXsX#Xf.>.j - o                                                                                                                                                                                                                                                                                                                                                                                                                                                                                                                                                                                                                                         ",
"                                                                                                                                                                                                                                                                                                                                                                                                                                                                                    x.A.C.Z.D.D.D.Z.m.l.g.r.,.D V D =.=.G C D =.=.D k w < < < , 5 g z z z V ,.N.jXzXbXzXfXrXa.( b u u u r 0 y y E ~ ! { } } } } } { { { ! W u u u u a a b b e r * % X o o - < w k -.n.sXlXfXyXn.7.V < o                                                                                                                                                                                                                                                                                                                                                                                                                                                                                                                                                                                                                                         ",
"                                                                                                                                                                                                                                                                                                                                                                                                                                                                                7.g.c.m.m.C.Z.rXtXrXZ.x.f.9.>.C g C K -.=.K *.=.=.D k 2 < < & , i z c z g V -.l.sXzXvXzXcXrXd.*.h q 0 0 0 0 y y T T ! ! ! ! ! ! ! ! ! ! W T u u u u u u e e q * & X o & - , < w h ( j.sXkXfXtXn.8.V < o                                                                                                                                                                                                                                                                                                                                                                                                                                                                                                                                                                                                                                         ",
"                                                                                                                                                                                                                                                                                                                                                                                                                                                                              -.9.z.m.M.m.m.C.rXyXyXrXx.r.,.G z f g Z =.-.-.>.>.*.C j 1 < & & 3 f V V z z z *.d.tXjXxXkXsXZ.a.*.j < * q 0 r u u W W W W W W W W W W W W W T u u u u u u u r q < & o - 3 2 1 2 2 i C d.yXsXuXN.h.,.V 3 o                                                                                                                                                                                                                                                                                                                                                                                                                                                                                                                                                                                                                                         ",
"                                                                                                                                                                                                                                                                                                                                                                                                                                                                            >.>.9.z.M.Z.C.M.C.D.tXtXZ.j.8.=.D z d d z Z =.<.,.>.*.V i < & & , 2 k C C z g z H 8.m.yXpXuXZ.j.7.D d , < q r a ^ ' ' ' ' ' ' ' ' ' ' ' ! ! ! ! W W W W W W M b h i 2 , 1 d f f d w w k 7.m.rXm.d.7.+.j < o                                                                                                                                                                                                                                                                                                                                                                                                                                                                                                                                                                                                                                         ",
"                                                                                                                                                                                                                                                                                                                                                                                                                                                                          d.7.>.7.f.n.N.Z.Z.Z.Z.D.Z.M.g.9.,.=.G V g f z G -.,.>.D k 2 - & & < d V D D z j g C ,.f.m.M.l.d.7.*.N w < w e b / 4.e.p.%.&.o.o.o.&.&.o.o.o.o.o.o.o.o.o.o._ _ ' / S V k f d g C C V j i d +.w.f.9.-.D N i , o                                                                                                                                                                                                                                                                                                                                                                                                                                                                                                                                                                                                                                         ",
"                                                                                                                                                                                                                                                                                                                                                                                                                                                                        N.f.7.*.=.8.f.l.M.Z.Z.Z.N.M.m.l.f.r.r.8.,.*.C z C K =.*.V d < & & & 3 j C G D z f f V =.9.g.f.9.:.D V f 2 w h n m ) i.k.v.V.p.p.p.p.p.p.p.$.$.$.$.p.p.p.$.$.p.p.4.4.:.:.*.D N V G =.=.S j i V =.,.*.C k f 2 - o                                                                                                                                                                                                                                                                                                                                                                                                                                                                                                                                                                                                                                         ",
"                                                                                                                                                                                                                                                                                                                                                                                                                                                                      yXZ.f.,.D D =.7.d.l.M.N.N.M.N.Z.N.m.x.l.z.f.r.1.K Z D D C k w , & o & 3 f V D C g d d z =.9.d.r.,.D N j w 2 j V / ) ;.i.v._._._.).).).).).'.'.'.'.'.'.'.'.'.V.V.V.i.i.q.w.q.>.D S *.,.1.=.V i j D *.S k j d 3 - +                                                                                                                                                                                                                                                                                                                                                                                                                                                                                                                                                                                                                                         ",
"                                                                                                                                                                                                                                                                                                                                                                                                                                                                    rXtXZ.d.-.C V Z =.1.r.j.l.n.N.rXtXtXD.Z.m.m.C.m.z.r.>.G C k i < & X X + 3 f V D C g d d z =.9.y.r.-.V k d 2 2 j S ( ( ;.0.v._.tX_._._._._.).).).'.).).)._.).V.V.v.k.k.s.d.d.d.q.;.D G <.7.,.Z d j D +.S k j d 1 , , 2                                                                                                                                                                                                                                                                                                                                                                                                                                                                                                                                                                                                                                       ",
"                                                                                                                                                                                                                                                                                                                                                                                                                                                                  d.M.Z.M.y.=.Z Z Z G =.,.9.r.j.N.tXuXuXtXD.Z.Z.D.rXZ.m.f.8.*.V i , o o o + 3 d V Z C g f f z K 9.y.r.-.V j d 2 2 j S ( ( ( ;.i.B.tXtX_.b.v.v.v.V.V.V.V.V.v.v.v.k.s.k.k.i.i.i.d.d.q.:.S C *.,.,.C d j S +.S k j d 2 3 2 d j                                                                                                                                                                                                                                                                                                                                                                                                                                                                                                                                                                                                                                     ",
"                                                                                                                                                                                                                                                                                                                                                                                                                                                                D 7.g.n.l.r.-.=.-.-.*.G K =.,.r.n.tXpXpXyXrXZ.Z.D.tXyXrXZ.x.r.=.z 2 - o o + 3 d N C C c z g z K 8.r.r.=.V k f w 2 d N / / A S :.d.n.B.b.d.i.i.i.i.p.e.0.0.i.i.0.0.0.0.0.5.5.5.7.7.3.+.N j C *.*.V w j D *.S n j d w w d j N V V                                                                                                                                                                                                                                                                                                                                                                                                                                                                                                                                                                                                                                 ",
"                                                                                                                                                                                                                                                                                                                                                                                                                                                                g +.7.r.r.7.<.1.r.r.1.=.G D =.7.f.N.tXuXyXtXD.Z.D.rXyXuXpXyXM.r.=.z 5 3 + 4 3 d z C C C c z z G 7.r.9.=.V k j w < w h n n h h V -.q.w.0.-.+.( ( ) ) ) ( ( ( +.( ( ( ( D S S S ( +.D V j i j C C j 2 j ( *.S N k j d d j n V S S S                                                                                                                                                                                                                                                                                                                                                                                                                                                                                                                                                                                                                               ",
"                                                                                                                                                                                                                                                                                                                                                                                                                                                              , i V *.>.>.:.>.9.g.j.f.8.=.G G -.8.g.M.rXrXtXrXD.D.rXyXpXsXsXuXM.d.,.Z f 3 < 3 d g z V C V z z G 1.r.9.:.V k j w < 1 w h h w 1 i V D +.D n j f j j h h h h h l h h j h d d d d j k k j w 2 i k n d 1 k ( ;.D V k j d d j n V S S S C                                                                                                                                                                                                                                                                                                                                                                                                                                                                                                                                                                                                                             ",
"                                                                                                                                                                                                                                                                                                                                                                                                                                                              - 2 j V D D D =.8.g.l.l.f.9.-.K *.>.8.f.l.M.D.rXrXrXrXtXuXaXgXsXyXC.g.8.K z 5 1 5 d g z z z z z G 1.r.9.>.S n j w < < w e w 1 , , 2 j j d 2 < < < < < 1 1 w q 1 1 < < , , , , , 2 i d d 2 < w j k i 3 k ( ;.D V n h d s h n V V V C V N                                                                                                                                                                                                                                                                                                                                                                                                                                                                                                                                                                                                                           ",
"                                                                                                                                                                                                                                                                                                                                                                                                                                                              - 1 f k N V V G ,.y.l.c.x.g.9.-.*.*.>.7.r.j.m.D.rXtXtXyXyXuXaXsXaXuXZ.l.9.K g 5 3 2 5 f g g z V G ,.r.9.>.S n j w < < w w w < & & 3 d j j d 2 2 2 w w w i w w w 2 1 < < , , , < 2 d j d 2 < 2 j j w < j D *.S V n h d e h M m m N V V n j                                                                                                                                                                                                                                                                                                                                                                                                                                                                                                                                                                                                                         ",
"                                                                                                                                                                                                                                                                                                                                                                                                                                                              4 1 d k N k k V *.7.y.l.c.l.f.9.<.=.=.-.,.9.f.m.Z.rXyXyXyXyXuXpXaXaXuXZ.g.,.C f 2 3 3 2 7 f g V G ,.9.8.=.C n j w < , 1 w q < & & 2 k D D D V N V V S S V V V N n k j f d d d d j n N k i < 2 j j w < j S +.S n n h d e M ^ ^ m n n N n j                                                                                                                                                                                                                                                                                                                                                                                                                                                                                                                                                                                                                         ",
"                                                                                                                                                                                                                                                                                                                                                                                                                                                              4 3 d k N k g z C =.1.r.g.l.z.u.9.,.-.*.=.<.8.f.c.Z.rXyXyXyXiXyXuXpXuXD.l.8.=.D V g 7 2 2 5 f z Z -.7.7.*.V k j w , , < 1 1 < & , d D >.7.7.>.:.:.>.>.>.>.:.:.*.+.D D S C V V V D ( D V d < 2 d d 2 , d A S V k j d w e M ^ ^ ^ m m m n d                                                                                                                                                                                                                                                                                                                                                                                                                                                                                                                                                                                                                         ",
"                                                                                                                                                                                                                                                                                                                                                                                                                                                              4 3 d k N k f g c Z K ,.9.f.f.g.f.r.1.=.K =.-.2.r.l.Z.tXuXuXyXyXyXyXrXM.l.f.y.r.9.,.G g d 5 d g V G >.>.G z j d 2 , & , < < & & , j *.q.d.a.q.7.7.q.q.0.q.7.7.5.>.:.;.*.*.+.( +.*.:.*.S j < < w w < , w n V n j j i w r a ^ ' ' ^ / m l d                                                                                                                                                                                                                                                                                                                                                                                                                                                                                                                                                                                                                         ",
"                                                                                                                                                                                                                                                                                                                                                                                                                                                              # 3 d g k j d f z V Z G -.7.r.f.z.g.r.1.=.G K =.,.r.z.Z.tXuXuXuXyXD.m.z.l.m.Z.D.Z.m.y.>.Z z f f g C K G C g d w < & o & , > & o , j *.9.f.d.w.q.q.w.w.q.q.q.7.7.5.>.:.;.*.*.*.*.;.:.*.S j < , < < - & 2 j k j h d w 1 < e a ^ ^ ^ ^ m b w                                                                                                                                                                                                                                                                                                                                                                                                                                                                                                                                                                                                                         ",
"                                                                                                                                                                                                                                                                                                                                                                                                                                                              # 3 i j j f d f g c c V Z *.,.r.f.g.g.r.1.=.G G K -.9.g.C.yXpXpXrXm.z.z.m.D.uXsXfXaXrXl.9.=.C z g z V C z d w 3 - o o o & + o o , j +.7.r.w.7.>.3.5.5.3.3.>.>.:.:.*.+.+.( ( ( ( +.+.( V d , & - - o o , w d i w 2 < & & q e a ^ ^ ^ M h r 2                                                                                                                                                                                                                                                                                                                                                                                                                                                                                                                                                                                                                       ",
"                                                                                                                                                                                                                                                                                                                                                                                                                                                              # 3 5 f f d i d g z z z V C G ,.9.f.g.g.r.7.-.K G G =.8.g.Z.yXyXZ.c.x.m.D.uXgXhXlXlXhXpXZ.f.1.G c z g j d 2 3 , + o o o o + + + , d S :.5.>.*.+.( ( ( ( ( D D S S S V V V V V V V V N j 2 & o o o + o & < 2 3 < , & & & < q e b M M M h d j                                                                                                                                                                                                                                                                                                                                                                                                                                                                                                                                                                                                                       ",
"                                                                                                                                                                                                                                                                                                                                                                                                                                                              4 3 5 f f d i d g z z z z V C G <.9.f.z.g.u.t.,.G Z H =.8.g.M.Z.x.c.Z.yXuXaXgXhXlXzXzXlXfXtXl.9.=.D V g f i 2 3 < , , , < 3 3 3 , i N D D S V k k k k k j j j j j j d d d d d d d d d w , o + , , , , , < 3 < < , , , , < w e b m m m n V S (                                                                                                                                                                                                                                                                                                                                                                                                                                                                                                                                                                                                                     ",
"                                                                                                                                                                                                                                                                                                                                                                                                                                                              4 3 5 f f d i d j z z z z z c C G <.9.f.g.z.z.r.<.G Z G =.7.r.y.y.m.yXgXfXgXgXfXlXzXvXbXzXjXuXm.f.8.>.=.G C V z g g f g g z z f i i k V V k j d d d d d i i i i w w w w w w w w w w w 2 , , 2 j z k j j j j j f f j j j j k n m / ( ( +.*.;.3.7.                                                                                                                                                                                                                                                                                                                                                                                                                                                                                                                                                                                                                  ",
"                                                                                                                                                                                                                                                                                                                                                                                                                                                              4 3 5 f f d i d k N N z z z z c C K ,.9.y.z.x.z.r.,.K G G =.-.-.2.l.yXfXhXfXgXgXhXlXvXNXNXbXlXsXrXN.x.g.y.9.7.1.,.-.=.=.>.,.>.*.D N V D G D C V V V N N N z z z k k k k k k n n n n k j d d V -.7.>.:.;.;.*.*.+.+.*.*.*.*.;.;.;.3.3.0.0.0.q.i.a.s.i.w.                                                                                                                                                                                                                                                                                                                                                                                                                                                                                                                                                                                                            ",
"                                                                                                                                                                                                                                                                                                                                                                                                                                                              4 3 5 f f d i d k V V k g g z z c Z K -.8.u.l.x.z.y.8.>.K Z Z Z =.y.Z.pXfXhXfXgXfXjXzXNXBXBXNXzXkXsXpXyXD.M.n.l.j.f.y.d.f.g.g.r.7.:.:.7.q.7.,.>.>.:.:.=.=.=.=.=.=.=.=.=.=.=.=.=.=.=.*.+.S V >.f.n.j.d.s.i.i.w.w.w.w.a.a.a.i.i.i.s.k.k.h.h.v.v.v.j.d.d.d.                                                                                                                                                                                                                                                                                                                                                                                                                                                                                                                                                                                                          ",
"                                                                                                                                                                                                                                                                                                                                                                                                                                                              - 3 i f f d i d k V N j f f g z c v Z G -.8.f.l.x.x.g.r.-.Z c C G 2.g.Z.pXfXfXfXfXhXxXvXBXBXBXNXzXlXfXsXuXtXZ.Z.M.n.l.n.m.m.m.l.d.7.0.a.d.d.r.9.q.8.8.7.7.7.7.7.7.7.7.7.7.7.7.7.7.7.7.>.*.+.0.n.#XN.b.j.j.h.h.d.h.j.j.l.j.j.v.v.v.v.b.b.n.n.n.b.j.k.d.a.a.q.7.                                                                                                                                                                                                                                                                                                                                                                                                                                                                                                                                                                                                    ",
"                                                                                                                                                                                                                                                                                                                                                                                                                                                              - < i f f d 5 d k V N f 5 d g z c c c Z G -.8.f.x.M.M.g.8.*.D H H =.2.g.Z.pXfXhXfXhXlXvXBXZXZXBXzXkXsXuXtXrXZ.M.n.l.j.l.n.n.n.j.a.7.0.a.d.a.w.q.q.0.7.7.7.5.5.7.7.7.7.7.7.7.7.7.7.7.5.>.*.*.7.l.N.m.j.h.k.d.d.s.d.h.j.j.h.h.k.k.h.h.v.v.v.b.b.j.d.a.w.w.w.q.8.w.                                                                                                                                                                                                                                                                                                                                                                                                                                                                                                                                                                                                  ",
"                                                                                                                                                                                                                                                                                                                                                                                                                                                              - < i f f i 2 d k V N f 2 5 f g z z c C Z G -.9.g.M.C.l.r.8.,.-.L L =.1.f.Z.uXfXjXkXxXbXBXZXBXbXkXuXN.n.b.j.f.d.r.9.q.9.r.r.r.q.5.:.:.5.7.5.3.>.>.:.:.:.;.;.;.;.;.;.;.;.;.;.;.;.;.;.;.*.( S ;.w.d.a.q.7.7.5.5.3.5.7.q.q.q.0.0.0.0.0.0.q.w.i.i.q.7.3.3.3.5.7.8.w.a.                                                                                                                                                                                                                                                                                                                                                                                                                                                                                                                                                                                                ",
"                                                                                                                                                                                                                                                                                                                                                                                                                                                              - 3 5 f f i 2 d k V V f 2 5 f g g g z V C G *.,.r.l.x.z.g.g.g.r.1.=.L L 1.f.Z.pXjXxXzXNXBXBXvXjXtXj.w.0.5.>.>.:.*.*.+.*.*.;.*.+.( S S ( ( D S S S S S S S S S S S A A A A A A A A A A V n n A ( ;.*.( S S S S S S ( ( +.( ( ( ( ( +.+.+.*.;.:.;.+.( D +.*.-.5.q.q.q.                                                                                                                                                                                                                                                                                                                                                                                                                                                                                                                                                                                              ",
"                                                                                                                                                                                                                                                                                                                                                                                                                                                              - 3 5 f f i 2 d N C V j 5 5 f f f f g c C G K -.2.r.r.r.g.M.Z.M.f.8.=.K L 1.g.D.sXxXNXNXNXzXhXrXd.>.( S S A V V n n n n n n n n b h j j l j h b b b b n j l l j l h h h h h h h h h h h d d d h j h j h d d w w d h h l l n n n n n k j k V A A V N N V S +.:.>.5.>.=.                                                                                                                                                                                                                                                                                                                                                                                                                                                                                                                                                                                            ",
"                                                                                                                                                                                                                                                                                                                                                                                                                                                              - 3 2 d d 5 2 f V S C g 5 7 g f d 7 f z C H K =.<.,.<.,.f.Z.uXuXZ.z.8.-.K =.7.l.uXlXNXNXzXsXN.r.;.S k k k n V V N n b h j h h h h h h h h h h h h b b n n k j k j j h h h h h h j h h j h h d d d d d d w w w w w p d d h h h h h d w 2 2 i j k k k k n n V D *.:.;.D                                                                                                                                                                                                                                                                                                                                                                                                                                                                                                                                                                                             ",
"                                                                                                                                                                                                                                                                                                                                                                                                                                                              - 3 2 d d 2 2 f V D C g 7 f x x d 2 5 g V Z H =.=.K D K 9.m.uXaXuXZ.z.9.-.=.-.r.#XjXzXxXsXN.9.+.V k j j n D :.>.:.( / S S S A A A A A A A A A A A A S S S S S S S S S S S S S S A A A A A A A A V V A N n n k n n n N n n n n n n k h 2 < < 2 d j k k k k n V S ( D S V                                                                                                                                                                                                                                                                                                                                                                                                                                                                                                                                                                                           ",
"                                                                                                                                                                                                                                                                                                                                                                                                                                                              - , 2 i i 2 2 f V D C g 7 x v v f 2 2 f z C H K K Z c C -.f.Z.uXaXuXrXl.r.,.>.9.m.pXjXsXZ.w.+.n j h d k D 8.f.h.i.0.4.3.>.>.:.:.;.;.;.;.:.:.:.;.;.;.:.3.3.>.>.>.>.>.>.>.>.-.>.:.;.;.;.;.;.;.;.;.;.;.;.( ( S S ( ( ( ( ( ( ( ( S S S n j 2 , , 2 d k n n n k n N A S S V                                                                                                                                                                                                                                                                                                                                                                                                                                                                                                                                                                                           ",
"                                                                                                                                                                                                                                                                                                                                                                                                                                              S C N k j d i 2 , , 2 i i 2 5 f C D D g f x J v f 2 5 f g z C G G C z z G 1.g.Z.uXaXpXrXx.r.7.r.m.tXyXN.r.*.N h d i d N >.j.N.N.v.i.i.0.0.q.q.0.7.7.5.7.0.0.0.0.0.7.7.0.0.0.0.0.0.0.0.0.7.7.7.7.7.5.7.0.0.0.6.4.3.3.:.;.;.+.+.;.;.;.;.;.;.;.;.*.+.( S n d 3 - , w j n N n n k n n A S A k                                                                                                                                                                                                                                                                                                                                                                                                                                                                                                                                                                                         ",
"                                                                                                                                                                                                                                                                                                                                                                                                                                          S *.:.;.+.S V n j d 2 3 2 i i w i g Z G D g f v H v g 5 7 f f f z Z G C g g V G 1.g.Z.uXsXaXrXl.f.z.N.#Xm.a.;.V k d w 2 d S 9.N.tXZ.j.i.e.0.q.i.w.q.0.7.0.0.0.0.0.0.0.0.0.0.0.0.0.i.i.i.q.0.0.0.0.0.0.0.0.0.0.0.6.3.4.3.4.;.;.*.;.;.;.4.4.4.4.:.;.*.+.( S A k w , - 3 d n V A n n n n A S A j                                                                                                                                                                                                                                                                                                                                                                                                                                                                                                                                                                                         ",
"                                                                                                                                                                                                                                                                                                                                                                                                                                        D *.3.8.q.5.;.D V n h w 1 2 i d i d z D K Z g f v H v g 5 f g f 7 g C Z c f f z C K 1.g.Z.uXaXuXZ.m.N.rXZ.h.>.S n j d 2 < d D r.N.tXN.i.3.;.>.5.0.0.7.3.3.3.3.3.3.3.3.3.3.3.3.3.3.3.6.6.6.6.5.3.3.3.3.3.3.3.3.6.6.4.;.;.;.( ( ( ( ( ( ;.;.@.@.@.@.+.( S S S A n d < & , w k V A V n n n A A N j w                                                                                                                                                                                                                                                                                                                                                                                                                                                                                                                                                                                       ",
"                                                                                                                                                                                                                                                                                                                                                                                                                                      *.*.>.q.d.d.i.5.+.S n h w 1 2 i d i d N D G C f d z Z v g 7 g z g 5 d z V z f f z V Z =.8.g.Z.yXuXyXtXtXrXM.w.( n k j w < , i D w.m.#Xb.5.( S ( ;.:.;.;.+.( +.( ( ( ( ( ( ( ( ( ( ( ( ;.;.;.;.;.@.( @.@.+.+.*.;.;.@.) ) / A A A A A A S S S S S / S / S A N V V N j 2 & & 2 j N A V n n n N N n j d                                                                                                                                                                                                                                                                                                                                                                                                                                                                                                                                                                                       ",
"                                                                                                                                                                                                                                                                                                                                                                                                                                    =.=.=.,.w.h.j.d.7.+.V k d w < 2 d d d f V D G V d 5 z C c f 7 z V g 5 5 g c g d f z V Z G =.8.g.M.rXuXuXyXD.j.5.S k k j w , , i D 8.l.m.d.;.N n A S ( S A V V V V N B B m n n n n n n B A A / S S A A A B A A S S A A A m n n n n n n n n n n n n n B A N n n N V V k w , o , i k n N n n n n n n k f                                                                                                                                                                                                                                                                                                                                                                                                                                                                                                                                                                                       ",
"                                                                                                                                                                                                                                                                                                                                                                                                                                  G *.=.-.5.w.h.j.d.5.D n d w < , 3 i d i d N D D V d 5 g c z f 7 z C z 5 7 z V z d f z V Z D G =.7.f.M.rXuXtXm.9.+.n j k j w > , i S 7.h.b.a.*.N n N V N n k k V V V V N N n n n n n n n n j n N S D S N j h n V V n n n N N n n k k k k n n n n n n k n n n n k n V A n i , o - 2 h n N B n k n n n k f 2                                                                                                                                                                                                                                                                                                                                                                                                                                                                                                                                                                                     ",
"                                                                                                                                                                                                                                                                                                                                                                                                                                *.D G *.=.7.w.d.d.q.:.V h w < - & < 2 i 2 d k C D c d 5 g c z f d c Z z 7 d c C z f f g V D D D G =.7.f.M.D.Z.g.>.V h h k j w & , i C 5.d.j.w.*.V N N n n j j V +.;.*.*.+.+.+.G +.+.*.*.+.C k k S -.5.>.D n k S +.( S n V D *.+.S S S S S S D S S S N n k n n k k n A S N d < o & < w k N A n h j n n k h 2                                                                                                                                                                                                                                                                                                                                                                                                                                                                                                                                                                                     ",
"                                                                                                                                                                                                                                                                                                                                                                                                                              q.>.*.D D ;.5.q.q.7.:.S k w 1 , & o , 1 2 2 i g C C c d 7 z C z f f V D V d f C H C f d j V S D D D G =.8.g.m.x.r.G j h h l j w & , i V >.d.h.w.*.A N N n k j k S :.5.,.>.>.>.>.>.>.,.0.8.,.+.N n *.8.r.q.-.S S *.3.>.( S D :.5.5.>.*.+.( +.+.*.*.*.( S n k k k k k N A S V j < & o - 2 j N A n h h k n k d 1                                                                                                                                                                                                                                                                                                                                                                                                                                                                                                                                                                                     ",
"                                                                                                                                                                                                                                                                                                                                                                                                                            8.9.8.>.*.D *.>.5.>.*.S n d w < & o + & , 3 < 2 f V C N f f c C c f f C H V f g Z H Z f 5 f V S D D D D K <.9.g.g.8.S h d h h j w , , i V >.a.h.q.*.A n n n k k k S :.5.5.5.5.5.5.5.7.q.d.d.9.=.V V :.q.r.9.5.*.*.>.7.5.*.S +.,.9.w.7.>.*.+.*.*.*.*.*.D A n j k k k k N A S V j 2 & o & 1 j n N n h h h k k d 2                                                                                                                                                                                                                                                                                                                                                                                                                                                                                                                                                                                     ",
"                                                                                                                                                                                                                                                                                                                                                                                                                          =.7.9.r.9.>.*.+.*.*.( V j d w < & o o o o - , , < d k N k j z C H c f g C G V f g H K Z f 2 d N S D D D D G -.8.y.d.7.S j d j h j w < , i V -.w.d.q.*.V n k n n k k V D ;.-.>.5.5.5.5.7.w.j.l.a.>.S S *.5.7.7.7.3.>.5.5.>.+.S *.7.a.d.q.>.*.+.+.*.*.+.D S n h j k k k k n V S A n w , o o 3 j N N k h h h j j d 1                                                                                                                                                                                                                                                                                                                                                                                                                                                                                                                                                                                     ",
"                                                                                                                                                                                                                                                                                                                                                                                                                        D *.>.8.a.d.w.,.*.D S n h w w < , & o o . o & - - , i j k k k C G H C g g C G V f g G L Z f 2 d z C D D D D G =.7.r.y.7.S h d h h h d < , 2 N ;.w.a.0.*.V n k n n n k n V D *.>.7.8.0.7.q.d.l.b.f.7.+.D +.*.*.-.7.0.5.>.:.;.+.G >.9.d.d.w.3.;.*.*.;.;.*.S N j j j k k n n n V S S N d , o o < f n N k h h j h j d 2                                                                                                                                                                                                                                                                                                                                                                                                                                                                                                                                                                                     ",
"                                                                                                                                                                                                                                                                                                                                                                                                                      G G G =.,.r.f.f.r.,.+.N d 2 1 < & & o o o . o + + & , 2 f j j k Z G H c g g C H V f g H K Z f 2 d N C D D D D G -.7.y.y.7.S k h h j j d 2 , 1 k *.q.s.0.*.A n k n n n k k k N D :.7.q.q.q.w.d.j.b.h.w.5.>.>.>.;.>.q.a.7.:.;.:.-.,.q.d.f.d.w.5.-.:.:.-.=.+.A k h j j k n n n n N S S V j < o o < d n N k j h j j j d 2                                                                                                                                                                                                                                                                                                                                                                                                                                                                                                                                                                                     ",
"                                                                                                                                                                                                                                                                                                                                                                                                                    D G G G +.=.7.r.f.d.9.:.C d 1 < , & & o o . @ @ o + o - 3 d f d g C G H c f g C H V f g Z G C d 2 d N S S D D D G -.7.r.d.8.*.N h h j j d 2 , , j ( 7.i.0.;.S n n n n n n k k n C *.5.q.q.q.q.r.f.j.h.a.w.q.q.7.>.5.a.f.q.:.:.5.8.w.d.f.d.a.q.7.>.>.>.>.*.S n h d j j k n n n n N S S S j 2 o o < d n N n h j j j j d 2                                                                                                                                                                                                                                                                                                                                                                                                                                                                                                                                                                                     ",
"                                                                                                                                                                                                                                                                                                                                                                                                                  k D *.*.*.G +.>.8.a.f.d.8.*.V d 2 3 < , & + + @ @ o o o & , 2 i i f z C C z d f C G V f g C D V d 2 f V S S D D D G =.,.r.f.r.,.S n h j j d 1 - - d D 5.i.q.3.S n n n n n n n k k N D >.q.w.w.0.q.r.d.d.a.a.a.a.w.7.8.d.j.w.>.-.7.w.d.f.d.a.w.q.7.5.,.,.>.G V j i d j k k n n n n n S S S k 2 o o , i n V V n h h h j d 2                                                                                                                                                                                                                                                                                                                                                                                                                                                                                                                                                                                     ",
"                                                                                                                                                                                                                                                                                                                                                                                                                3 f V G =.;.+.G *.>.8.r.d.r.7.;.C k f d 2 1 < - + o @ o o o , < 1 2 5 g z z f d g C G V f g C Z z d 5 j V D D D D D G *.>.9.d.f.9.*.n h h h d 1 & & 2 C >.w.i.5.+.V n n n n n n n k n S -.q.w.q.7.7.q.w.w.w.w.w.w.q.7.q.h.j.w.>.:.5.9.a.d.a.w.q.q.7.5.5.,.*.C j d w d j k k n n n n n S S S k 2 & X - w n A A N h d h h d 2                                                                                                                                                                                                                                                                                                                                                                                                                                                                                                                                                                                     ",
"                                                                                                                                                                                                                                                                                                                                                                                                                , 5 k D *.=.=.+.+.;.,.8.w.d.a.9.,.*.C z j f d 2 , + o o o o o & , , 2 d g g d 5 g C G V g z C C z d d k C D D D D D D G =.8.f.j.d.>.N h h h d 1 & o 2 V >.w.a.0.;.S N n n n n n n n n V +.,.7.3.3.5.7.7.7.7.0.0.7.5.7.a.h.h.i.3.;.>.7.q.q.q.0.q.7.7.5.,.=.D k d w w d j j k n n n n n A S A k w & o & w n S S A j h h h d 2                                                                                                                                                                                                                                                                                                                                                                                                                                                                                                                                                                                     ",
"                                                                                                                                                                                                                                                                                                                                                                                                                - 1 f V D =.=.*.*.*.=.>.7.a.f.j.d.8.>.G C N z j d 3 - o . o o o & & 3 5 f f i 5 f C D V g V Z C z d f N D D D D D D D G =.7.f.l.j.5.V h h h s 1 & o < n :.w.d.w.>.S V N N n n n n n n N S G +.+.;.3.3.>.>.>.3.>.:.=.7.d.h.k.w.3.;.*.-.,.>.>.5.5.,.>.>.*.D k d w w w d j h k n n n n n V A V k w & X & 2 l S ( A n h h j d 2                                                                                                                                                                                                                                                                                                                                                                                                                                                                                                                                                                                     ",
"                                                                                                                                                                                                                                                                                                                                                                                                                & < w j V G *.=.:.=.;.=.>.q.f.n.m.l.y.7.=.G Z V g d 1 - o . o o o o , 1 i d 2 2 d V D V z C D C z d f V D D D D D D D D ;.8.g.m.l.8.S h h h w 1 & o < k :.r.h.a.5.( A A N N n n n n k k n N V S ( ;.*.( D +.+.( S +.7.d.h.d.q.3.*.( D D +.*.*.*.*.+.D S n d w w w d j j l k k n n n n n N n n w , O o 1 j A ( S n h j j d 2                                                                                                                                                                                                                                                                                                                                                                                                                                                                                                                                                                                     ",
"                                                                                                                                                                                                                                                                                                                                                                                                                & , 2 i j V G =.>.>.=.*.*.,.a.n.Z.Z.m.g.8.>.*.G C z d 3 - o . . o o + , 2 2 2 3 d z C V V C Z C g d d V D D S C C C D D *.7.g.M.n.q.S l h d e q & o , k :.d.l.h.7.+.S A A n n n n k k k k k k n V S A n n V V N n S 7.h.h.a.q.5.;.D V N N V C C V N k j d w w w d d j j k k k n n n n k n n n d < & o 1 j A ( S n h j j j d                                                                                                                                                                                                                                                                                                                                                                                                                                                                                                                                                                                     ",
"                                                                                                                                                                                                                                                                                                                                                                                                                + , < 1 5 j V G >.>.:.*.*.=.8.z.Z.tXrXM.g.8.>.=.G C z d 3 & o . . . o & , < < < 2 g V V V C C V g i d z D D C N N V S D *.7.g.M.m.9.S l j d e 1 & o , k >.d.n.l.9.;.S S V n n n n k k k k k j k k k j d d j f d d V 5.d.f.w.q.7.>.+.N j d j j j j j d i w w d h h j j j k k k k k k k j k n n j w & o < h A ( S n h j j j d i                                                                                                                                                                                                                                                                                                                                                                                                                                                                                                                                                                                   ",
"                                                                                                                                                                                                                                                                                                                                                                                                                + - , , 3 2 j C *.:.-.=.*.*.,.r.m.rXyXrXm.f.8.>.*.G S N d 3 + . . . o + - , , , 2 f k k z z c z f 5 i g C S V k j k V D *.8.z.C.m.9.S h j d p w & o > n 3.h.B.n.a.:.( A N n n n n k k k k n k h j d w w w w w w j S 5.a.d.w.q.0.3.*.V j i i d d d d i w i d j j h j j j j j h j j j j j j n V n d < o , d A ( ( N j j j j d 2                                                                                                                                                                                                                                                                                                                                                                                                                                                                                                                                                                                   ",
"                                                                                                                                                                                                                                                                                                                                                                                                                + - , , 4 3 2 j V +.=.=.=.=.-.7.g.Z.tXtXZ.x.y.7.>.=.G D k 5 3 + + + + 4 - , , , 1 i d d f g g g d 2 i j V V V k f j N S =.8.z.Z.M.w.S h h d d w & o & n 3.h.N.m.d.>.D V n n n n n k k k n n n k j d d w w w w j V *.5.q.r.w.q.7.3.;.D n d i i d d j j j j j j k k k j j j j j h d d d j k N S V j 2 & , d A +.( A k h h d d 2 ,                                                                                                                                                                                                                                                                                                                                                                                                                                                                                                                                                                                 ",
"                                                                                                                                                                                                                                                                                                                                                                                                                , - - + o + - 1 j V G :.>.>.>.,.r.l.Z.tXtXZ.z.r.,.>.=.G V f 5 3 3 3 1 2 2 2 2 2 2 i i 2 5 7 f f d 2 d f g z c z j f k C =.8.l.Z.N.r.S h d d d w : % & k >.h.N.m.d.:.S n n N N N n k k k n n n k l j h d s w j A ;.5.7.7.9.i.q.3.:.;.*.S k d w d h k k k j j k k k k k j j d d w w w w d k A S S n w - , i V ( ( V j j j h d 2 ,                                                                                                                                                                                                                                                                                                                                                                                                                                                                                                                                                                                 ",
"                                                                                                                                                                                                                                                                                                                                                                                                              d 2 , - o o . o & 1 j C ;.,.,.,.,.8.d.n.D.tXrXM.g.9.1.>.*.D C C C V c c V V N z z k g f i 2 2 5 5 5 5 d f g z V V k f j V =.9.l.D.Z.r.S h d d d w < % & j :.d.n.n.a.:.V k j k V V V k k k n n k k k k h j d d n ;.7.0.5.>.q.a.q.>.*.*.;.+.V j w d j k n n k k k k k k j j j d w w 1 < 2 d n S ( S N i , , i V ( S N j j j j d 2 ,                                                                                                                                                                                                                                                                                                                                                                                                                                                                                                                                                                                 ",
"                                                                                                                                                                                                                                                                                                                                                                                                          n k j d 1 , + . . . o & 2 k G >.7.7.7.7.9.f.n.D.tXrXM.g.9.,.-.,.8.9.9.8.,.,.>.>.>.>.=.*.G C k d 2 2 2 5 d f f g V C D V f f V *.9.l.Z.N.r.S h d d d w < % & d +.w.j.j.w.;.N d d k A S S n k k k k k k k k k h j j A 3.0.0.;.*.7.w.7.;.D D *.+.S j w i d h k n k k h k j k j j h d w 1 , , 1 h n S ( S N d , , w N S S n h h j j d 2 ,                                                                                                                                                                                                                                                                                                                                                                                                                                                                                                                                                                                 ",
"                                                                                                                                                                                                                                                                                                                                                                                                        D D S N j 2 , + . . . . o , d S >.7.8.7.,.1.8.f.m.rXyXrXm.r.1.8.f.M.D.Z.m.z.f.f.d.d.r.9.7.,.=.D z d 2 2 2 d f g z C D G C g f V *.9.l.Z.m.q.S h d h j w < & & w S 7.d.h.w.:.N d i n S +.S V k k k k k k k k k l j h A ;.3.;.S D >.7.>.D V N C S N h w w d h l k k k j j j j j j h d w 1 < < w k S D +.D V d , , 2 k S A k h d d j d 2 ,                                                                                                                                                                                                                                                                                                                                                                                                                                                                                                                                                                                 ",
"                                                                                                                                                                                                                                                                                                                                                                                                      :.>.:.+.S k w , o . . . . . o 2 V =.7.8.0.,.,.,.t.l.rXuXyXm.y.t.g.D.aXhXfXpXD.C.m.n.l.j.d.r.8.,.*.C k d 2 2 i f k V S +.*.D k f V *.8.g.m.l.7.V j j h j w < & & 2 V >.a.h.d.5.S j j A +.;.( A n n n k n n k k k k j j n S ( S k N +.:.+.V j d j k j w w w d d h h h h j j j j j j h d w w w w j V S ( +.( V d < - 2 j V V k d i i h d 2 ,                                                                                                                                                                                                                                                                                                                                                                                                                                                                                                                                                                                 ",
"                                                                                                                                                                                                                                                                                                                                                                                                    D >.q.q.5.+.n i < & o . . . . + 1 z *.,.7.7.,.<.,.9.l.D.yXD.l.y.f.Z.aXjXxXxXjXaXiXZ.N.m.l.f.r.9.,.=.G C z d 2 i f k V D +.*.D k f z G 1.d.l.f.5.V j j k k d < & & < k :.d.b.l.w.*.V A ( ;.;.*.( S A B n n n n k k n n n n V V k h j V S V j i w w d d d d d h h h h h h j j k k j h h h d h h n V S ( ( ( ( A j < & 2 j N N j d e e d h w <                                                                                                                                                                                                                                                                                                                                                                                                                                                                                                                                                                                 ",
"                                                                                                                                                                                                                                                                                                                                                                                                  f D ,.a.h.a.5.D j w < & o . . . + 2 V *.,.1.,.<.-.,.t.l.Z.Z.x.f.f.m.tXfXlXzXzXxXjXaXtXD.M.l.f.y.9.7.>.*.G C k d i d k V S +.*.D k d z G ,.r.j.f.7.D k k k k j w , & , j ;.f.m.B.h.>.( ( *.;.;.;.+.( ( S S A A n n n N N n n n n j h j j k j d i w w d d h h h h h h h h h j k k k n n h h h n N S S ( ( ( ( ( V d , & 3 j N N n h h h h k d 3                                                                                                                                                                                                                                                                                                                                                                                                                                                                                                                                                                                 ",
"                                                                                                                                                                                                                                                                                                                                                                                                  d V :.a.b.b.d.>.V j w < & o . . , f C =.,.,.-.=.-.1.r.l.m.l.r.r.z.D.pXfXjXxXzXzXxXjXaXtXZ.m.l.f.d.q.7.>.*.D V k j j j n C G *.D k d g Z >.r.j.l.d.,.D n k n k d 1 & & d *.d.m.m.h.5.+.( *.;.;.*.;.+.( ( ( S A N N n N N N N n n j h j j d d i d i i d h j k b h h h h h h h h j k n l h h j n A S S S S S S A n w - & < d N V B n n n n n j w                                                                                                                                                                                                                                                                                                                                                                                                                                                                                                                                                                                 ",
"                                                                                                                                                                                                                                                                                                                                                                                                , 2 j D q.l.N.n.a.;.V j i < + @ o 1 k G >.,.>.=.=.-.8.u.z.z.r.,.8.l.tXaXfXjXlXxXzXzXxXjXaXtXZ.m.n.j.d.9.7.>.:.+.D V k k k N D G S j d g Z -.r.n.Z.m.f.>.S V N n j w & & w D 0.f.f.w.;.S S S S S S S ( S S S A n n k k k k k k k j j d d d i w w w w w p d h h h h h d d d d d d d d d d d e d l n N A A N n n k d < & o < d N S S S S S / S n d                                                                                                                                                                                                                                                                                                                                                                                                                                                                                                                                                                                 ",
"                                                                                                                                                                                                                                                                                                                                                                                                - < i N :.a.n.B.l.w.:.C j 2 3 + - i V *.>.>.=.=.=.<.9.f.g.r.,.=.7.l.tXsXfXjXjXlXzXvXzXxXfXpXtXZ.N.n.g.d.9.7.5.>.:.*.D V k g V C V f d z Z -.r.m.Z.Z.j.7.+.S S A n w , & 1 k *.,.,.;.S n n n n n n V V A A A N n k k j j h h j h h h d d p e w w w p d d d h h d h h h h d d d i i i e e e e e d h h h h h d i w < & o o , w n S ( ( S / ( S n d h                                                                                                                                                                                                                                                                                                                                                                                                                                                                                                                                                                               ",
"                                                                                                                                                                                                                                                                                                                                                                                                & < 2 d V >.d.n.n.l.r.>.C f 2 , < j D =.>.=.*.K =.,.r.f.f.8.=.=.7.g.D.aXfXjXjXlXxXzXvXzXlXfXpXtX#XN.n.j.f.a.w.q.7.5.>.+.V k k z g f g c D -.r.l.M.n.d.5.*.+.( S n w & % : w k V V n d w w w d j n S D D S S S A A V A N n n n m n n n n n n n n n n n n n n n n n n n n l b h h h h h h e h h h d w w w 1 < < - & o o o & w j n A A B B A A j d j n j                                                                                                                                                                                                                                                                                                                                                                                                                                                                                                                                                                           ",
"                                                                                                                                                                                                                                                                                                                                                                                                & , 3 2 d S >.d.n.M.n.a.:.V d 1 5 V *.>.>.*.G *.<.8.r.f.r.,.K =.1.d.m.yXsXjXkXkXlXxXzXzXxXkXfXpXyXrXN.n.n.j.h.d.a.9.7.>.D V g j f f z C G -.9.f.g.r.7.*.( ( S A j w & O & < 2 2 2 2 < , , < w k D >.7.7.>.;.;.*.*.*.*.+.( ( ( ( ( ( ( ( / / / / ( ( ( ( ( ( / / / / / / A m m n n n M m m m n n n h w 1 - & o o o o o X & 1 w h n h h b n n d h n n n k                                                                                                                                                                                                                                                                                                                                                                                                                                                                                                                                                                         ",
"                                                                                                                                                                                                                                                                                                                                                                                                & , < < 2 j S 7.h.N.tXm.w.*.j i f S =.>.:.*.G =.1.r.f.d.8.-.K =.7.r.j.Z.uXfXkXlXlXlXxXzXzXxXkXfXsXuXtX#XZ.N.n.j.h.d.w.7.:.D N j d f z C G <.9.r.9.,.( A A A n h w < o X O & & & & & o & , 2 j D 5.a.k.d.w.7.3.3.3.5.3.3.;.;.:.4.3.4.4.;.;.;.;.;.4.4.3.4.4.;.@.( ) ) ) ( / / / A m m B / / / / S A n d 2 , & o o . . o X & < w w w r q r e d w d n B B N n                                                                                                                                                                                                                                                                                                                                                                                                                                                                                                                                                                       ",
"                                                                                                                                                                                                                                                                                                                                                                                                & , < < q e n +.q.n.rX#Xl.5.V f z G >.>.=.*.*.-.8.u.g.r.,.=.=.>.7.8.r.l.Z.aXjXkXlXkXlXxXzXzXxXlXfXsXdXuXyXtXZ.m.l.h.d.w.7.:.D k d f z C G <.9.9.7.+.n h h h d w 1 & o o o X X X X o & , 2 j S >.a.j.v.k.i.0.3.3.3.3.3.4.;.;.;.4.4.4.4.;.;.;.;.4.4.4.4.4.4.;.@.( ) ) ( ( ) / / / / / / / / / / / A n h i 2 , o o . . . o & : 1 q 1 < * < q r w p n A A A A N                                                                                                                                                                                                                                                                                                                                                                                                                                                                                                                                                                     ",
"                                                                                                                                                                                                                                                                                                                                                                                                & , q 0 y T a A ;.d.m.Z.n.0.V j C *.>.>.=.*.*.,.t.f.g.9.-.G =.,.7.7.9.r.l.rXsXjXkXkXkXlXxXzXzXxXlXjXsXsXpXuXtXN.n.l.h.d.w.5.*.C g f z C G <.9.9.,.S h e r r r 1 * o o . . o o o o & 3 d k D >.q.d.h.k.i.5.:.;.*.*.;.;.( ( ( ( ( ( ( ( ( ( ( ( ) ( ( ( ( ) ( ) / / / A A A m m m m M m m m / / B m n h h i 2 , & o X . o o & < < * * = * q q 1 w n B / / S A V                                                                                                                                                                                                                                                                                                                                                                                                                                                                                                                                                                   ",
"                                                                                                                                                                                                                                                                                                                                                                                                & < r T Q { ! ^ S >.d.l.h.,.V N +.>.>.=.=.*.=.1.r.f.u.7.*.G =.,.1.,.1.8.r.n.tXsXhXkXlXlXlXxXzXvXzXlXjXfXsXuXtXZ.B.n.b.h.a.q.,.*.V j g V G <.8.8.>.A p q q q q < & X o . . o o o - 2 j S +.>.q.a.a.w.7.;.( S A A B A B m n n n n m m m n n n m m m m m m m m n n b b b b b b b b s b b b b M M b b h d h d w 1 < & X o o X & : : * = = = * < < r b m / ) / S S V                                                                                                                                                                                                                                                                                                                                                                                                                                                                                                                                                                 ",
"                                                                                                                                                                                                                                                                                                                                                                                                , < u ! ..H...! ^ ( >.q.8.*.k V *.>.>.=.=.=.<.8.r.f.r.>.G G -.,.,.>.<.,.8.d.n.tXsXjXlXlXkXxXzXvXvXzXlXjXsXpXtXrXZ.N.n.j.d.a.8.>.G k f z D >.7.7.;.V w q q q q * & X o o o o o & 2 k D 3.0.w.w.w.7.:.S N n b h h e e e e e e w w w w e e e e e r e e e e e e r r r r q q q q q q r r r r e e u e r r e d d d w q < & $ X X & * * * * = = * < < q b m / ) ( ( ( S S                                                                                                                                                                                                                                                                                                                                                                                                                                                                                                                                                               ",
"                                                                                                                                                                                                                                                                                                                                                                                                < q T } Y.~.E.#.' ^ S +.G V g C *.>.-.=.=.>.1.r.y.r.7.K Z G -.,.<.-.-.<.,.8.d.m.yXfXkXlXlXlXzXvXvXvXxXkXfXaXuXtXtXZ.B.b.j.d.w.7.:.S j g C =.,.>.( n r q q q < & & X o + & - , 2 j S >.i.k.s.q.5.*.V h e r r r q q q < < < < < < : : : : : < : : : : : : : : < < < * * * * * * * : < < q q q r q q q r r e s e e r q * & X $ = * * * = = * * * q h m / ) ( ( +.+.+.*.                                                                                                                                                                                                                                                                                                                                                                                                                                                                                                                                                            ",
"                                                                                                                                                                                                                                                                                                                                                                                                w r W ..~././.E.#.' m n j f k D =.=.=.=.-.,.9.y.f.9.>.Z C G =.-.-.=.=.-.,.1.9.f.M.uXhXlXxXxXxXzXvXvXzXxXkXsXpXuXyXtXN.B.b.j.d.w.7.*.V k V G =.*.S h w 1 < < & & o o & , < 1 w j S :.q.k.k.i.5.+.N d r q q q q : * * = & & & & & & & & & & & & % % $ % % & & & & & & & & $ $ $ & & & & * * : q q q q q r r e e e e r q : & $ % = * = = % & & & 1 h m / ) ( ;.;.;.;.:.>.                                                                                                                                                                                                                                                                                                                                                                                                                                                                                                                                                          ",
"                                                                                                                                                                                                                                                                                                                                                                                                w e W ../.|.,X/.E.o.W e w d V G =.=.=.=.<.7.r.g.f.8.*.V C G =.=.=.=.-.-.<.,.7.9.g.Z.aXkXxXzXzXxXzXvXvXzXxXjXsXsXuXtX#XN.B.b.h.d.w.5.*.V N C S C k w q < * & & o o & , < 2 d k S :.0.a.d.i.5.+.n d r q < < < * & & % % X X X X X X X X X X X o o X X o X o X X X X X X o o o o o X X X % & & * * q q 0 q q r r e e e r q : = = = = & & % $ $ & q b m / ) ;.4.3.3.3.5.3.>.                                                                                                                                                                                                                                                                                                                                                                                                                                                                                                                                                        ",
"                                                                                                                                                                                                                                                                                                                                                                                                w e W ..~.$X,X,X(.#.W r 1 f V G =.=.=.>.1.r.g.l.f.7.D z c Z G K =.-.-.<.,.,.1.7.r.l.D.sXlXzXzXxXxXzXvXvXzXxXjXfXpXdXtXtX#XB.n.j.d.w.5.*.C N z j d w < * & & o & & , 3 2 j N ( >.q.a.a.q.3.( n h r q < : * & & o X o o X X . . . . . . . . . . . . . . . . . . . . . . . . . . . . o o o o X $ & * 9 0 q q q r r r e u e r q = $ $ $ X X X & , w n / ) ;.4.3.0.0.i.q.0.7.>.                                                                                                                                                                                                                                                                                                                                                                                                                                                                                                                                                      ",
"                                                                                                                                                                                                                                                                                                                                                                                                w e W } ~.|.,X,X/.R.~ r w k C G *.=.-.,.9.f.l.l.d.>.C z V Z H G =.-.<.,.1.1.,.1.8.y.m.tXjXxXzXxXxXxXzXvXvXzXxXjXsXdXdXtXtXZ.B.n.b.h.a.7.*.S k d 2 < & & o o o & , 1 w j V *.5.q.i.i.0.:.S n e r q : * & % X o o . . . . . . . o o . . . . . . . . o o o o o o o o o o X . . . . . . . . . . X X $ = * q 0 0 0 q r r e e r r q = $ X X o & < w h B ( ;.3.0.q.i.i.k.s.i.q.7.5.                                                                                                                                                                                                                                                                                                                                                                                                                                                                                                                                                    ",
"                                                                                                                                                                                                                                                                                                                                                                                                w w u ! U./.,X,X/.U.~ r j C G G *.=.>.7.y.l.m.l.r.*.V V C Z Z G K -.,.1.7.7.1.1.8.t.f.M.aXkXxXzXxXxXzXvXbXbXzXxXcXsXdXtXtXtX#XN.B.n.j.d.0.;.V f 2 < & o o o & < 2 w j V +.3.w.i.w.5.;.S h r q q * * & X o . . . . . . . . o o & & o o o o & , < < < < < < < : * & & & & & % % $ X o . . . . . . X $ = * 9 9 0 0 q r r r e r q * & X & * q w h m / @.4.0.i.s.k.v.v.h.d.i.q.0.7.                                                                                                                                                                                                                                                                                                                                                                                                                                                                                                                                                  ",
"                                                                                                                                                                                                                                                                                                                                                                                                w w e W } Y././.~...~ e N G *.G *.*.>.8.f.l.l.f.1.D z V C Z Z G K -.,.7.8.8.7.7.8.8.r.j.D.sXlXzXzXzXzXvXbXNXNXzXxXfXsXdXdXdXtX#XN.B.n.b.k.0.*.V j 2 , o o & < w d j V +.3.q.i.0.3.( A h r q < : = & X o . . . . . o X o o & < 1 w w q 1 q e h n n n M M M M a s e e e r q 0 0 0 : & X o X . . . . o $ % = * 9 9 0 0 r r r e r q : & * q e b m / ( 4.0.i.s.h.b.b.b.b.h.d.a.i.q.q.                                                                                                                                                                                                                                                                                                                                                                                                                                                                                                                                                ",
"                                                                                                                                                                                                                                                                                                                                                                                                w i h a ! ..U.Y.U.X.W b S =.:.*.*.=.>.9.f.z.f.9.*.V V C C C Z G *.-.,.7.8.8.7.7.8.8.9.r.l.tXfXxXzXzXzXvXvXNXNXNXzXxXcXsXpXdXdXtX#XN.B.B.b.d.0.:.D V f < & , 2 h n A *.5.q.i.0.;.( n h r q < : & & X o . . . o o o & < 1 1 2 w h n m m n M / @.4.4.4.4.4.4.` ` ' ' ^ ^ M a a u u u q < & & & X X . . o X $ % * * q 0 0 q r r r r q < < r b m / ( 4.0.i.k.v.b.B.B.B.b.v.j.h.k.d.d.d.                                                                                                                                                                                                                                                                                                                                                                                                                                                                                                                                              ",
"                                                                                                                                                                                                                                                                                                                                                                                              d d j j b W ! X...[ Q a N +.-.>.=.=.=.,.9.f.g.r.,.D V C D D C Z G =.>.1.8.8.8.8.8.8.8.8.9.y.m.tXfXxXzXvXvXvXNXBXBXNXvXxXjXfXsXsXdXtX#XN.B.B.n.j.a.q.,.G j 2 2 d k S *.5.w.w.6.;.S n e r q q < & & X o o o o X & & < w h n n j n A ;.3.3.4.` 4.p.i.i.p.p.p.p.p.p.%.` ` ` ' ^ W W W W u e r w < & X o o . . X X % * * q 0 0 q q r r r r q e b A ( 4.0.i.k.v.b.B._._.B.B.B.n.n.n.n.n.n.M.                                                                                                                                                                                                                                                                                                                                                                                                                                                                                                                                            ",
"                                                                                                                                                                                                                                                                                                                                                                                              j j n n n M W E R E u b S ;.>.,.>.-.>.7.r.g.f.9.*.V V D G G D D G =.<.7.8.8.8.8.8.8.7.7.8.9.f.m.yXjXxXvXvXvXNXBXBXBXBXbXxXlXkXjXcXsXdXdXtXtXtXZ.N.n.j.r.*.k d j V *.7.w.w.7.;.B h r q q < : & & X o o o X % & 1 w w n ( ;.;.*.( @.0.v.v.i.p.p.V.V.V.p.p.p.p.p.p.%.` ` ` ' ' ! ! ' ^ ^ m M b e < & & o X . . o X & * * 9 9 9 q r r e e r e h B +.5.i.h.b.b._.#XtX#X_.N.#XtXtXtXtXtXyXyXyX                                                                                                                                                                                                                                                                                                                                                                                                                                                                                                                                          ",
"                                                                                                                                                                                                                                                                                                                                                                                            j k n n n n n b u y y e n +.>.5.7.5.,.,.8.d.g.d.,.D z V D *.K G D G =.,.7.8.8.8.7.7.8.8.8.8.8.9.f.M.uXkXzXvXbXNXBXBXZXZXBXNXzXzXzXzXlXkXjXjXfXsXpXdXyXtXM.r.*.k k D 5.i.i.0.*.n d q < < : * & & X o o o X & & q d n A ( 3.i.f.i.3.3.k.B._.v.V.p.p.p.p.4.%.%.%.%.` _ ' ' ' ^ W W W W ^ ^ m m m h r q < : & $ o o o X % = * * 9 0 q r r e e e e n +.q.h.B.B._.tXdXdXdXtXtXdXpXsXsXfXfXfXsXpXtX                                                                                                                                                                                                                                                                                                                                                                                                                                                                                                                                        ",
"                                                                                                                                                                                                                                                                                                                                                                                            h k n k j k h d r q r k D :.5.7.7.7.7.8.r.d.d.q.*.V z C G *.*.G G *.>.7.8.9.9.8.7.7.8.8.8.8.8.8.r.g.Z.sXxXvXNXNXBXBXZXZXZXBXNXNXNXNXNXzXzXzXxXkXfXpXpXsXuXm.8.D V *.q.i.0.;.A d q < : * * & % X o o X O & * q d A ( 3.7.a.b.N.B.s.0.i.b.v.s.p.p.%.%.` _ ' ' ' ^ ^ W W W W T T T T W W M m m n h r r r q < * & X o o X $ % = * 9 0 q r r e e e h D q.b.#XtXtXdXpXsXsXpXsXsXfXjXkXlXxXlXjXpXZ.j.                                                                                                                                                                                                                                                                                                                                                                                                                                                                                                                                      ",
"                                                                                                                                                                                                                                                                                                                                                                                            d j j h i d d d w 1 i V =.7.q.q.0.8.8.r.d.d.w.>.C g z Z K =.*.*.*.=.,.8.9.9.9.8.8.8.8.8.8.7.7.7.8.r.l.tXfXzXNXBXBXBXZXZXZXBXNXNXNXNXbXzXzXxXlXjXsXdXpXsXpXZ.r.D V ;.0.0.:.S d q < * * & & % X o o X o & : q d n ( 0.d.j.j.B.tX_.k.6.3.i.i.4.` ` _ ' W W u u u u u u y y y y y y y y u e p p e r r r e r r q < & & X o o X $ = * 9 0 q q r r r e A 0.b.#XtXtXuXpXsXsXsXsXfXfXjXkXxXxXlXfXyXn.a.                                                                                                                                                                                                                                                                                                                                                                                                                                                                                                                                      ",
"                                                                                                                                                                                                                                                                                                                                                                                            i d j i 2 2 w w w 2 j D 5.w.r.9.q.8.9.d.h.d.7.G z g C G *.=.*.=.=.,.7.9.9.9.9.8.8.8.8.8.8.7.7.7.7.8.d.m.uXkXvXBXBXZXZXZXBXNXzXxXlXlXkXkXjXfXsXdXtXtXtXtXrXn.9.D N +.>.;.S h q : * & & & & X o o o O & < w h A *.5.s.n.B.n.b.B.n.i.;./ ) / ^ ^ W a u u u 0 0 0 0 0 0 y y y y y 0 0 0 0 q 1 1 q q q r r r r r r q < & X . . X $ = 9 9 9 q q r r r n 3.h.B.N.N.#XtXyXuXuXuXuXpXsXsXcXjXsXdXZ.j.q.>.                                                                                                                                                                                                                                                                                                                                                                                                                                                                                                                                    ",
"                                                                                                                                                                                                                                                                                                                                                                                            w d d w < , < w w w j D 7.a.d.r.9.9.r.f.j.d.>.V f z Z K =.*.*.=.,.7.9.9.9.8.8.8.8.8.8.8.8.7.,.,.,.7.r.j.Z.sXxXNXZXZXZXBXNXkXsXdXtXtXtXtX#XN.B.b.j.h.j.b.j.a.-.V j V D S h r q * & & & X X o o o o & < q d A ;.0.s.h.n.B.j.i.i.0.;.m b e u u 0 0 0 u a b s u u u y u u T E T y y 0 0 q * * * * * 9 q q q r r e r q < & X . . X $ = 9 9 * 9 q q r h ( 0.k.k.k.h.j.n.n.m.m.m.M.N.Z.tXtX#Xm.j.r.7.:.                                                                                                                                                                                                                                                                                                                                                                                                                                                                                                                                    ",
"                                                                                                                                                                                                                                                                                                                                                                                            w d d w , & - < 1 2 d S ,.r.d.d.r.r.d.f.g.9.*.z f z D *.*.*.=.>.7.9.9.r.9.8.7.8.8.8.8.9.8.7.,.,.>.7.w.f.n.rXjXvXBXZXBXzXjXtXb.d.a.i.i.i.i.q.0.5.3.3.3.3.3.;.C d 2 d n h r q * * & % X X o o o X & , 1 d n +.0.k.h.k.k.k.0.;.( S n e q 0 0 0 0 0 u M / ) ) / ^ W ! ! ! { { { ! W a u 0 0 0 9 = = = * * * q r r e r q : % o . . X $ = = * * 9 q q r n ( ;.;.;.:.3.5.7.7.7.0.8.q.9.w.a.i.q.0.7.>.;.D                                                                                                                                                                                                                                                                                                                                                                                                                                                                                                                                   ",
"                                                                                                                                                                                                                                                                                                                                                                                            w i d w < & & - < 1 w N *.7.w.a.d.f.j.j.d.7.D g z S +.*.*.G *.>.7.9.r.r.9.8.7.8.8.8.8.8.8.7.,.>.>.7.w.d.j.N.sXxXNXNXzXfXrXf.5.;.;.@.( ( ( ( ( ) / / A A A n d 3 , 1 r r q 9 * * & X o o o o X & , 1 w k S >.q.k.k.i.6.4.( m h e r q 0 0 u a W W ^ ` e.p.p.p.%.o.O.O.O.#.#.O.o.} ! W W u u 0 9 * * = = = * < q r r r q * & o . . $ $ % = = 9 q q q r b n n n n n A A S S S S S S ( ( ( ( *.;.:.;.( S                                                                                                                                                                                                                                                                                                                                                                                                                                                                                                                                 ",
"                                                                                                                                                                                                                                                                                                                                                                                            2 w i w 3 , & & - , 1 j S =.7.9.f.l.n.l.9.=.V z C *.:.=.*.G G >.8.r.r.r.8.7.7.7.8.8.8.8.8.7.,.>.>.7.r.f.j.N.pXxXzXzXjXrXd.3.( A / m m m M M m m M b M b b e 1 & & & < q 9 * = % $ o X o o X & : 1 w j A *.>.7.0.6.;./ m s r q q r e a ^ _ _ _ _ _ %.p.V.V.p.p.$.#.#.R.R.R.R.#.O.o.' W W W u y 0 r 0 0 * * * : q q r q q : & X o o X $ $ = * 9 9 * : q q q q q r r w e d d h h l n n n n V D *.*.+.S V                                                                                                                                                                                                                                                                                                                                                                                                                                                                                                                               ",
"                                                                                                                                                                                                                                                                                                                                                                                            2 2 w w 2 , & o o & , d N D =.8.f.m.M.z.7.D z C *.>.,.,.-.*.*.>.8.r.r.r.8.7.1.7.8.8.8.8.7.1.,.>.>.7.r.h.n.Z.sXlXxXcXtXh.3.( A m ^ ^ M a e e e e e e e e r q & & X & * * * = $ $ X . o o o & & 1 s n A ( *.:.:.;.( m e r r q e M / / ` p.p.p.$.$.&.%.p.V.V.p.p.$.$.#.R.R.R.R.#.O.o._ ' W W T u a W a u r 0 * * * : q q q < * & o o . . X % * * * = & * * * * * : : < < q w r e h h h h h k A ( *.*.D S                                                                                                                                                                                                                                                                                                                                                                                                                                                                                                                               ",
"                                                                                                                                                                                                                                                                                                                                                                                            2 2 2 w 2 < & o o o - w j V D ,.f.m.n.d.>.V C *.>.7.8.7.,.>.=.,.7.9.9.9.8.7.7.7.7.8.8.8.7.,.>.>.<.7.d.j.M.yXfXkXfXtXj.7.( / m ^ ^ ^ a u r q q q q q q q < * & X X % & = = % X X . . o o & - 1 e n S ( *.*.( S n h r q q r M / 4.e.p.V.).).).).E.$.%.p.e.e.e.%.%.O.O.O.O.O.O.o.o._ ! W W T T W ' _ ' W W u q * * * * : < < < & o o . . X X & * * % % % % % % % % & & & & : 1 w p h h d d h n S ( +.( S V                                                                                                                                                                                                                                                                                                                                                                                                                                                                                                                             ",
"                                                                                                                                                                                                                                                                                                                                                                                            3 2 2 2 3 , & X o o & 2 j k C =.r.g.f.7.G D *.,.8.8.8.8.8.7.,.,.7.8.9.8.8.8.7.7.7.8.8.7.,.,.>.<.,.8.d.l.Z.aXhXfXuXn.q.;./ / ^ M M M u q * & & & & & & & & & X o X X % $ $ X X . . o X & , 1 w n S +.;.*.( n j w < * q e m ) e.v._._._._.eX_.).'.&.o._ ` ` ` _ _ } } { { ! ! ! ! W W T T T y W _ _ _ ' W W u r < * = * * : < < & o o . . X % = = $ X o o X o X X X X X X & & < w i d d e e h n S ( +.D S                                                                                                                                                                                                                                                                                                                                                                                                                                                                                                                             ",
"                                                                                                                                                                                                                                                                                                                                                                                            1 2 2 2 < & o o . o & w j k V G 7.r.7.*.D *.7.9.r.9.9.9.9.9.8.7.7.7.8.7.8.8.8.7.7.7.7.7.,.,.,.,.7.9.f.n.tXsXfXpXN.a.:.( / / m M s e q * $ X o o o o o o o o X o X X X X X . . . o o & , 2 d n A ( ;.@.( n w 1 & & : e ^ ` e.v._.dXdX_._._.).'.$.o.! ! ! ! ! ! { { { { Q Q R R R E E E Y Y Y W ' _ ' ! W W W u q q < * * & * : < & & o o X X $ $ $ X . . . . . . . . . X o X & , 2 w w w e e b A ( *.+.S A                                                                                                                                                                                                                                                                                                                                                                                                                                                                                                                           ",
"                                                                                                                                                                                                                                                                                                                                                                                            1 2 2 2 < & o o . o & w j j z D >.1.=.C D ,.r.f.f.y.r.r.r.r.9.8.8.7.7.7.7.8.8.7.,.,.,.,.,.,.,.7.8.r.j.N.yXsXsXrXh.3.( / / m b e q : & X . . . . . . . . . . . X o X X . . . . . o o & < d n S ( ( ( S n w < & & * r m ` p.V._.dXdXdX_.).'.E.R.O.} ! ! { } ....X. . .X.[ [ R R R R R R R E Y T T W W W W W W a e r q q : * * * : < - & X o o X X o . . . . . . . . . . . . . o o , < w w w e h A ( ;.*.+.S                                                                                                                                                                                                                                                                                                                                                                                                                                                                                                                           ",
"                                                                                                                                                                                                                                                                                                                                                                                            2 2 d 2 3 & o o . o & w j j g C =.,.K C G 8.g.x.l.g.y.r.r.r.9.9.8.7.1.7.8.8.8.7.,.>.,.,.1.1.7.8.9.d.b.tXsXsXuXn.0.( A m m M e q * % o . . . . . . . . . . . . X X X . . . . . o + & < w j S ( ( ( A h r : & * < r M ` e.p.V._._._._.).).(.E.R...} ! { ..U.U.U..... . .X.[ ] ] ] ] ] ] R R E Y y y y W ! ! ! W u e e r q : * * : < < : & X o o . . . . . . . . . . . . . . . . . o & < w w e h n S +.;.*.( S                                                                                                                                                                                                                                                                                                                                                                                                                                                                                                                         ",
"                                                                                                                                                                                                                                                                                                                                                                                            2 i d i 2 , o o . o & 2 f f j V *.>.G V D 7.f.m.m.x.g.d.r.r.r.9.8.8.7.7.8.8.8.,.>.-.>.,.7.7.8.9.a.j.N.pXfXsX#Xd.;.A m m M s r * X . . . . . . . . . . . . . . o o . . . . . o o & , q d n S ( S n h q * * < r b m / 4.p.p.V.V.).).).`.`./.~.W.U.} ! { ....U.........X.[ [ ] R R R R R R R E Y y t Y ~ { { ! T u u r r r r q q : < < : & & X o o o . . . . . . . . . . . . . . . . o & < r e e h B ( ;.;.( S                                                                                                                                                                                                                                                                                                                                                                                                                                                                                                                         ",
"                                                                                                                                                                                                                                                                                                                                                                                            2 i d i 2 , o o . o & 2 d f j C *.>.G z C -.r.l.m.m.l.g.y.r.r.9.9.8.8.8.8.8.7.,.=.=.-.,.7.8.9.r.f.m.tXfXjXpXn.7.( m n M b r : % X . o o + o o o o o o o o X X o o o o o o o o o & < w h B S S n d q * & < h m ) ) ` 4.p.p.%.%.$.E.`.`.`././.~.R.} ! ! } ......} } } } { { Q ! ! ! ! ! Q Q ~ Q E E E ! } { ! E y y r r r r r q q : : : * & $ X X X X X X X X X X X o o o X X o . . . o , w w e d n S +.;.+.S N                                                                                                                                                                                                                                                                                                                                                                                                                                                                                                                       ",
"                                                                                                                                                                                                                                                                                                                                                                                            w w i w 2 , & o o o & 2 d j k S =.<.G z z G 1.d.n.M.m.l.f.r.r.9.9.9.9.8.8.8.7.>.*.=.-.,.8.9.9.d.l.Z.pXhXhXyXh.:.A n b b e q & o . . o & , , , , & & & & , , , , , , , , & & o o & 1 i n N B n d 1 * * < d A ;.4.4.4.4.4.` _ o.O.E.`.`.`./.~.E.#.} ! } o.O.O.O.O.#.#.........#.#.#.#...........} { { } } { Q E y y 0 0 r r u r q q * : * * = $ $ X $ $ % & & * * < , , & & & & O o . o & 1 r w e h n ( +.+.S V                                                                                                                                                                                                                                                                                                                                                                                                                                                                                                                       ",
"                                                                                                                                                                                                                                                                                                                                                                                            w w w w 1 < , & o o & 2 d j z D =.,.G z z C ;.8.f.n.m.x.g.f.r.r.r.r.9.9.9.8.1.-.*.*.-.,.8.9.r.f.m.tXfXjXsX#Xi.+.B M b b r * X . . o & 3 i j j j d w w w w w d d d i w w 2 < , & & 1 i j n j p q * * 1 d A ;.e.e.e.` ` _ _ ! { ..E.(.`.(.E.R.$.#.#.#.#.R.E.E.R.R.E.(.~.~.~.(.(.(.(.(.E.E.Y.Y.Y.Y.U.U.....{ Q Q E T y y 0 0 r r r 0 q * * * = % $ $ & * q q q w w w w w w r q q < & o o o , 1 r r e h A ( *.( C z                                                                                                                                                                                                                                                                                                                                                                                                                                                                                                                     ",
"                                                                                                                                                                                                                                                                                                                                                                                            w w w 1 < < < , - & , 2 f g N D -.,.G z z V D =.9.f.l.x.l.g.f.d.r.r.r.9.9.9.7.>.=.*.-.,.8.r.f.l.N.uXfXfXuXb.5.( m m M e q & o . o o , i N G =.*.S V n n n V A A A N n k j d w < & < w p d w 1 * * q d A +.3.i.e.4.` _ ! ! { { } #.R.E.$.$.$.'.(.E.E.(.(.(.(.(././././.|./././.`././././.^.^.^.~.~.W.Y.H...X.} { ! ! T y y y y r r 0 q 9 * * = $ % * q e h b l n n n n n n b h d 2 & X X & < r r r e n ( ;.*.D V                                                                                                                                                                                                                                                                                                                                                                                                                                                                                                                     ",
"                                                                                                                                                                                                                                                                                                                                                                                            w w w < , , < 2 < , , w j k N D =.<.G z z V C G -.8.f.l.x.l.j.f.f.y.r.9.9.9.8.,.=.=.-.,.8.y.j.n.rXpXhXsXZ.a.;./ / M M e < X . o o & < k +.0.d.r.5.;.( ( ( +.;.;.;.( S S S V h w < & < 1 1 < & & < e A @.4.6.6.4.` _ ! { { ! ! ! } o.&.%.p.'.`.`.`.`.`.`.`.`./.|.|.|.|.|.|.|.|.|.|.|.|.|.|.}.}.{.^.!.Y.U.U.U.U.....} { ~ E T u u 0 0 0 q 9 9 * $ & < e M m A S S ( ( ( ( ) / S n d < o X & , q r r e b A +.;.*.D V                                                                                                                                                                                                                                                                                                                                                                                                                                                                                                                   ",
"                                                                                                                                                                                                                                                                                                                                                                                            w w w < , , < 2 2 3 3 i j k N S =.-.D z z C C C G -.9.f.l.m.l.j.f.f.a.w.9.9.8.7.>.-.>.1.9.f.n.N.tXsXfXuXn.7.( / ^ ^ b r * X . o X & w V 3.h.n.l.a.3.;.;.;.:.3.3.3.;.+.( ( S n d < & & & & & & & r n ) 4.6.4.4.` ' ! { { ! ! ! ! ! _ &.$.'.`.eX,X,X,X,X,X,X@X|.|.|.|.}.}.}.|.|.|.|.|.|.{.{.{.{.{.{.!.Y.Y.Y.Y.Y.Y.R.H...} { ~ T u u y r 0 9 9 = $ & q h m / ( ( ( ;.;.4.;.@.( ( S k 2 & o o & < q r r e m ( :.:.+.V                                                                                                                                                                                                                                                                                                                                                                                                                                                                                                                   ",
"                                                                                                                                                                                                                                                                                                                                                                                            w w w 1 , - < 2 w w 2 d k k N C *.=.D z V V V V C H -.r.z.m.m.n.l.f.d.r.9.9.8.7.,.,.1.8.r.j.m.rXuXsXaX#Xd.:./ / ^ M e q & o . o o < j ( 0.h.n.j.q.:.( ( ( ;.;.;.;.+.( S S A n w , o X X X & & w b / ` 4.4.` ' ' ! ! ! ! ! ! ' ' _ o.$.E.`.`.,X1X1X1X,X,X|.|.|.|.}.}.{.{.{.{.{.{.{.{.{.{.{.{.{.].Q.Q.L.J.Y.Y.Y.Y.Y.U.U.H...{ ! ~ T y 0 0 9 * = $ & < p n B S / ( ( ;.;.( ( ( S V j w < & o & - q q r e b ( :.>.*.D N                                                                                                                                                                                                                                                                                                                                                                                                                                                                                                                 ",
"                                                                                                                                                                                                                                                                                                                                                                                            r r e r < & < 1 2 2 2 d k k z C K =.Z z c V V z z V G ,.u.c.M.M.m.z.f.d.r.r.9.8.7.7.9.r.f.l.Z.yXsXsXtXb.0.@./ / ^ M e * X o X X & w A ;.0.i.a.0.;.S m m m B A S A B n n n h e 1 & X . o X & 1 h A ) ` ` ` _ ' W W E E ! ! ! _ o.o.#.R.(.`.,X,X1X1X1X,X|.|.|.}.}.[.[.[.[.[.[.[.{.{.{.[.[.{.{.{.].].Q.P.L.L.L.L.J.J.H.Y.U.H...} { ~ T y 0 9 9 = % & & q e b b n n m A A B n n n h d w 1 < & o & < q r r b A ;.:.*.D V                                                                                                                                                                                                                                                                                                                                                                                                                                                                                                                 ",
"                                                                                                                                                                                                                                                                                                                                                                                            r e e r q * * q q 2 2 d k k z C K =.Z z z V N k g z C =.9.z.M.Z.N.n.z.f.y.r.9.8.8.9.y.g.l.M.rXpXsXpXN.i.;.) / / m a q & X o X o < h ( 3.6.3.;.S n d e r r e e p e e r r r q < * X . . o o < d B ( ) ` ' ' ! ! W E T T W ! _ o.O.O.R.E.(.`.,X,X1X1X,X@X|.}.{.{.[.[.[.[..X.X.X.X.X.X.X.X.X.X.X.X[.[.{.].Q.Q.P.L.L.L.L.J.K.H.H.H...{ Q Y y 9 9 = = % & * < q q r r e e e e r r r w w w r 1 - & & * q r r u m ( *.*.( V k                                                                                                                                                                                                                                                                                                                                                                                                                                                                                                               ",
"                                                                                                                                                                                                                                                                                                                                                                                              r e r q 0 9 y 0 q q d k k N C K =.Z z z z z g g g V G ,.y.m.Z.Z.M.n.g.f.r.r.9.9.r.g.x.M.D.uXsXsXtXj.5.( / / / M e : $ o X O > w V ;.3.4.( m h r q q : * * < q q q q : * * & $ o . . o , w n ( @.( / ^ W W W T T T T ! _ o.O.#.R.E./././.|.|.|.|.|.|.}.[.[.[..X.XOXOXOX+X>X>X>X>X*X*X%XOXoXoXOXOX.X[.[.{.].Q.Q.Q.L.L.J.K.G.H.H...[ R Y y 9 9 = = % $ & & * * * * * * * * : : : q r e w 1 & & * q r r r b m ( +.( A k                                                                                                                                                                                                                                                                                                                                                                                                                                                                                                               ",
"                                                                                                                                                                                                                                                                                                                                                                                              r r r q y Y Y Y y r d k k z C G *.Z g z z k j g g z C *.7.g.m.Z.Z.M.l.f.y.r.r.r.f.l.M.Z.tXsXfXpXN.w.;./ / ^ ^ b r & X X X & 1 k ( :.3.@.m e r q : * * = = * * * * * = & % $ X . . o & w n / @.) ) ^ u T T T T T T ! _ o.O.#.E.~.~./.|.|.|.|.|.}.}.[..X.X.XOXOX*X*X*X>X:X<X<X<X<X:X:X;X*X*X%X%X%X%XOXOX.X[.[.{.].Q.P.L.K.K.G.H. .X.[ R Y t 9 9 = = $ $ $ $ $ $ $ $ $ $ % & * * < r e e r < & & * 0 r r u b S ( ( S n d                                                                                                                                                                                                                                                                                                                                                                                                                                                                                                             ",
"                                                                                                                                                                                                                                                                                                                                                                                              e r q r y Q [ [ Q a h k k z C G *.C g z z g f j g z V D -.9.g.m.C.M.x.g.f.r.r.f.z.m.Z.tXuXsXsXyXj.7.( A ^ ^ M e < % X o O < d A ;.;.;.S b r q q * = & & & & & & & % $ $ X o X . . o < d A ( ) ) ^ u y y y y y T ! ! o.O.R.E.~.~./.^.}.^.!.!.{.{.[..XOXOX*X*X>X:X:X:X<X9X9X9X9X9X9X<X:X:X:X;X;X;X=X&X*X%XOXOX.X[.[.].P.L.J.K.F.F.| X.[ R Y t 9 9 9 = = $ X . . . . . o X % & * q q e e s w < & % * q r u b A ( ( S N h                                                                                                                                                                                                                                                                                                                                                                                                                                                                                                             ",
"                                                                                                                                                                                                                                                                                                                                                                                              h w q 0 Y X.U.U...! M n k k C D G V g z z g f j g z V C G >.9.g.c.M.m.l.g.f.f.j.n.M.Z.yXsXfXsX#Xd.>.( / ^ ^ u q & o . o & w n ( ;.;./ n r q q * * % $ X X X X X X X X o o . . . o - w n A ( / / a u y 0 0 y y W ! } O.R.E.~.~.~.~.!.!.Q.Q.Q.].[..XOX*X*X:X:X<X8X8X9X9XMXMXmXmXMXMX9X9X8X8X5X5X5X:X;X;X;X*X*X%XOX.X[.].Q.P.L.F.F.| | X.[ R Y y t t 9 9 $ X . . . . . . o X & * * q r e h w 1 & X & q r r e n / ( ( A j i                                                                                                                                                                                                                                                                                                                                                                                                                                                                                                           ",
"                                                                                                                                                                                                                                                                                                                                                                                              k j r y ~ U.~.~.E.#.^ n k k V D D V k z z k j j g z V C Z G -.9.g.c.m.m.x.l.l.l.m.Z.rXuXfXsXyXb.0.;./ ' ^ M u * X . X O , d S +.;.( n e q q q * % $ o o . o . o o X . . . . . . o < d n / / ^ a u y 9 9 9 y T ! } O.R.E.E.~.~.~.!.Q.P.P.P.].[.[.OX%X;X:X8X8X9X9XnXnXmXmXVXVXVXVXmXnXnXwX9X0X8X8X5X5X5X:X:X;X=X&X%X.X[.[.].P.J.F.F.| | | [ R Y Y Y t 9 9 $ X . . . . . . o % & * q q e s e w & X % * q r r b B ( ( S n j                                                                                                                                                                                                                                                                                                                                                                                                                                                                                                           ",
"                                                                                                                                                                                                                                                                                                                                                                                            n k k s y Q Y./././.E._ n k k V D D V k V V k j j k z V C C Z G >.9.g.m.C.Z.M.m.m.M.Z.rXaXfXsX#Xd.3.( ) ' ^ M q & X . o & 2 k S ;.( B h q q * * = $ X . . . . . . . . . . . . . o - w j B A m M u y y 9 0 y u W } O.R.E.E.~.~.!.!.P.P.P.P.].[. X.X%X&X:X8X9XnXnXmXmXVXVXVXCXCXCXVXVXmXmXnXnXwXwX0X0X8X8X8X5X5X;X=X&X%XOX.X[.].P.L.K.F.F.| X.[ R R Y Y t 9 = $ X o . . . . o X $ % * q r e e r < & X & q q r e b A S S A n                                                                                                                                                                                                                                                                                                                                                                                                                                                                                                           ",
"                                                                                                                                                                                                                                                                                                                                                                                            k k k d u { Y./.,XeX'.` m k k V S D N k V V N g g g z V C C C C G ,.r.l.Z.rXrXZ.Z.Z.Z.yXsXfXuXn.0.@./ / ' M e q $ . . O < d V ( ( S b r q * * & $ X . . . . . . . . . . . . . . + < d n B m M u y y y 0 y u W ! o.R.E.E.Y.Y.Y.L.L.P.P.P.].[. XXXoX%X;X5X9XnXmXVXVXVXCXCXCXCXCXCXVXVXmXmXnXnXnXwXwX0X0X0X0X8X5X3X-X-X&X%XOX.X[.].Q.L.J.K.F.| | [ ] R Y Y t 9 = $ X X . . . . o X % & : q r r r < & O % * q q r e n A ( ( D                                                                                                                                                                                                                                                                                                                                                                                                                                                                                                           ",
"                                                                                                                                                                                                                                                                                                                                                                                            k n n h u ~ R.`.,XeX).%.F k k N C C N k V C V k g k z C C C V V C K 1.g.Z.yXyXtXrXD.rXpXsXsXrXh.3.) / ^ ^ M r * o . o & 2 n ( ( / n e q * = & X o . . . . . . . . . . . . . . o , w h n m b e 0 0 0 0 u u T ! } #.E.E.E.Y.J.J.L.P.P.P.].[. X XXXoX&X:X8XwXmXVXVXCXCXCXCXCXCXCXVXVXmXmXnXnXnXwXwX9X0X0X0X0XqX6X3X4X-X;X&X%XOX.X[.{.].Q.T.K.F.F.| | ] R Y Y t 9 = $ $ X . . . o o X % & : q q q q & o X & < q r r h B ( ;.:.*.                                                                                                                                                                                                                                                                                                                                                                                                                                                                                                        ",
"                                                                                                                                                                                                                                                                                                                                                                                            k N V n a W #.`.eXeX).4.B j j n V V k k C C V g g g N C C C c z c Z =.r.m.tXpXuXyXtXuXsXfXuXB.q.+./ / / m b < & . . o , d A ( ( B h q * * & $ o . . . . . . . . . . . . . . . + < i j n n b r 9 9 0 y u W ! ! o.#.E.E.Y.K.K.J.L.Q.].].[. X XXXXXoX*X:X8XwXmXVXCXCXCXCXVXVXVXVXmXnXnXnXwXwX0X9X8X8X8X8X8X8X6X5X4X4X-X;X=X&XoXXX.X X[.{.!.!.J.F.F.F.| ] R Y Y t 9 = $ $ o . . . o X $ & * : q q q < & X & * q r r e n ( >.5.-.                                                                                                                                                                                                                                                                                                                                                                                                                                                                                                        ",
"                                                                                                                                                                                                                                                                                                                                                                                            j N V N b W } E.`._.'.` n j j N V V k g V C V g j g z V C C c z c C G 1.g.Z.uXpXpXpXaXfXsXtXh.>./ m m m b r & o . o & 2 k S ( S b r q * = $ X . . . . . . . . . . . . . . . . & 2 h j b h r 9 9 9 0 u T W ! } O.R.R.Y.H.K.J.L.Q.].[.[. X X XXXXX%X*X:X8X9XmXVXVXCXVXVXmXmXmXnXwXwX0X0X8X8X5X5X:X:X:X:X5X5X5X4X4X-X;X;X=X&X%XoXXXXX.XOX}.{.Q.L.J.F.| | ] R Y t 9 9 = $ X . . . . X X & & * < q q < & & o * 0 0 0 e l ( >.7.>.+.                                                                                                                                                                                                                                                                                                                                                                                                                                                                                                      ",
"                                                                                                                                                                                                                                                                                                                                                                                            j n V A n u ! #.'.'.p./ b j j N V V j j V C V k f f z V C V c c c C D =.9.l.rXuXsXfXfXfXuXm.q.+.A m m b e < o . . o < j V ( / m e q 9 * & X X . . . . . . . . . . . . . . . o , w h h d r q 9 9 9 0 u T ! { O.R.R.U.H.K.K.L.Q.{.[..XOXOXXXXXXXoX%X&X;X:X9XnXmXmXVXmXmXnXwXwX9X8X8X5X5X5X5X;X;X;X;X;X;X;X;X;X;X;X=X=X=X&X&X%XoXXXXXoX%X*X}.}.Q.Q.J.F.F.| ] R Y t 9 9 = $ X . . . . . X & * : q q q < & & & q 0 y u b S >.5.:.D                                                                                                                                                                                                                                                                                                                                                                                                                                                                                                       ",
"                                                                                                                                                                                                                                                                                                                                                                                            d k V V n b u ' O.%._ M d d k N V n j f z C C z f f g c V V c c C C C G >.r.n.tXaXhXkXfXtXj.>.S n n n b r & o . o & w n S ( A b r 0 9 = $ X . . . . . . . . . . . . . . . X o < w d p r q 9 9 9 0 u u T ! } O.R.H.H.K.K.L.Q.{.[.OX*X*X*X>XOXoXoX%X%X;X:X8X9XnXnXnXnXwX0XqX6X5X5X4X4X4X-X-X-X=X=X=X=X=X=X=X=X=X&X&X%X%X%X%X%XoXXXXXoX%X*X*XOX}.{.Q.J.F.F.| ] R Y t 9 9 = = $ X . . . X $ & * 9 q q 1 - & & * 0 y u e B +.;.+.S                                                                                                                                                                                                                                                                                                                                                                                                                                                                                                       ",
"                                                                                                                                                                                                                                                                                                                                                                                            i j n V n h u T ! W W u d j k N V k d d z C D V j f g z V V c V C C C C G ,.r.m.yXfXjXsXZ.r.*.A n n l p 1 o . . X 1 h A ( / n e q q * & $ o . . . . . . . . . . . . . . . o & w d d e q 9 = 9 9 y u T W ! ..I.H.H.G.K.L.P.].[.OX*X;X:X:X:X>X*XoXoX%X%X;X:X8X8X9X9X0X8X5X5X3X4X4X-X-X-X-X-X=X=X=X=X=X&X&X&X&X&X&X%X%X%X%X%XoXXXXXXXoX%X*X*X*XOX.X{.Q.J.F.F.| ] R Y t 9 9 9 = $ $ . . . X % = 9 0 q 1 < & & * 0 y u u M / ( S n                                                                                                                                                                                                                                                                                                                                                                                                                                                                                                       ",
"                                                                                                                                                                                                                                                                                                                                                                                            2 d j n N k e 0 y y y r d j k N n j w i g C D D V g g g z N V V V C V V C K ,.d.M.uXsXuXn.7.( B n n h w , X . o & w n / ( A b q q 9 * % X o . . . . . . o o o o o . . . . O < r d h r 0 9 = 9 0 y u W ! { ..H.H.G.K.J.Q.].[.OX*X;X:X8X8X<X:X*X%XoXoX%X%X;X:X:X5X5X5X5X3X4X2X2X-X-X-X-X-X-X-X-X-X-X=X=X=X=X=X&X&X%X%X%X%XoXoXXXXXXXXXXX%X*X*X%X%X}.{.Q.J.F.| | ] R Y t 9 9 9 9 = $ . . X $ = * q q q < & & = 9 0 u u a m / m n                                                                                                                                                                                                                                                                                                                                                                                                                                                                                                       ",
"                                                                                                                                                                                                                                                                                                                                                                                            3 2 d k N n h q 9 9 q w j j k N k d 2 2 f V D G D C N z z z V V V V V V V D *.7.g.N.rXM.r.:.S B m n d 1 & o o & 2 h A / / m e q 9 * & $ X o . o o o o o o o o o X o . . . & < r e e q 9 = = 9 y y T W ! } ..H.G.F.K.L.].[.OX%X;X:X8X8X9X8X<X:X*XoXoXoXoX%X&X&X;X;X-X2X2X2X2X2X4X4X4X4X4X4X4X4X4X-X;X;X;X-X-X=X=X&X&X&X%X%XoXoXoXXXXXXXXXoX%X%X%XOX}.Q.L.K.F.| | ] R Y t t t 9 9 = $ X X X $ = 9 q q : & & $ = 0 y u a M m m n                                                                                                                                                                                                                                                                                                                                                                                                                                                                                                       ",
"                                                                                                                                                                                                                                                                                                                                                                                              2 i j n n j w < & > w j j k k j i 3 1 d z D *.>.=.G V z z N V V V c z V C G -.9.g.j.r.>.( B m m b w < o o o , d n / / A b r q * = $ o o . o o & - , - & & & & & X o . o & 1 r e r q = = = 9 y y T ! { ..G.F.F.F.L.Q.[..X%X;X:X8X8XwXwX8X8X:X*XoXoXoXoXoX%X%X&X=X=X-X2X2X4X4X5X5X5X5X5X5X5X5X5X5X5X5X5X5X:X;X;X;X;X=X&X&X%X%XoXoXXXXXXXXXoX%X%X*XOX}.Q.L.K.F.F.| ] Y Y y t t 9 9 = $ X X $ % * 9 q * * % $ = 9 y u a M m m m                                                                                                                                                                                                                                                                                                                                                                                                                                                                                                       ",
"                                                                                                                                                                                                                                                                                                                                                                                              < 2 d k n k d 2 & , 2 f j k k j w < 3 d g Z -.7.8.,.*.C z z V V V z z V C G =.7.r.r.,.( B n m m h w , o o & 1 h A / A n e q * * & X X . o o - < 2 2 3 < < < < > & X o X & 1 r q q * = = = 9 y y T ! { ..F.F.F.K.P.]..XOX*X:X5X8X0XwX0X8X5X;X*XoXXXXXXXXXoXoX%X&X&X=X-X4X3X5XqX0X0X0X0X0X0X0X0X0X0X0X8X8X8X8X5X5X5X;X;X=X=X&X%X%XoXXXXXXXXXoX%X%X%XOX[.Q.L.J.F.F.[ R Y Y y y y 9 9 = $ $ $ $ = 9 9 * = $ X $ 9 y u a m / m m                                                                                                                                                                                                                                                                                                                                                                                                                                                                                                       ",
"                                                                                                                                                                                                                                                                                                                                                                                                3 i j n n j d < , 2 f j k k j w < 1 i j C -.9.d.r.1.G V z z c c c c V C G =.1.9.9.>.S n b b b d 1 & X X & w k A A m p q q 9 = % o . . o & < w j j i 2 < 1 1 1 < & O o & 1 q q * & $ % 9 0 y u W ! }  .F.F.K.L.Q.[.OX*X;X5X8X0XwX0X8X5X:X;X%XoXXXXXXXXXXXXXoX%X&X-X4X3X6XqXwXnXnXnXnXnXnXnXnXnXwXwXwXwXwXwX0X8X5X5X5X;X;X-X=X&X%X%XXXXXXXXXoX%XoXOX.X[.].P.L.K.| [ R Y Y Y y y t 9 = % $ % = 9 9 = = % X $ 9 0 u a m / m m                                                                                                                                                                                                                                                                                                                                                                                                                                                                                                       ",
"                                                                                                                                                                                                                                                                                                                                                                                                < 2 d k n k j 2 < 2 d j k k j w 3 1 d f V =.9.f.g.y.,.G c z z c V V V C H =.7.9.8.>.S n b M h r < o o X & q h n n h q q 9 * = $ X . . o & 2 j n N k d 2 1 2 w 1 < & & & < < : & $ $ = 9 0 y u W { } X.F.F.J.Q.{..X%X;X:X8X0X0X0X8X5X:X;X&X%XoXXXXX XXXXXXXoX%X=X-X4X5XqXwXnXmXmXmXmXmXmXmXmXmXmXnXnXnXnXnXwX0X0XqX5X5X4X4X-X=X=X&X%XoXXXXXXXXXoXXX.X.X[.].Q.L.F.| ] R E Y T Y y y 9 * = = = 9 9 9 = $ X $ 9 0 u a M / m m                                                                                                                                                                                                                                                                                                                                                                                                                                                                                                       ",
"                                                                                                                                                                                                                                                                                                                                                                                                < 2 i j k N k d 2 2 d j k n j w 3 2 d f z G 7.f.l.g.r.-.Z c z V C C C C H =.8.r.9.>.S n b b e q & o o X & q d h s r q 9 9 * % X X X o o & 2 j V S V k i 2 w w w 2 < - & & & & % $ $ = 0 0 y T ! { { | | F.L.].[.OX&X;X5XqX0X0X8X5X:X;X&X%XoXXXXXXX XXXXXXXoX%X=X-X3X6X0XnXmXVXVXVXVXVXVXVXVXVXVXmXmXmXnXnXnXwX0XqXqX6X5X3X2X2X-X=X&X%XoXXXXXXXXXoXoXOX.X[.].Q.L.F.| ] R E E E T y y 0 9 * = 9 9 9 = $ X $ * 0 u u M ^ m m                                                                                                                                                                                                                                                                                                                                                                                                                                                                                                       ",
"                                                                                                                                                                                                                                                                                                                                                                                                , 3 2 d j z N j d i f k N N k i 3 2 d f z Z >.r.g.l.g.9.=.Z V C Z C C Z H =.8.r.9.,.D n b b e 1 & o o X * q e d r q q q q * $ . . X o o & < d N S S A k d w r w w 2 < - & & & $ $ $ = 9 0 y W ! { [ [ | K.Q.{..X%X=X4X5XqXqX8X5X:X;X&X%XoXoXXXXXXXXXXXXXXXoX%X=X-X5X8XwXnXmXVXCXCXCXCXCXCXCXVXVXmXmXmXmXnXnXwX0X0XqX6X7X3X3X4X2X-X=X&X%XoXXXXXXXoX%X%XOX.X[.].Q.J.F.| ] R E E E T u y 0 0 9 9 9 9 = $ X X * 0 u u M ^ M M                                                                                                                                                                                                                                                                                                                                                                                                                                                                                                       ",
"                                                                                                                                                                                                                                                                                                                                                                                                  < 1 2 d k V z f d j k V V n i < 2 d f g V K 1.r.z.z.f.9.-.G Z Z Z Z Z H -.8.r.9.>.( m b b e 1 o . . X * r e d r q q q q * X . . o o o + , 2 j C ( ( S k d w w w w w 1 & & $ X $ $ = 9 9 y W ! { [ [ | J.Q.[.OX&X;X3X6X6X5X5X:X=X&X%XoXXXXXXXXXXXXXXXXXoXoX%X&X=X5X8XwXnXmXVXCXCXCXCXCXCXCXVXVXmXnXnXnXwXwX0X0XqX6X6X7X3X3X3X4X2X-X=X&X%XoXXXXXoX%X%X*X%XOX[.].P.J.F.] R E E W W T u u 0 9 9 9 9 = $ X X = 0 y u a M M b                                                                                                                                                                                                                                                                                                                                                                                                                                                                                                       ",
"                                                                                                                                                                                                                                                                                                                                                                                                  , 3 2 i g V N j d j n V V n i < 2 d f g z Z =.1.y.z.l.g.9.-.G Z Z Z Z G -.8.r.9.>.S m M b e 1 o . . X ; r h h r q q q q * X . . . o o o & , i N ( *.+.S n d d d d p w 1 & & X X $ = 9 9 u W ! { [ ] F.L.]..X%X=X4X3X5X5X5X;X=X%XoXoXXXXXXXXXoXoX%X%XoXoXoX%X%X&X;X8X9XnXmXVXVXCXCXCXCXVXVXmXmXnXnXwXwX0X0XqX6X6X7X7X3X3X3X4X2X2X-X-X=X&X&X%XoXoX%X%X&X&X%X.X[.Q.L.F.| ] R E ~ ~ W T T y y 0 9 * = $ . X = 9 y u u M M b                                                                                                                                                                                                                                                                                                                                                                                                                                                                                                       ",
"                                                                                                                                                                                                                                                                                                                                                                                                    , 3 2 f z z j d j n V V k 2 , 1 d f g z C Z =.8.f.x.m.z.9.-.G Z Z Z G -.9.r.9.>.S m M M e 1 o . . X < r h h r q q q : = X . . . o o o + & 2 k S ;.>.*.S n h d d h d w 1 & X X $ = 9 y T ! ! ! ] ] F.L.]..X%X;X4X3X7X4X;X=X%XoXXXXXXXXXoXoX%X&X&X&X%X%XoXoX%X&X;X:X8XwXnXmXmXVXCXCXVXVXmXnXnXwXwX0XqXqX6X6X5X3X3X4X4X4X2X2X2X-X-X-X=X=X&X%XoXoXoX%X&X&X*XOX.X{.P.J.F.| ] R E ~ ~ ! W T y y 0 9 = $ o X = 9 9 y u a M b                                                                                                                                                                                                                                                                                                                                                                                                                                                                                                       ",
"                                                                                                                                                                                                                                                                                                                                                                                                    , < 2 d g g d d j k N N j 3 , 3 d f g z c C H -.r.l.M.M.j.9.=.Z C C G -.9.r.9.>.S M b b e < o . . X : r h h r q : : * % X . . o o + + & & < d S ;.3.3.*.S k j j j j d w < & X $ = 9 u W ! ! Q ] | F.P.[.OX&X-X3X3X3X-X=X%XoXXXXXXXXXXXoX&X=X-X;X;X=X%XoXoXoX%X&X;X:X8X0XnXnXmXVXVXmXmXnXwXwX0XqX6X6X6X7X3X3X4X2X2X-X-X-X-X-X=X=X=X=X=X=X&X%XoXXXoX&X&X&X%XOX[.].L.K.| ] ] R E ~ ! ! W T u u 0 9 % X X = 9 9 y u a b M                                                                                                                                                                                                                                                                                                                                                                                                                                                                                                       ",
"                                                                                                                                                                                                                                                                                                                                                                                                      , 3 w d d i i d k N k d < - 3 5 f g z z c C G 1.f.M.Z.N.g.,.H C C H -.9.r.8.:.S M b s r < o . . o & w e e r q * * % X o . . o o & - - & , w n +.3.7.3.+.V k j h h h e q * $ $ = 0 u W ! ! R ] | K.Q.[.OX=X4X3X3X4X=X%XoXXXXXXXXXXXoX%X=X-X2X4X4X;X=X%XoXXXoX%X&X;X:X5X0XwXnXmXmXnXnXwX0XqXqX6X6X7X3X3X4X2X2X2X-X-X-X=X=X=X&X&X&X&X&X&X&X%XoXXXXXoX&X&X&X%XOX[.Q.L.F.| ] ] R E ~ ! ! ! W T y 0 9 = $ = 9 9 y u a M b                                                                                                                                                                                                                                                                                                                                                                                                                                                                                                       ",
"                                                                                                                                                                                                                                                                                                                                                                                                      - , 1 2 i i w d j k j i , & , 5 f z z k z c Z =.9.l.Z.rXn.8.G V V D =.8.r.8.:.S n b s r < o . . o & < q r q * = % X . . . . o & , < < , , 2 j S :.7.7.>.( N j h h h h e < & $ 9 y T ! ! Q ] ] F.L.].[.%X;X4X4X4X-X&XoXXX X X X XXX%X&X-X2X3X3X7X3X;X&XoXXXoXoX%X&X;X;X5X8XwXnXnXnXwX0XqXqX6X6X6X7X3X3X2X2X2X2X-X-X-X=X=X&X&X&X&X%X%X&X&X%XoXXXXXXX%X&X&X*X%X.X{.Q.L.F.F.] ] R ~ ! { ! ! W T y 0 9 * = 9 9 y u a b b                                                                                                                                                                                                                                                                                                                                                                                                                                                                                                       ",
"                                                                                                                                                                                                                                                                                                                                                                                                      + & , 3 2 w w i f j j w , + - 2 f g z g g z c Z -.f.M.rXm.8.D z c Z =.1.9.7.:.S n b s r < o . . . o & < < * & & $ . . . . . o & < 3 1 < < < w k ( >.0.7.:.S n h h h b h r < * 9 y W ! ! R ] | K.P.]..X*X-X2X2X-X&XoXXX X X X XXXoX&X=X2X2X3X7X7X5X4X;X%XoXoXoXoX%X&X=X;X5XqX0XwXwXwX0XqXqX6X6X6X7X7X3X3X3X2X2X2X2X-X-X=X=X&X&X&X%X%X%X%X%XoXoXXXXXoX%X&X&X*XOX[.].P.J.F.| ] R R ! { { ! ! Q E y y 0 9 9 9 0 u u u e                                                                                                                                                                                                                                                                                                                                                                                                                                                                                                       ",
"                                                                                                                                                                                                                                                                                                                                                                                                    - + + & , 1 2 2 w d d d 2 - o + 3 i j g g g g z V *.9.l.M.j.,.V g z C K ,.8.,.*.A n b s r : + . . . o & & & & & & X o . . . . o & < 2 2 2 3 < < i N *.5.7.5.;.S n h h b b s r q 0 y T ! ~ R ] | K.P.[.OX&X-X-X-X&X%XXX X X X X XXXoX&X-X2X3X3X7X7X7X3X;X&X%XoXoXoX%X%X&X-X4X5X6XqX0X0X0X0XqXqX6X6X6X6X7X7X3X3X3X4X4X4X-X-X=X=X=X&X&X&X%X%X%X%XoXXXXXXXoX%X&X&X%XOX[.].P.J.F.| ] ] Q { { { { ! Q T u y 0 9 9 0 y u u e                                                                                                                                                                                                                                                                                                                                                                                                                                                                                                       ",
"                                                                                                                                                                                                                                                                                                                                                                                                    < , + o + , 3 2 2 2 2 2 3 - + & , 2 d g g g g g c G 1.y.f.9.G g f z C G ,.7.,.+.V b b e w & o . . + + - , , - - - + o . . . o o o , < w w 2 < < 2 d V *.5.7.7.;.S n b b M M a e 0 y T E E E ] | K.Q.[.OX&X-X-X=X%XoXXX X X X X XXX%X=X-X2X4X3X3X7X7X3X4X;X%XoXoXXXoXoX%X=X-X4X3X6XqX0X0X0X0XqXqXqXqXqXqXqX6X6X6X5X5X5X5X4X4X-X-X=X=X&X&X%X%X%XoXoXXXXXXXoX%X*X*X%XOX[.].P.J.F.| ] ] [ [ { { { { Q T T y y 0 0 0 y 0 r                                                                                                                                                                                                                                                                                                                                                                                                                                                                                                       ",
"                                                                                                                                                                                                                                                                                                                                                                                                  d 2 < & o o + , < 1 1 3 3 , + - , 3 1 5 d g g g g c H -.7.7.=.N d d g V G ,.1.>.+.n h e e q & o . + , 3 2 2 2 2 3 3 , & o . . o o o & < 2 w w 2 3 < 2 j S ;.7.q.7.*.S n M M ^ M a u u T E E R R | F.Q..X%X=X-X-X&X%XXX X X X X XXXoX&X=X-X2X2X3X3X3X3X3X4X;X&X%XoXXXXXoX%X&X=X-X4X5X6XqX0X0X0X0X0XwXwXwXwXwXwXwXwX0X0XqX6X5X5X4X4X-X-X=X=X&X&X%X%XoXoXoXXXXXoX%X*X*X%XOX[.].P.J.F.F.] ] ] { { { { ! ~ W T u y 0 0 0 0 q                                                                                                                                                                                                                                                                                                                                                                                                                                                                                                       ",
"                                                                                                                                                                                                                                                                                                                                                                                                k j d 2 , o o o & , < < , , 4 - , 2 2 2 2 5 f g z z c D =.-.*.S f 2 d j z G <.1.>.D n h e r 1 & o o - 2 f k k j f d i 2 3 , o o o o X o , < w w w 2 3 < 2 j D ,.9.9.7.*.A m ^ ^ ^ ^ a u y Y Y Y R ] F.Q..X*X;X-X=X&XoX.X X[.[. X XoX%X&X-X2X2X2X2X4X4X4X2X-X;X=X&X%XoXXXoXoX%X&X=X-X4X5X6XqX0XwXwXwXnXnXnXnXnXnXnXnXnXwXwX0XqXqX5X3X4X2X-X-X=X=X&X%X%XoXoXoXXXoXoX%X&X*X%X.X[.].L.J.F.F.| ] [ { { { X.{ ! ! W u y y 0 0 9                                                                                                                                                                                                                                                                                                                                                                                                                                                                                                       ",
"                                                                                                                                                                                                                                                                                                                                                                                              n N k j w < + o . o - < 3 < - + - 3 i d 5 2 5 f z z c V Z *.=.+.V d 2 i j z G >.1.>.D n s e r 1 & o o < f N S S V N k j f i 1 - o o o o o & , 2 w d i w 1 1 i N =.9.d.r.5.+.A ^ ^ ^ ^ ^ W u y y Y R ] F.Q.}.*X;X-X&X%X.X[.[.[.[. XXX%X&X=X-X2X2X2X2X2X-X-X-X-X=X=X&X&X%XoXXXoX%X&X&X-X4X3X6XqX0XwXnXnXmXmXVXVXVXVXVXVXmXmXnXwXwX0XqX6X7X3X4X2X-X-X=X&X&X%X%X%XoXoXoX%X&X&X*XOX.X{.Q.P.J.F.F.] ] Q { { X...} } ! W T u y 0 9                                                                                                                                                                                                                                                                                                                                                                                                                                                                                                       ",
"                                                                                                                                                                                                                                                                                                                                                                                            N V V N j i < & o o o & , 3 3 , & , 2 d f d 5 5 d z C C C Z K =.G V d 2 i j z G >.,.-.D k s e r 1 & o + 2 k S *.*.*.D S N k j d < & o o o o o & < w d d i w 2 w j D 7.d.f.w.>.( / ^ ^ ' ' ^ T y y t R [ F.Q.}.*X;X=X%XXX[.[.].[.[. XXX%X=X-X-X2X2X2X-X-X=X=X=X=X=X=X=X&X%XoXoXXXoX%X&X=X-X3X6XqXwXnXmXmXVXVXCXCXCXCXCXCXVXmXmXnXnXwX0XqX6X7X3X3X2X2X-X=X=X&X&X&X%XoXoXoX*X&X&X*XOX.X{.Q.P.J.F.| | [ ! { X.......} ! ! W u y 0                                                                                                                                                                                                                                                                                                                                                                                                                                                                                                       ",
"                                                                                                                                                                                                                                                                                                                                                                                          k V C C V j d 2 , & o o o , < 3 , & , 2 d f f 5 5 7 g V Z Z Z H K D z i 1 i j z D >.,.=.D k d r w < & o & 2 k D =.>.>.:.+.S V n j i 3 + o o o X & , 2 d j h d w w d V =.9.f.d.q.:./ / ^ ' ' ' W T y y R ] F.Q.}.*X=X&XOX.X[.].].[. X XoX&X=X-X-X-X-X-X=X=X=X&X&X&X=X=X=X=X&X%XoXXXoXoX%X&X-X4X5X0XwXmXVXVXCXCXCXCXCXCXCXCXVXmXmXmXnXwXwXqX6X7X3X3X3X4X2X-X-X=X=X=X&X%XoXoX%X&X=X&X*XOX[.{.].P.J.F.| | [ [ X...U.U...} { ! W T u u                                                                                                                                                                                                                                                                                                                                                                                                                                                                                                     ",
"                                                                                                                                                                                                                                                                                                                                                                                        g V C D S N j d w 2 , - o o & , < , - , 3 i f f d 5 5 f z C Z H G G C k i 3 i j z D -.<.=.S k d r q - o + - 2 j S :.7.8.7.-.+.S V n j i 3 + o o o X & < w h j h h d i j S >.9.a.r.7.;./ ^ ^ ' ' ' W T Y R ] K.Q.[.%X%X%XOX[.[.].].[. XXXoX&X=X-X-X-X=X=X&X&X&X&X&X&X&X&X=X=X&X&X%XoXoXoX%X%X=X-X5X0XnXmXVXCXCXCXCXCXCXCXVXVXmXmXmXnXnXwX0XqX6X7X3X3X3X3X2X2X2X-X-X-X=X=X%XoXoX%X&X=X*X*XOX[.{.Q.L.J.F.F.| [ [ ..U.R.R.O.} { ! ! W W u                                                                                                                                                                                                                                                                                                                                                                                                                                                                                                   ",
"                                                                                                                                                                                                                                                                                                                                                                                      j N C D D S N k j d w 2 < - o o - , , - , < 2 d d d 7 5 7 g c C Z H H C g 2 3 d g z D =.-.*.C k d r 1 & o + , 2 f V *.7.w.9.7.:.+.S V N k d < o o o X & > 2 d j n k j d d k D >.9.r.r.5.+./ ^ ^ ' _ ! ! E R [ F.Q.[.OXOXOX.X[.].].].[. XXX%X&X=X-X=X=X&X&X%X%X&X&X&X&X&X&X=X=X=X=X&X%XoXoXoX%X&X;X5X9XnXmXVXCXCXCXCXCXVXVXmXmXnXnXnXwXwX0XqX6X5X3X3X3X4X2X2X2X2X-X-X-X-X=X&X%XoXoX&X;X;X*X*XOX[.{.Q.L.J.F.F.| X.X...U.R.R.#.o.{ ! ! W W u                                                                                                                                                                                                                                                                                                                                                                                                                                                                                                 ",
"                                                                                                                                                                                                                                                                                                                                                                                      V C D D D S V N k j d i 2 , + + + & - , , , < 2 d d d 5 5 d g z C Z Z V f 2 3 d g z D =.-.*.V j d r < o o + , 1 d k D 5.w.a.w.7.=.+.S S S n d < o X X % & < i j n n k d i d k D 5.r.d.w.3.( / ^ ' _ _ ! ! Q [ F.Q.[..XXX.X[.].].].].[. XXX%X&X=X=X=X&X%X%X%X%X%X%X%X&X&X&X=X-X-X;X;X*X*XoXoX%X%X=X:X8XnXmXVXVXCXCXCXVXmXmXnXnXwXwXwX0XqXqX6X5X3X4X4X2X2X2X2X2X-X-X-X-X-X-X=X%XoXoXoX*X;X;X;X*XOX.X{.Q.L.J.K.F.| | X...U.R.#.O.} { { ! W W                                                                                                                                                                                                                                                                                                                                                                                                                                                                                                 ",
"                                                                                                                                                                                                                                                                                                                                                                                      D +.*.*.*.( S A N k j d w < & o o + & , , , , 3 2 d d d 5 5 7 g c Z Z V f 1 3 d g N D =.-.+.V h d r < o . + , 1 5 f V :.q.d.d.r.7.:.*.*.+.S n d , o X % & < 2 d k N n j i w d V ;.q.d.d.q.4.) ^ ^ ' o.} { { [ F.L.].[. X[.{.].].].].[..XXX%X%X&X&X&X%X%XoXoX%X%X%X%X%X&X&X=X-X4X5X5X:X>X*XoX%X%X&X;X<X9XnXmXmXVXVXVXmXnXnXwX0X0X0XqX6X6X7X3X4X2X2X2X2X-X-X-X-X-X=X=X=X-X=X=X&X%XoXXXoX*X;X;X;X*XOX.X{.Q.L.J.G.G.F.| X...#.#.#.O...} { ! ! '                                                                                                                                                                                                                                                                                                                                                                                                                                                                                               ",
"                                                                                                                                                                                                                                                                                                                                                                                      ( ;.>.>.:.*.D S V n k j w 3 - o o o + - , , , , 1 5 d d d 5 5 d z C C V f 3 < i j z H =.=.+.N h d w < o o + , 1 2 d k D 5.a.g.g.r.7.5.>.>.;.( N i , O X % & < w j n N k d w w j S ,.r.f.d.0.;./ ^ ' _ o.O.} X.F.J.Q.{.[.{.].P.].].{.[.XXoX%X%X%X%X%X%XoXoXoXoXoX%X%X%X&X=X-X2X3X5X5X5X:X*X%X%X%X%X*X:X<X9XwXnXmXmXmXnXwXwX0XqXqXqX6X6X7X3X4X2X2X2X2X-X-X-X-X=X=X=X=X=X=X=X=X&X%XoXXXoX%X*X;X;X;X*XOX[.{.Q.L.J.K.K.F.| [ ..O.R.R.....} { { o.                                                                                                                                                                                                                                                                                                                                                                                                                                                                                              ",
"                                                                                                                                                                                                                                                                                                                                                                                      +.>.5.5.>.;.( S V N n j i 2 , & o o + - , < , , < 2 d f f 7 5 5 g V C z d 3 , 2 f z Z =.=.D N h d w < o o o , 3 2 5 d V =.9.j.l.z.d.w.0.0.5.>.( n 2 & X X o & < d k n n j d i d k +.7.d.h.d.0.;./ ' _ o.O.O... .K.L.].].].P.P.P.].{.[.XXoXoX%X%XoXoXoXoXoXoXoXoXoX%X&X=X-X2X4X3X6X6X5X:X;X%X%XoX%X%X&X:X:X8X0XwXwXwXwXwX0XqXqX6X6X6X6X7X3X4X2X2X2X2X2X2X-X-X=X=X=X=X&X&X&X&X&X&X%XoXXXoX*X*X;X;X;X*XOX[.].Q.L.J.J.K.F.| { ..O.R.R.H.....} o.o.!                                                                                                                                                                                                                                                                                                                                                                                                                                                                                           ",
"                                                                                                                                                                                                                                                                                                                                                                                      D ;.5.7.5.:.+.S V V N k d w 3 , & o o + , < < , , 2 i f f f 5 2 d k V k d 1 3 2 d g Z K *.D n h e w , X . o + < 2 5 i j D 7.f.c.m.l.h.a.w.q.7.:.S j , o o X & , w j n N n k d d j V :.w.h.j.d.5.@.) ' o.O.O.....G.J.L.P.P.L.L.P.].].[.XXoXoXoXoXoXXXoXoXoXoXoXoX%X%X&X-X2X2X3X7X6X6X6X5X;X&X%XoXoX%X%X&X;X:X5X8X0X0XwXwX0XqX6X6X6X6X6X6X7X3X4X2X2X2X2X2X2X-X-X=X=X=X=X&X&X&X&X&X%XoXoXXXoX*X;X;X;X;X*X.X[.].Q.L.L.J.K.| X.{ } ..H.U.H.H...O.o.{ ! !                                                                                                                                                                                                                                                                                                                                                                                                                                                                                       ",
"                                                                                                                                                                                                                                                                                                                                                                                      V ( >.5.5.-.+.S S V N k j d w 3 , + o o - < < < , 3 5 f g f d 2 i f j f d 5 d d d g C G G C n d w 1 & o . . + , 3 2 i d V =.r.l.N.N.m.j.d.a.w.7.*.V d , o o o & < i k N V V k h d k D 5.d.j.j.s.3.) ' _ o.O...H.G.F.K.J.J.J.J.L.P.].[.XXoXoXoXoXXXXXXXoXoXoXoXoX%X&X=X-X2X2X3X7X7X6X6X5X;X=X%XoXoXoX%X&X=X;X;X5X5XqX0X0X0XqXqX6X6X6X6X6X6X5X3X3X3X3X4X4X4X2X-X-X-X=X=X=X=X&X&X&X&X%XoXoXoX%X&X;X;X;X;X*X.X[.].Q.Q.L.J.K.| X.X.....H.U.H.H.....} { ! ! !                                                                                                                                                                                                                                                                                                                                                                                                                                                                                   ",
"                                                                                                                                                                                                                                                                                                                                                                                      j V +.>.5.>.*.+.D S V N n k f 2 < , o o + , < < < 3 2 d f g f i 2 i i i d j c c g j z C C N j w w < & o . . + - < 2 i d g Z ,.g.Z.rXrXN.l.f.a.q.5.*.N i , o o & > 2 d n S D V k j j N *.q.h.b.j.i.4.) ` _ o.O.H.H.F.F.F.F.F.F.L.P.].[.XXoXoXoXXXXXXXXXoXoXoXoX%X&X=X-X2X2X4X3X3X7X3X3X3X-X=X%XoXoXoX%X%X&X=X-X4X3X6XqX0X0X0XqXqX6XqXqXqXqXqX6X6X6X6X5X5X5X4X4X2X-X-X-X-X=X=X=X&X&X&X%XoXoXoX%X&X;X;X;X*XOX.X[.].Q.Q.!.L.J.G.X.X...H.U.U.U.H.....} } ! _ o.o.                                                                                                                                                                                                                                                                                                                                                                                                                                                                              ",
"                                                                                                                                                                                                                                                                                                                                                                                      2 j V *.>.>.>.*.+.D S S C V k d 2 < & o o + , < 3 3 1 5 f g f d 5 2 2 5 d V G G C k g z z j w 1 < & X . . . o + , 2 i d f z K r.M.tXuXtXN.j.d.a.q.,.+.z 2 - o & & < 2 j V D D V k d j V -.a.v.b.k.0.4.) _ o.o...H. .| | | | F.K.P.].[.XXoXoXoXXXXXXXXXXXXXoX%X%X=X-X2X2X4X4X3X3X3X4X4X2X-X=X&X%XoXoXoX%X%X&X=X-X4X3X6XqX0X0X0X0X0X0X0XwXwXwXwX0X0X0XqXqXqX5X5X4X2X2X2X-X-X-X=X=X&X&X%X%XoXoXoX%X&X;X;X;X*XOX.X{.Q.Q.Q.Q.Q.J.G.X.[ ..H.U.U.U.U.....o.o.o.o.o.o.                                                                                                                                                                                                                                                                                                                                                                                                                                                                            ",
"                                                                                                                                                                                                                                                                                                                                                                                      < w k S :.>.5.>.;.+.( +.D S N j d 2 , o o o + , < 1 1 2 d f f f d 5 5 5 g C =.=.G V g j f i 3 , & o . . . . . o , 1 i d f g C ,.l.rXpXpXrXm.j.f.a.q.>.D g 3 & & & & < w k S D S N j d k S 5.d.j.h.i.5.4.` _ o.......X.| ] ] | F.L.].[.XXXXoXXXXXXXXXXXXXXXXX%X&X=X2X2X2X4X4X2X2X2X2X-X-X-X=X&X%X%XoXoXoX%X%X&X=X-X4X5X6XqX0XwXwXwXwXnXnXmXnXnXnXwXwXwXwX0XqX5X3X4X2X2X2X2X-X-X=X&X&X&X%X%XOXoXoX%X;X;X;X=X%XOX[.{.Q.Q.Q.Q.!.J.G.[ [ ....U.Y.Y.U...O.o.o.O.o.o.o.                                                                                                                                                                                                                                                                                                                                                                                                                                                                          ",
"                                                                                                                                                                                                                                                                                                                                                                                      , < d N +.>.7.5.>.;.;.;.*.D V n k d 1 & o . + - < 3 2 2 5 d f f f d 7 d g Z =.>.=.G V g d 2 3 , & o . . . . . o - 3 5 d f g z *.r.M.uXaXuXD.m.j.f.r.8.>.S f , & & & & < d N S D V k d d k D 7.a.h.h.i.3.` ' _ o.} ..X.X.[ ] | F.J.Q.[..XXXXXXXXXXXXXXXXXXXXX%X&X-X2X2X2X2X2X2X2X-X-X=X=X=X=X=X&X&X%XoXoXoX%X%X&X=X-X3X6XqX0XwXnXnXmXmXmXVXmXmXmXnXnXnXwXwX0X8X5X4X2X2X2X-X-X;X=X*X*X*X*X*XOXOXOXOX*X;X;X;X&X%XOX[.{.Q.Q.Q.Q.Y.K.| [ [ X...R.Y.R.U...O.o.o.o.O.&.o.o.                                                                                                                                                                                                                                                                                                                                                                                                                                                                      ",
"                                                                                                                                                                                                                                                                                                                                                                                      , < 2 j D -.7.7.5.>.>.:.*.D S V N j w , & o o + 3 3 2 2 2 5 d f f f f f g C G >.,.=.D c j i 2 3 , + o . . . . . + , 2 d f g z C ,.g.rXpXaXyXZ.n.g.d.r.7.;.V i , & & & , 2 j V S S N j i d n +.7.d.j.h.w.4.) ' _ { } ..X.{ [ ] | K.P.{..XXXXXXXXX XXXXXXXXXoX%X=X-X2X2X2X2X2X2X-X=X=X=X&X=X=X=X=X&X&X%XoXoXoX%X%X&X-X4X5XqXwXnXmXmXVXVXVXVXVXVXmXmXnXnXMX9X9X8X5X;X;X;X;X;X;X>X*X*X*XOX*X*XOX}.}.}.OX*X*X;X&X%XOX.X[.].Q.Q.Q.!.J.K.| [ [ ....R.Y.R.U...} o.o.o.O.o.o._                                                                                                                                                                                                                                                                                                                                                                                                                                                                     ",
"                                                                                                                                                                                                                                                                                                                                                                                      , < 2 d V *.5.0.7.5.3.>.*.( D S S n d 2 , & o + , 3 2 2 3 1 5 d f f f f g z Z =.,.,.=.D z f d 2 3 3 + . . . . . o - 1 d f g g c G 8.x.tXaXpXtXN.l.g.f.r.7.*.k 2 & o & & , 2 j V S V k d i d N *.9.h.j.d.0.@./ ' ! } } } { { [ | F.L.Q.[..XXXXX X X X XXXXXoX%X=X-X-X2X2X2X-X-X=X=X&X&X&X&X=X=X=X=X=X&X%XoXoX%X%X&X=X-X3XqXwXnXmXVXVXVXCXCXVXmXmXMXMXMX9X9X<X<X:X;X*X*X*X>X>X>X}.}.}.}.}.}.}.}.{.{.}.}.*X*X*X*X%XOX}.{.Q.Q.L.L.T.T.K.F.| [ ..H.R.Y.R.U...} o.o.o.o.o.o._                                                                                                                                                                                                                                                                                                                                                                                                                                                                   ",
"                                                                                                                                                                                                                                                                                                                                                                                      < 1 2 i k D >.7.0.0.5.:.+.( ( ( S N j i 2 < & + & , 1 2 3 3 2 i f f f f f g N G <.,.,.=.Z z j d 5 3 - + . . . o o & , 2 f g g z C =.r.M.yXpXuXtXN.n.z.f.r.5.D j < o o & & < i k V V n j d d j S 5.r.f.f.w.3.) ^ ' _ o.} } { [ | F.K.L.].[. X X X X X XXXXXoX%X&X=X-X-X-X-X=X=X=X&X&X&X&X&X=X=X-X-X=X=X&X%XoX%X%X%X&X-X4X5XwXnXmXVXVXVXVXVXmXMXMX9X9X9X1X1X<X>X>X>X+X}.}.}.}.|.}.}.{.^.}.}.}.}.!.!.!.}.}.>X*X*XOX}.}.!.!.!.L.J.T.!.T.J.F.| { } ..R.Y.U.H...} o.o.o.o.o._ ^                                                                                                                                                                                                                                                                                                                                                                                                                                                                 ",
"                                                                                                                                                                                                                                                                                                                                                                                      3 3 1 2 d V *.5.0.q.5.:.+.( ( ( S A n j d w , & + , 3 1 1 3 1 5 d f f f f f g C =.,.,.<.=.D z g f i 3 & o . o o o o - 1 d f g g z Z <.f.Z.uXaXpXtXZ.m.b.h.w.-.V i , o & & , 1 d n V V n j h j n +.5.w.d.d.0.;.) ' ' _ o...} X.X.| F.J.P.].[. X X X X XXXoX%X&X&X=X=X=X=X=X&X&X&X&X&X&X&X&X=X=X-X-X-X-X=X&X%XoXoX%X%X=X;X5X8XwXMXmXmXmXmXMXMXMX9X<X<X<X,X$X$X+X+X+X}.}.}.}.}.|.}.}.{.{.^.^.^.^.^.!.!.^.^.|.}.}.}.}.^.!.!.!.J.J.J.T.!.Q.J.F.[ { } ..U.U.U.....o.o.o.o.o._ ^ ^                                                                                                                                                                                                                                                                                                                                                                                                                                                               ",
"                                                                                                                                                                                                                                                                                                                                                                                      3 1 1 2 w j S :.0.q.0.3.;.+.+.( ( S n k h d 2 , & - , 3 2 2 2 2 5 d f f f f g z D =.,.1.,.=.D c z j d 3 - o o X o o & < 2 d f f g z G 7.z.rXsXfXsXyXZ.M.b.f.0.*.k 2 & o & & < w j n V V n k j k V +.5.w.d.i.6.4.) ' _ o.......X.| | F.J.P.].[. X X X XXXoX%X&X=X=X=X&X&X%X%X%X&X&X&X&X&X&X=X=X-X-X2X2X-X=X%X%XoXoX%X&X;X:X8X9XMXMXMXMXMX9X1X1X<X<X>X>X$X|.|.|.}.}.}.|.|.|.|.|.|.}.!.!.!.!.^.!.!.W.W.W.W.^.^.^.^.!.W.W.W.Y.T.G.G.J.Q.Q.L.K.| [ { } ..H.U.H...o.o._ ! _ ' ^ ^                                                                                                                                                                                                                                                                                                                                                                                                                                                               ",
"                                                                                                                                                                                                                                                                                                                                                                                      3 3 1 3 2 i n +.3.0.0.7.>.;.*.+.( S V n n h w < - + , 3 2 5 2 2 5 d f f f f f g c G <.8.8.,.=.H C V j d 3 & X X X o o , 2 d f f g g c K 9.m.uXhXjXsXyXZ.m.l.r.,.D f , o & & & < w k V S A N j j j N +.5.i.i.i.0.4.` ' o.....H...X.| F.F.L.P.]. X X X XXXoX%X&X&X&X&X%X%X%X%X%X&X&X&X&X&X&X=X=X-X2X2X4X2X-X&X%XoXoX%X%X*X;X:X<X<X1X1X1X9X1X1X1X,X,X$X|.|.|././././.^.^.^.^.^.^.^.^.!.!.!.!.!.!.!.!.W.Y.Y.W.~.~.~.W.W.Y.Y.Y.H.G.G.G.J.Q.Q.L.K.| [ Q { X...H...o._ ! ! ! ! ^ ^ ^                                                                                                                                                                                                                                                                                                                                                                                                                                                             ",
"                                                                                                                                                                                                                                                                                                                                                                                      < 1 2 1 < 2 d S ;.7.q.q.7.>.;.*.+.S V N n h i 2 , & - < 2 i 2 2 2 5 d f f f f f g C =.1.9.8.,.=.G Z V g d < & X X + + + , 2 d f f g z C -.f.rXfXkXjXaXtXZ.m.f.9.=.V 2 & o & & , 2 h N S S V n h d h N +.5.i.s.i.i.4.' _ o...R.I...X.| F.F.L.Q.[. X XXXXX%X&X&X&X&X%X%XoXoXoX%X%X&X&X&X&X&X=X-X2X2X3X3X3X4X;X%XoXoXOXOX*X>X>X>X>X<X1X1X1X1X1X1X,X,X|././.~.~.~.~.~.~.~.~.~.~.W.W.Y.Y.Y.Y.Y.T.T.T.H.H.H.H.U.Y.~.~.W.Y.U.U.H.H.G. .| G.J.Y.!.T.G.X.Q R Q X.....} { ! W W W W W W                                                                                                                                                                                                                                                                                                                                                                                                                                                             ",
"                                                                                                                                                                                                                                                                                                                                                                                      < 2 2 < < < 2 k ( 3.w.w.q.7.-.*.+.D S V N k d 2 , & & , 2 i d 5 2 5 i f f f f f f z G ,.8.t.8.,.-.*.D V g w , o X o o o - < 5 d f g g z G 8.m.aXkXkXfXuXrXM.l.r.5.D g 1 & & & , < w k V S S N h i w j A ;.0.s.k.i.e.` ' o.O.R.R...X.[ | F.K.L.].[. XXXoX%X&X&X&X%X%XoXoXXXXXoX%X%X&X&X&X=X=X-X2X3X3X3X3X4X;X*XOX+X+X+X>X>X>X>X>X>X,X1X1X1X1X1X,X@X/./.~.E.E.E.E.E.R.R.H.H.H.H.H.H. . . . . . .X.X.| X.X...H.Y.Y.U.U.H.....H.H.H...X.G.K.Y.T.T. .Q Y Y ~ { } } { ! W W W W W a                                                                                                                                                                                                                                                                                                                                                                                                                                                             ",
"                                                                                                                                                                                                                                                                                                                                                                                      < 2 2 < , , 3 d V ;.0.w.w.8.,.:.*.( S A V k j w < - & , < 5 d d i 5 5 d f f f f f g C =.2.t.r.9.1.-.K D V j 1 & o X X X + , 2 d f j g k C -.f.rXfXkXkXgXyXZ.x.f.9.>.D j 2 , - , , 2 d n V A N k d w i j S >.i.h.h.i.4.` _ o.#.R...} X.| | F.K.P.].[.XXoX%X&X&X%X%XoXXXXXXXXXoX%X%X%X&X=X=X-X2X2X3X3X3X3X4X;X*X+X+X$X,X,X$X+X|.|.|.|.,X,X1X1X1X,X@X/.(.E.R.$.R.'.R.#.} { [ X.[ [ [ [ [ Q [ [ Q R R R R R [ X. ...............H.H...[ X.| G.T.T...[ Q Y Y ~ { { { _ ' ^ W W T u                                                                                                                                                                                                                                                                                                                                                                                                                                                             ",
"                                                                                                                                                                                                                                                                                                                                                                                      < w w < & & , 2 j D >.q.w.9.7.>.:.*.( S V n j d 2 < & & , 2 d d d 2 2 5 d f g g f g c G ,.t.u.r.9.,.-.G C k d < + o o o o - < 2 d f g g z G 8.m.pXjXlXjXpXD.m.l.d.8.-.D j 1 , , , < 2 d n V V k j i w d n +.0.h.j.k.0.` _ _ O.O.O...X.| | | F.J.P.{..XoX%X%X%X%XoXXXXXXXXXXXoXoXoX%X&X=X-X2X2X2X2X2X4X4X-X;X*X+X+X,X1X1X,X$X|.|.|.|./.`.,X,X1X,X,X`.(.E.R.$.$.'.$.#.o.! R R R R R R R R ] ] ] ] R R R R E R Q { [ X.....X...H.U...} [ [  .G.H.....{ Q Y Y ~ ! { o._ ' ! W T u                                                                                                                                                                                                                                                                                                                                                                                                                                                             ",
"                                                                                                                                                                                                                                                                                                                                                                                      < w w < & & , < i N +.7.w.r.9.7.>.:.*.( S N k d w 3 , - , 3 w d d 5 2 5 d j g g g g z Z =.8.u.u.r.8.,.=.G C k w , o o o o & , 2 d f g g z C =.y.Z.sXkXkXfXtXZ.m.z.y.8.=.C d < , , < < w h n V N k d w w j S -.w.h.j.s.6.` _ o.o.O.......| | | F.L.].[.OX%X%X%XoXXXXXXXXXXXXXXXXXoX%X&X=X-X2X2X2X2X2X-X-X;X*X+X|.,X1X1X1X1X,X|./.~.~.~.~.`.,X,X1X,X`./.(.E.$.$.E.$.$.o.! E Y Y R R [ [ | | | | | | | ] R Y Y Y E [ X.................{ Q Q [ X... ...{ Q Y T W ! ! o._ ! ! W u u                                                                                                                                                                                                                                                                                                                                                                                                                                                           ",
"                                                                                                                                                                                                                                                                                                                                                                                      1 w w < & o & , 1 d A :.q.r.r.8.5.>.:.*.D V n j d w < , & , 1 2 i 5 2 2 i j z z z g z C G ,.r.f.f.r.8.,.-.G C j 2 , + + + + - < 2 d f g g z H ,.g.rXfXkXjXaXtXZ.m.j.d.8.=.V d < < < < < w j n N k j d w d k D 5.d.l.g.i.4.` _ o.} ..H.H. .| | F.K.Q.{.OX%X%X%XoXXX X X X XXXXXXXoX%X&X-X-X2X2X2X-X-X=X*X*X}.}.+X,X1X1XAX1X1X`./.W.Y.Y.Y.~.`.eX,X,X,X`.`.E.R.$.$.$.$.o.' T Y Y ] | F.K.J.T.!.!.!.L.K.F.| ] R Y Y Q X...H.....} ..O.O.} ! Q Q Q X.......{ E y u W ! ! _ ! ! W T u                                                                                                                                                                                                                                                                                                                                                                                                                                                           ",
"                                                                                                                                                                                                                                                                                                                                                                                      2 w i 1 & X & - < 2 k ( 5.w.a.w.7.3.>.;.+.S V n j d w < - - , 3 2 2 2 2 5 f z z z z z c Z =.8.u.g.f.r.8.,.>.+.C j 2 , & & + + - 3 i f f g z c G 8.c.uXhXkXhXaXtXZ.m.l.f.9.=.V d < < & > 1 d j n n k j d w d n *.9.z.n.h.0.` ' _ } ..H.H.H. .| | F.J.Q.}.OX%XoXoXXX X X X XXXXXXXoX%X=X=X-X2X2X-X=X*X*X}.}.}.|.+X,X1X1XAXAX1X,X/.~.Y.Y.Y.Y.(.`.eX,X,X`.`.E.R.$.$.%.%.o._ W Y R | F.J.!.!.}.|.|.}.{.Q.Q.K.F.] R R R X...H...} { } o.O.o.{ ! E E Q X.....X.! T y T W ! ! ! ! W W u r                                                                                                                                                                                                                                                                                                                                                                                                                                                         ",
"                                                                                                                                                                                                                                                                                                                                                                                      2 w w 1 & X o & , < d V :.q.a.r.q.5.>.:.*.( S V n j i 2 < & - 3 3 2 2 2 2 d g z c z z z C G ,.r.z.z.f.y.t.8.<.*.C j 2 , & o o + , 2 d f g g z C =.r.Z.aXjXkXjXsXuXtXZ.m.j.q.*.k 2 & & & < w d j k n k h i i j C ,.f.n.n.d.4.` _ ! ..H.H.H.H. .| F.K.Q.{..XOXoXXXXX X X X X XXXoX%X&X=X=X-X-X-X=X*XOX}.^.^.|.|.|.|.,X1X1X1X1XeX`./.Y.Y.Y.U.R.(.`.`.eX`.`.'.$.$.%.%.%.` _ ^ W !  .J.Q.{.}.>X>X>X>XOX}.{.Q.J.F.| [ R { } ....} ! ! } o.o.o.! W W W ! } ....{ ! W u W W ^ ' ' ^ ^ M M m                                                                                                                                                                                                                                                                                                                                                                                                                                                       ",
"                                                                                                                                                                                                                                                                                                                                                                                      2 d d 1 & o o & & < 2 j D 3.w.a.q.5.>.:.;.*.( D S n h i 2 , & - , 2 2 2 2 5 f z V c z z c Z =.8.z.c.m.l.f.r.8.>.*.V f 3 - & o o - 3 i f f g g z Z <.f.D.fXkXxXlXkXfXpXrXm.d.>.V w & & & * < 2 w j n n j d i d k *.9.l.n.j.i.4.` _ } ..H.H.H. .| F.F.J.Q.{..XXXXXXX X X X XXXXXoX%X&X&X=X=X=X&X*XOX}.!.W.~././.|.|.|.,X1X1X1X1X,X`.~.Y.U.H.O.$.'.).`.`.).'.p.p.p.p.e.4.` ` ` o.I.Y.{.}.>X>X:X:X>X*XOX}.{.Q.Q.K.F.[ { } } } { ! ! ! _ o.o.o.o.! ! ! } ..O.o.} ! W ^ ^ ' ' ` ` ` ` ` 4.e.                                                                                                                                                                                                                                                                                                                                                                                                                                                    ",
"                                                                                                                                                                                                                                                                                                                                                                                      2 d d 2 & o o & & , < i N *.7.w.q.7.>.:.;.*.*.*.( A n h w < & + , 3 2 2 2 5 f g V V c z z C G ,.f.m.Z.C.x.g.r.8.>.G N i < & + o + , 2 d f f f g z G 2.x.uXjXzXzXzXlXfXtXn.d.>.V 2 & % = * < < 2 d j n k j d i j V >.r.l.b.k.i.4._ { } H.H.H.H. .| F.K.L.Q.[..X.X X X X X XXXXXoX%X&X&X&X&X%X%X}.}.!.W.~.~.~.~.~././.`.eX1X1X1X1XeX/.E.H.O.%.p.)._._._._.V.V.V.V.i.p.e.e.e.4.p.R.~.|.+X>X>X>X>X>X*XOX}.{.!.!.!.J.H.O.o.O.O.o._ _ _ o.O.$.$.#.O.o.o.o.o.O.O.O.o._ ' ` ` ` 4.4.4.e.p.p.p.p.                                                                                                                                                                                                                                                                                                                                                                                                                                                  ",
"                                                                                                                                                                                                                                                                                                                                                                                      2 d d 2 & o & - - , < 2 j S >.q.9.7.>.:.=.=.:.:.*.D A n j 2 , + 4 3 2 5 5 5 d j N V V c c c Z =.r.m.D.D.Z.m.g.r.7.:.D k 2 , - + o & < 2 d f f f g c L r.Z.sXxXvXvXxXsXZ.j.q.*.k < & % = * & > < w h n n k j d d j D ,.d.j.v.k.p.` _ } ..H.H.H.H.G.F.F.J.P.].[. X X X X X XXXoXoX%X&X&X%X%XOX}.{.!.W.~.E.R.R.R.R.E.~.~.`.,X1X1X1XeX`.E.#.%.p.v._.dXdX_.B.v.k.k.k.k.i.i.p.e.p.p.'.(./.|.+X>X>X>X>X>X}.}.}.^.^.!.W.Y.R.$.$.#.O.O.O.O.$.$.E.E.E.R.#.#.&.%.%.%.%.&.` ` 4.4.4.4.e.e.p.V.V.V.V.V.                                                                                                                                                                                                                                                                                                                                                                                                                                                ",
"                                                                                                                                                                                                                                                                                                                                                                                      2 d d 2 & o - , , , , 3 w k +.5.9.9.7.>.:.=.:.:.*.+.D V k i < - - , 2 5 5 5 5 f z V C V c C Z L 8.l.Z.tXrXZ.x.f.9.5.*.V h 1 , - & o - 3 i d f f f z Z ,.j.yXjXzXzXjXyXl.8.;.V i , $ = = * < < < 1 i j n n k j d d k D 5.d.b.b.k.e.` o.} ....H.U.H.G.F.F.J.P.].[. X X X X XXXoXoX%X%X%XOX.X[.{.!.W.W.E.R.O.o.o.O.#.R.E./.`.,X1X1XeX).p.p.V.v._.dXsXsXdXN.v.k.k.k.s.i.i.e.p.p.p.p.'./.|.|.|.|.|.|.|.|.^.^.~.~.~.~.~.E.E.E.E.R.R.R.R.E.E.(.(.(.E.E.R.$.$.$.$.%.%.%.` 4.4.4.4.4.e.p.V.V.).).V.p.                                                                                                                                                                                                                                                                                                                                                                                                                                              ",
"                                                                                                                                                                                                                                                                                                                                                                                      2 d d 2 & + , < < , , < 2 d V :.q.a.w.7.>.=.=.=.*.+.D S N j 2 < - , 3 2 i i 5 d g V C C C C Z H <.y.M.tXuXrXM.j.r.7.>.D n i < - & & & , 2 d f f f g c K 9.m.uXsXsXyXl.8.+.N d < & $ = = < 1 1 < < w d k n n k h d h k G 7.h.b.v.i.4.o.o.} ..H.U.U.H.F.F.K.J.P.].[. X X XXXXXXXoX%X%XOX.X[.Q.!.Y.Y.Y.R.#.o._ _ _ o.#.E.~./.,XeXeX).'.V.v.B._.tXsXjXkXfXtXb.s.i.i.i.6.4.4.4.e.p.p.'.(.(././././././.~.~.~.~.~.~.~.~.(.(.(.E.E.E.E.E.E.(.(.(.(.(.E.E.R.$.$.$.%.` ` ` ` ` ) @.;.4.4.p.p.V.).'.p.%.                                                                                                                                                                                                                                                                                                                                                                                                                                            ",
"                                                                                                                                                                                                                                                                                                                                                                                      2 i d 1 + + , < 1 < , , 3 2 j D 7.a.a.9.,.=.=.*.+.+.+.D V k d 2 , , < 2 5 i 5 5 f z C D H H G G =.7.z.D.yXtXZ.l.f.9.5.=.S j 2 , & & & & < 2 d f f g z Z >.r.n.N.m.h.5.D k i 1 & % $ = = < q w q < 1 w h n n n j h d h N *.i.b.b.k.e.` o.{ ....U.U.H.G.F.F.F.J.P.].[. XXXXXXXXXoXoXOX.X{.Q.L.J.K.U.R.#.O.o.' ' ' _ O.R.E.(.`.`.).'.V.v._.tX#XtXdXfXkXjXpXB.k.q.0.3.4.) ) ` 4.4.e.p.$.E.E.E.~.~.~.~.E.E.E.E.~.~.~.E.E.E.E.E.R.R.R.E.E.(.(.(.E.E.E.R.R.$.$.%.o.` ` ) ) ) / ( ( ( 4.4.p.p.p.'.p.%._ W W _ O.#.R.E.E.                                                                                                                                                                                                                                                                                                                                                                                                                          ",
"                                                                                                                                                                                                                                                                                                                                                                                      2 d d 1 + + , 2 2 < , - , 2 d V :.q.d.a.8.,.=.+.+.+.+.( S V k d 2 , , < 2 5 5 5 d z C G K *.K G K -.r.m.rXyXrXM.j.r.8.,.*.V d 3 , & & & - 1 d g g g z C K ,.8.9.7.*.V h w 1 , & $ $ = * < w w 1 < < 1 w h n n n j h d h S 3.d.b.v.i.e.o.o.{ ..H.H.H.H.F.| F.F.L.P.{. XXXXXXXXXXXOX.X[.Q.L.K.H.H.H.O.O.o._ ' / ^ ' o.#.R.E.E.E.$.p.s._.dXdX#X_._.dXcXkXsXtXb.i.3.;.( ( ) ) ) ) ` ` ` &.$.#.R.R.R.R.#.#.#.R.E.E.E.E.R.R.R.R.#.#.#.R.R.E.E.E.E.R.R.#.O.O.o.o._ ' / / / / / / / ) ) ) 4.4.p.p.'.$.o.! W ' o.#.R.R.R.#.                                                                                                                                                                                                                                                                                                                                                                                                                        ",
"                                                                                                                                                                                                                                                                                                                                                                                      2 d d 1 & & < 2 2 < & & , 3 2 j D 5.a.f.a.7.:.*.+.*.*.*.*.S V j i 3 , , 3 2 5 5 d g C G =.=.=.K K =.1.g.Z.yXtXZ.x.g.r.8.>.G N d < > & & & < i g z g z c H K *.D V h w 1 1 < & & $ $ = * 1 w w 1 - & , 1 i j n N n k j j n D 7.k.v.v.i.4.o.} } ..H.H.H.H.| | F.K.L.].[..XXXXXXXXX.X[.Q.L.G.H.....o.o._ ' ' / / / ` ` o.O.O.O.o.` 4.k.#XdXdX#Xb.b.N.dXjXjXsXtXh.0.;.@.( ( / / ) ) ) ` ` ` o.o.o.o.o.o.o.o.O.#.#.#.O.O.O.o.o.o.o.o.o.O.#.#.#.#.O.O.o.o._ _ ' ' / / / / / / / / / ) ) ) ` %.%.$.R.$.o.! ! _ O.#.#.#.#.o.                                                                                                                                                                                                                                                                                                                                                                                                                      ",
"                                                                                                                                                                                                                                                                                                                                                                                      2 d d 2 & & < 2 w < & & , < 2 i N ;.9.f.g.r.5.;.*.*.:.>.:.+.S n j 2 , - , 3 2 5 d f V G =.-.-.=.K L -.9.x.rXuXtXZ.l.f.r.0.-.S k w < & & & , 2 f g g g c Z H C k i < < < < , & & $ $ = * 1 w w < & o & < w h n V V n k j j n +.0.k.v.v.i.4.o.} ....H.H.H. .| | F.J.P.{.[.XXXXXXXX[.].L.G.....o.o._ ' ' ^ ' / / / ) ` ` _ ! ! W ^ ;.i.B.dXdX#Xb.k.j.N.pXjXjXsXN.d.5.4.;.( ) / / / / / / / ' ' ' ' ' ' ' _ _ _ _ _ _ _ _ ' ' ' ' ' ' ` ` ` ` ` _ _ ' ' ^ ^ ^ / / / / / / / / / / / / / ) ` %.$.R.R.#.o._ _ o.o.O.O.O.O._                                                                                                                                                                                                                                                                                                                                                                                                                     ",
"                                                                                                                                                                                                                                                                                                                                                                                      2 d d 2 & & < w w < - & , < 2 2 j D 5.d.j.d.q.>.:.:.>.>.>.*.S V k d 3 - & , 2 5 d f z Z =.-.-.=.L K =.,.f.Z.yXuXrXM.l.f.w.7.;.A d < , & & - 2 f g g g c Z Z V j 2 * * < < , & O X $ = < q w 2 , & X o & 1 i k V A V n h j h V ;.w.j.b.v.p.%.o.} ....H.H.H.| | | F.L.Q.[..XXXXX.X[.Q.K. .} o.o.' ^ W ^ ^ / / ) ) ) ` ^ W a u u M ( 3.h.#XtXtXB.j.k.b.tXsXkXjXdXB.a.6.3.;.( / / / / / / / / / / / / / / / ' / / ^ ^ ^ ^ ^ / / / / / / / / / / / ^ ^ m m m m B / / / / / / / / / / / A / / ` %.$.E.R.$.o._ ' o.o.O.#.O.} {                                                                                                                                                                                                                                                                                                                                                                                                                   ",
"                                                                                                                                                                                                                                                                                                                                                                                      2 d d 2 & & < w w < & - < 3 3 2 i n *.q.d.f.r.7.>.>.>.>.>.;.( S N j 2 , & , 3 5 d d g V G =.-.=.L K K -.9.l.tXaXpXrXm.z.f.9.>.( k w , & & - 3 d f f g c C D V j 1 : : < < & & X X $ = < w w 2 , X o o & < w j n V V n k j h j S >.a.b.B.v.p.o.o.} ..H.U.H. .| | F.F.L.].[..X.X[.Q.J. .} } o.' W a a u M m / ) ( ) / M b n n n n A +.0.h.N.rXrXM.b.j.B.uXjXkXfXyXb.i.6.3.;.( ) / / A / / / / / / / / / / / / / / / / / ^ m m m B B B m m m B B B B B n n m B / / / / / / / / / / m m m / / ` %.R.E.R.#.o._ ' o.O.R.U.H... .                                                                                                                                                                                                                                                                                                                                                                                                                ",
"                                                                                                                                                                                                                                                                                                                                                                                      2 d d 2 & & < w 2 < , , < 2 3 < 2 d C -.w.f.f.w.7.>.>.>.>.:.+.D S k d 3 , - 3 5 d d d g C K =.=.=.K K =.,.u.D.aXsXpXD.m.j.a.7.;.S d < - & & , 2 d f g V Z D V j 2 < < < < & o o X $ = < w w w < O o o o & < w j n N n k j d h k D 7.h.n.b.V.p.o.} } ..H.H.G. .| | F.K.P.].{.{.].Q.G.} { o._ W W a u u b m / / / B b e n *.>.>.+.S S +.7.f.N.tXtXrXB.n.Z.dXcXjXsXtXv.i.0.3.4.;.( ( / / ) ) ) / / / / / / / / / / / / / / / / B B B B m m m B B B B B n m m B B / / / / / / / / / m m m m / ) %.$.E.E.R.#.o.' _ ..U.U.Y.Y.T.T. .{ { } ....                                                                                                                                                                                                                                                                                                                                                                                                  ",
"                                                                                                                                                                                                                                                                                                                                                                                      w d d 2 & & < w 2 < , , 2 2 3 < < 2 j D 5.d.g.f.9.7.>.>.>.:.*.( S N j i 3 , < 2 5 d 7 f z Z K =.=.L L L -.9.m.uXfXgXuXZ.n.f.w.5.+.k w , & & - 3 2 d f V D D S k w 1 < < < & o o . $ = < w w w < o o o X & & < w j n n n h h d j N *.w.j.b.v.p.%.o.{ } ..H.H.H. .| | F.K.L.Q.Q.!.G.X.{ _ _ ' W M u e e b m A A A b r w D r.l.j.9.;.C V D 7.g.Z.yXuXtXn.b.N.dXcXjXpX#Xb.h.s.i.0.3.;.@.( ) ) ) / / / / / / / / / / / / / / / / / / / A m m m m B m m B A A B B A A / / / ) ) ) / / B m m B / ) ` %.$.E.E.R.O._ ! } ..Y.W.^.^.W.T. ...........}                                                                                                                                                                                                                                                                                                                                                                                               ",
"                                                                                                                                                                                                                                                                                                                                                                                      w j j w - & < w 2 < , 3 2 2 2 , , 3 i N *.9.g.j.f.9.7.>.-.;.*.( S V k f w < , 2 5 7 7 5 f c H *.*.*.*.K =.,.f.D.sXfXgXyXN.j.d.q.:.S j 2 , & & , 3 2 f N D D D N d 1 < < < & X . . $ & < w w w < & X X X $ & & 1 w j n n n j d h k S >.a.b.b.k.p.o.! { ..H.U.U.G.| | | F.K.K.J.G.X.{ ! _ ' W a a b s b b m m n b w < d =.l.rXtXm.w.+.N V +.7.j.rXuXyXm.h.j.#XpXcXjXsXdXtXN.n.j.s.0.3.4.;.@.( ) ) / / ) ) ) / / / / / ) ) ) ) ) ) / / / m m B B B B A A A A A A A / / ) ) ( ) / / / A A / / ) ) ` %.$.R.R.$.o._ ! } U.W.^.}.}.W.T.U.H.H.....} !                                                                                                                                                                                                                                                                                                                                                                                             ",
"                                                                                                                                                                                                                                                                                                                                                                                      w j j w , & < w 2 < , 3 i i 2 , , < 2 j D 7.f.n.l.d.0.5.:.*.+.D S S V N j 2 < 3 5 7 7 5 7 g C G *.*.K K L -.9.x.uXfXfXaXrXn.g.w.5.*.V d < & & & , 2 d z D G D V d q < < < & X . . X & < w i w < & X X $ $ $ & * 1 d k n n n j h j k D 5.h.b.v.V.%._ { { ..U.Y.T.G.| ] [ | | | [ Q ! ! W W W u u a b b b m n h w < & d =.l.yXaXyXb.7.S k V *.8.n.tXtXm.j.h.n.tXsXkXlXkXsXpXtX_.b.k.i.0.4.4.;.@.( ( ) ) ) ) ) ) / / / ) ) ) ( @.@.) ) ( / / ) ( ) / / / / / / / A / / / ( ) ) ) / / / / / / / / ) ` o.$.$.$.$.o._ } ..W.^.}.}.^.W.Y.U.H.....} ! W                                                                                                                                                                                                                                                                                                                                                                                           ",
"                                                                                                                                                                                                                                                                                                                                                                                      w j j w , & < w 2 < , 3 i i 2 , & , 1 d N :.d.n.m.j.w.5.:.*.D S S D D D V f 1 3 2 5 f 7 7 f z D K *.K K K =.,.u.Z.aXhXfXyXZ.b.d.q.>.D N i < & & & < d k S D D V d w q < < & X . . X % < w d w < & $ $ $ = = $ & < w h N V N n j h j n *.q.h.b.v.p.` _ { ..H.Y.Y.H.X.[ R ] ] R E E W W W a u u e a b m m b b r < & & d *.f.tXsXsX#Xf.>.S N V *.q.l.m.B.n.l.l.N.pXlXzXzXxXjXpXrXB.h.i.0.3.4.4.;.( ( ) ( ) ) ( ) ) ) ) ) ) ) ;.4.4.4.4.4.4.4.4.4.4.4.) ( ( ) / / A A / / ( ( ) ) / / / / / / / A / / ` o.$.$.$.$.o.! } U.^.|.>X}.^.W.U.....} { ! W u                                                                                                                                                                                                                                                                                                                                                                                         ",
"                                                                                                                                                                                                                                                                                                                                                                                      w j j w , , 1 w 2 3 , 3 i i 2 , & , < w j G 9.l.m.l.a.7.:.+.D ( +.:.-.:.D k 2 3 3 5 f f f d g V G *.*.*.K K =.8.l.tXfXfXaXtXm.j.r.7.:.D k 2 , & & , w j V S S n d q q < < & X . . $ % < w d p < & $ $ = 9 9 = % * 1 d n A S V k j h j V :.i.v.v.s.p.` _ } ..U.Y.U...{ R R R Y Y T W W a u u e e b b m m b r < & & & w S 8.n.dXpXdXN.d.:.C k V *.8.h.m.Z.Z.N.N.yXjXzXvXzXjXpXtXb.k.i.6.3.4.4.;.( ( ) ) ) ) ) / / ) / / / ) @.4.4.4.e.e.p.p.p.p.p.e.4.4.) ) / / A A S / / ) ) ) / / / / / / / B B B / ` %.$.$.$.#.o.{ ..T.^.|.}.}.^.Y.H.} { ! ! W W u                                                                                                                                                                                                                                                                                                                                                                                       ",
"                                                                                                                                                                                                                                                                                                                                                                                      w j j w , , 2 i 5 1 , 3 w i 2 , & & < 2 d C ,.f.n.b.f.q.>.:.;.:.3.7.7.>.( n w , 3 5 f g g f f z Z K *.*.*.K =.,.r.N.pXfXsXuXZ.b.d.9.5.*.V d < & & & 2 d k V N j w 1 q < < & X . . $ $ * w d p < & $ = 9 9 9 9 = = < w n A S S n h d h k S 5.d.b.v.i.e.` o.} H.U.H...{ Q Y Y t y u u u u r r r e b m m b e q = $ & , i N *.a.N.yXpXyXm.w.+.k j N *.q.l.Z.tXtXrXtXpXkXzXxXjXuXN.h.q.3.4.;.;.;.;.( ( ) ) ) ) ) / / / / / / / ) ;.4.4.e.p.V.V.V.V.p.p.4.4.) ) / A A A A S / / / / / / / / / / B B B B B / ` %.$.$.$.#.} } ..T.^.}.}.}.W.U...! ! ! W W W T                                                                                                                                                                                                                                                                                                                                                                                     ",
"                                                                                                                                                                                                                                                                                                                                                                                      w h j w , , 2 i i 1 , 3 w i 2 , & - < 2 w k *.8.f.l.j.d.q.7.0.q.w.q.7.>.S k 2 , 3 6 f z z g f g V G *.=.*.*.=.-.7.j.rXaXsXpXtXn.h.r.7.-.D k 2 , & & < w j k j d 1 < < < : & X . . $ $ * r h d 1 & $ = 9 t t t 9 9 : r h n S S V k j d j n +.q.h.b.v.i.4._ o.} ......} ! T t y y u u u 0 r q q r b b b p q * $ X & < i k S -.d.N.uXpXtXl.5.S k j V ;.d.N.yXpXdXtXtXpXjXkXfXdXN.h.7.;.;.@.@.;.@.@.( ) ) ) ) ) / / / / / / / ) ) ;.4.4.p.p.V.V.p.p.4.4.) ) ) / A A A A A / / / / / / / / / B m m n n n B / ` %.$.$.#.O.} { ..T.^.}.}.^.W.H.{ ! ! ! W W W                                                                                                                                                                                                                                                                                                                                                                                     ",
"                                                                                                                                                                                                                                                                                                                                                                                      w h j w , , 2 i i 1 , < w w 2 , & , 2 2 2 d V =.w.j.b.j.h.d.f.f.d.q.3.+.V d < + 4 2 f z z z g f g C *.=.=.=.=.=.<.r.n.tXsXpXyXN.l.a.q.3.*.V d < - & , 1 i d i 2 < * * * & & X o . $ $ * r h h 1 & $ 9 t t Y Y t 9 9 q e b m S A n k j h k S >.s.b.b.k.e.` _ o.} } O.o.{ E y y y y 0 r r 0 q q q p b h r : & X X & 1 i j n S >.f.Z.uXuXN.d.-.V j j S 5.j.rXpXpXyX#XrXdXsXsXsXtXn.w.3.;.;.@.;.;.@.( / / ) ( ) / / / / / A A A / ( ) @.4.p.e.e.4.4.` ) ) ) ) / A A A A A / / / / / / / / / B m n n n n m / ` ` %.$.$.#.O.{ {  .T.W.^.}.!.Y...! ! ! ! ! W W                                                                                                                                                                                                                                                                                                                                                                                   ",
"                                                                                                                                                                                                                                                                                                                                                                                      w j j i , , 2 w w 3 , < w w 2 , & < 2 w 2 2 j S 7.f.n.B.B.n.n.j.d.7.*.V d < & o + < d g z z g f f V G *.=.=.=.=.-.1.f.Z.uXaXuXrXn.f.q.5.;.S k w < , - < 1 2 1 < * & * & & & o o . $ % : w h h q = = 9 t Y R R R Y t 0 r p n B S A n k j j N +.7.h.b.v.i.4.` ' ! { o.o.} ~ T y 0 0 0 r 0 0 q q q r e r < = $ X X & 1 w d j k D 7.j.Z.yXtXN.a.:.V j k ( q.n.tXpXpXtXN.N.tXpXsXpXtXb.w.3.;.;.;.;.+.S B B A / ( / / / / A A A A A A / ) ) 4.4.@.` ) / / / / / / / A A A / / / / / / / / / A A m n l h h n A ) ` ` &.#.#.#.o.! Q X.T.!.^.^.!.T...! ! ! ! W W                                                                                                                                                                                                                                                                                                                                                                                   ",
"                                                                                                                                                                                                                                                                                                                                                                                      w h h w , , 3 w 2 3 , < w w 2 , & 3 i i 2 < w k =.r.b.N.#XN.n.f.q.;.V d < & o o + , 5 g z c z f f k C G *.=.=.=.=.-.8.l.D.uXaXyXZ.l.r.7.>.+.C j w < & & , , , & & & & & & X o . o X & < w j h r * = 9 Y ] | | [ R Y y 0 r b n A S S n k j n A :.9.h.b.k.p.` ' ! ! } } } ! T u 0 0 0 0 0 0 q * q q q q * % % o o , < w w i d k D 7.l.rXuXyXN.d.>.S k V *.r.m.yXpXdXtXB.B.tXpXsXsXtXn.w.3.;.;.*.D N k n A ( ( / / / A A A A A A A A / / ) ) / / / A A A / / / / / A / / / A A A / / / / A A B m l h p b B / ) ) ` O.$.$.O.} ! Q X.T.!.^.!.W.U.} ! ! ! ! ^ W                                                                                                                                                                                                                                                                                                                                                                                 ",
"                                                                                                                                                                                                                                                                                                                                                                                      2 i d 2 - - < 2 2 < , < w w 2 , & 2 d i < , < d D 7.h.N.#XN.j.q.:.V d < & o o o & , 2 d g z z g f j z Z G =.=.=.=.=.,.r.m.tXaXpXtXm.d.q.5.:.+.C k i 3 , , & & & & & & O X o . . X X & < i n b r * = t Y | K.J.G.| R Y y r e M A / S S n k j n S >.r.j.v.i.4.` ' ^ ! ! { ! W u r 0 9 0 0 0 9 = * : < < : & & , < 3 3 2 2 2 w d k G 9.M.uXsXpXrXh.>.S k C :.a.B.yXpXuXN.n.M.tXsXfXsXyXn.i.5.:.*.S N n V D +.*.( ( / / / / / / S S S / ) ) ) / S / S / / / / ( ( / / ) ( ( / / / / / / / / / / / B n l n A / ( ( ) ` %.$.$.O.o.! ! ..T.!.!.W.Y...{ ! W W ^ W W                                                                                                                                                                                                                                                                                                                                                                               ",
"                                                                                                                                                                                                                                                                                                                                                                                    3 1 w w < & & < 2 2 < , < w w w , & 2 d i < - , 2 k ;.w.l.m.l.9.;.V d < & o o - , < 3 3 5 f g g g f d g V D *.=.=.=.=.-.1.f.Z.uXaXpXZ.z.r.7.,.-.*.D N j d i 1 < , , & & & o o . . . X & < i n j r * = t R | L.!.!.Y. .R Y y u a m / ( ( A n l j n D 5.a.j.k.i.4./ ^ ^ ! ! ! W u r q 9 9 9 9 9 : < w d d d i 2 i d d 2 2 1 1 2 2 d N -.j.tXfXjXsXrXd.*.n k S :.d.N.uXdXtXn.n.Z.pXfXkXfXuXn.d.0.3.;.( +.*.>.5.5.>.;.;.;.;.:.;.;.;.;.*.;.;.@.;.@.@.;.;.@.@.;.;.;.;.;.;.;.4.4.4.;.;.;.;.( ( ( ;.4.;.;.( ( ( @.;.;.;.@.` %.$.$.$.%._ ' { ..T.Y.W.Y.U.} ! W W W W W M                                                                                                                                                                                                                                                                                                                                                                             ",
"                                                                                                                                                                                                                                                                                                                                                                                    2 2 2 3 , + & < 2 2 < , < w i w < & 3 i i < & & < d S >.w.d.9.=.V i < & o o , 2 i i 2 2 2 d f g g f f f g C G =.=.=.=.=.>.9.l.rXaXaXtXM.f.r.8.7.>.:.*.D S V g d i 2 2 3 < , , o o . o $ < i k j w * = t R G.!.}.|.^.T.| R Y y u M m ( ( ( A n h j N *.7.d.h.s.0.) ' ^ W W ^ W a r 0 * 9 9 q w d j V D G D C V V N k f 2 3 < 1 2 i j D 8.m.sXkXjXpXl.>.V j k S >.f.Z.yXyX#XB.N.yXsXlXxXjXdX_.v.d.w.0.0.w.a.d.a.i.q.q.i.i.i.i.q.0.0.7.0.0.0.0.0.0.0.0.0.0.0.0.i.i.i.q.i.i.i.i.i.w.q.0.4.4.6.i.i.i.q.0.0.0.0.6.7.5.5.e.p.p.'.'.p.p.` _ ! X.G.U.Y.R.O.o.! W W W W ^ M                                                                                                                                                                                                                                                                                                                                                                           ",
"                                                                                                                                                                                                                                                                                                                                                                                  k d 2 3 , & o & < 2 2 < , 1 w d w < & < w i 3 & o - w k D :.>.*.V i , & o o , i g z k f i 2 2 d f j j f d f z Z K =.=.=.=.-.,.r.m.yXaXaXrXm.f.r.9.7.7.3.>.:.*.D V k g f d d i 2 < & o o X < i k k w * = t R K.^.|.$X|.~.H.| R Y y u M / ( ( S n j h j C :.w.h.h.i.4.) ^ ^ W ^ a a r q 9 9 r n S ;.>.7.r.r.9.,.=.*.G D z d 2 < < 2 2 d n *.d.tXfXjXpXl.>.N d d k S 5.j.Z.tXtXtXrXtXsXlXzXzXlXsXdX#Xn.j.j.j.b.n.b.v.j.j.v.b.n.b.j.k.k.k.k.k.k.h.h.h.h.k.k.k.k.k.v.v.j.h.v.b.b.b.v.h.k.s.0.6.i.k.b.b.v.j.h.k.k.d.i.a.i.i.s.V.).).).V.p.` ^ ! { ....R.#.O.o.! W W ^ ^ ^ M                                                                                                                                                                                                                                                                                                                                                                         ",
"                                                                                                                                                                                                                                                                                                                                                                              N V n j i 2 , & o & 3 2 2 < , 1 w d w < & < w w 1 & o & 2 j V S S V d , & o o & 2 k S D C z f i 2 5 f j g g f d g C G =.-.-.=.=.-.1.f.Z.pXgXpXD.x.f.r.9.8.7.7.7.,.=.G C V N z k k j d 2 & O X > w k j w : = t R G.^.$X,X,X|.~.H.[ R Y y a m / ( ( A k h d k D 5.a.k.s.0.4.^ M a a a u e q r h D 7.d.j.l.x.m.m.l.y.8.,.=.*.C g i 3 < 3 2 i f V ,.n.uXaXrXf.*.k i w h n ( 8.l.rXuXpXuXdXsXkXzXNXNXzXjXpXtXB.n.B.B.B.B.B.n.n.B.N._.B.n.v.v.v.v.v.b.b.n.B.b.v.h.h.v.b.b.n.b.b.n.B.B.b.b.v.v.k.i.0.i.v.B.B.n.n.n.b.v.h.k.k.k.k.v.v._._._.V.p.%.' W W ~ { O.#.#.O._ ' ' ^ ^ ^ ^ ^                                                                                                                                                                                                                                                                                                                                                                       ",
"                                                                                                                                                                                                                                                                                                                                                                          d k V S N k d 2 < & & , 1 w 2 < , 1 w d w < & < w w 2 , o & 2 j n V N j 2 & & o & < d V *.=.*.S k d 2 2 d j g g f f f z G =.-.-.=.=.K =.8.l.rXsXsXuXZ.j.d.9.8.7.7.7.,.>.=.G D S C C V V n f 2 & o > w j j w < = t R G.^.$X<X<X,X|.W.G.[ Y y u a m / ( S N j d f N +.7.a.d.i.3.) m M a a u u s n :.d.N.tXuXtXrXrXD.M.z.r.8.,.=.G V j i 3 3 2 2 i j G d.N.Z.b.7.S d 2 w d j V *.w.n.yXsXsXpXsXjXzXNXNXvXlXsXtXB.n.b.b.n.n.b.v.b.n.B.N.B.b.h.h.h.h.h.j.v.b.b.v.k.k.k.k.h.v.v.h.h.v.b.b.j.k.k.k.i.0.6.0.k.b.b.b.b.b.v.h.k.k.d.s.s.k.v.v.).V.V.p.4.` m a u W } O.#.#.o._ ' ^ ^ ^ ^ ^ ^                                                                                                                                                                                                                                                                                                                                                                     ",
"                                                                                                                                                                                                                                                                                                                                                                          k V S D V k d w 2 , - , 2 w 2 < , 1 w i w < - < w w 2 , o & 2 j k N n h 1 & & & , 2 f S :.,.>.*.V g d 5 i f g g g f d g C *.-.-.=.=.K K -.t.m.uXfXsXtXn.f.r.8.7.7.7.,.>.:.*.G D S D D S S n d < & & 2 d d w q q y R  .W.$X<X<X<X,X/.Y.| R Y y u M m S S V k h d j V *.7.d.d.w.4./ M a u u b A 5.l.yXhXlXkXfXpXyXrXC.l.f.9.1.>.=.D V j 2 3 3 2 2 d C 7.f.f.q.*.j 1 < 2 w d k C -.d.N.pXsXsXsXcXxXNXNXzXjXyXn.h.d.s.s.s.a.i.i.i.d.k.h.d.i.w.q.q.0.0.q.w.i.i.i.0.0.0.0.q.i.q.q.q.w.i.w.0.0.0.0.3.:.;.:.0.w.i.i.a.i.i.w.0.0.0.6.0.0.i.p.p.p.e.e.4.` / b u u W } o.O.%.` _ ^ ^ W ^ ' ^ ^                                                                                                                                                                                                                                                                                                                                                                   ",
"                                                                                                                                                                                                                                                                                                                                                                        k V D +.D V k j d w < < < 2 w 2 < , < w w w < - < w w w , o & 2 j k N k d < & & & < 2 f V =.7.7.>.D N j d w d j g g g f f c G =.=.=.L K G L ,.f.rXsXfXuXZ.z.d.9.7.7.,.,.,.>.:.*.( D D D D S V k i < & < w d h d r 0 Y [ Y./.,X<X<X1X,X~.U.[ R Y y u M A S S N j d d j S -.w.g.h.w.;.A b s b S 7.n.uXlXzXvXzXlXfXuXrXZ.c.g.r.9.1.>.*.D z d 2 3 1 2 d V =.8.7.;.N 2 - , 3 w d d k D 5.j.rXpXsXsXjXlXzXzXkXuXn.w.5.>.>.>.:.:.;.;.;.>.3.3.3.:.;.*.*.+.+.*.;.;.;.;.+.( ( @.;.;.;.+.+.;.;.;.+.( ( ( ( S A A ( ;.;.:.:.:.;.;.;.( ( ( ( ( ( ) @.) ` ` ` ) / m e r u W ! _ ` ` ' ^ a W ^ ' _ ` `                                                                                                                                                                                                                                                                                                                                                                 ",
"                                                                                                                                                                                                                                                                                                                                                                        N D *.;.+.S n j d w 2 < < 2 w 2 < , < w w w < - < w w w < & & 2 j k n k d < & & , 3 w d N G 5.q.5.*.C k f i 2 d j g g f f g C K =.=.L L K K =.8.m.pXfXsXyXM.j.r.q.7.7.,.,.,.>.:.*.D S S D S S V j w < , 2 d h h d r y R  .~.|.1X<X1X,X|.W.G.[ Y y u u M B A A N j d d k ( 0.h.l.f.7.+.m b A >.l.uXkXzXNXNXNXzXjXaXyXD.m.z.f.r.8.1.>.G V f 5 3 1 2 d z +.>.;.S f , + - < w d d j N +.8.b.tXsXcXkXlXlXjXuXl.7.+.S S S A A V V V V A S S S A n n n k k k n n n n n n n n m m n n n n n n n n n n n j h h h n n B A A A A n n n b b n n m m m m / / / / m b r 0 u a W ^ ^ ^ a u a ^ _ ` %.%.`                                                                                                                                                                                                                                                                                                                                                               ",
"                                                                                                                                                                                                                                                                                                                                                                        N +.>.>.;.( V k j d w 2 < 3 2 3 , , < w w w < - < w i w < & & 2 j k n k d < & & < 2 i d j C -.7.7.-.G V k d 2 5 f g g g f g c H L =.=.L L L L ,.d.D.sXhXfXtXm.g.r.9.8.8.7.5.,.>.=.*.( ( ( D S S N j 2 < < w h n h e u Y [ U./.,X1X<X1X,X/.Y.| R Y y u u n A S S n h i d V :.r.j.j.a.3.S S :.g.tXfXxXzXNXBXBXNXxXhXaXyXZ.m.g.y.9.8.,.*.Z z d 1 3 2 i k D *.D N 2 & o - 3 2 i d d j V *.q.n.dXcXlXlXfXtXj.5.S k j j k h j j h d h h h h h d w w w w w w w w w e e e e h h e e e w e e e e e e d d e r r w e p d h h b b h e r r r e e s h h h b n m A m l w < : 0 r a M a u r u ^ ` p.p.p.%.` /                                                                                                                                                                                                                                                                                                                                                           ",
"                                                                                                                                                                                                                                                                                                                                                                        k D >.3.>.;.S N j d w 1 < < < , - - < w w w < & < w i w < & & 2 d k k j i < & , 1 i d d j N +.>.7.,.=.D V f 2 2 d g z k g f z C G =.=.=.L L L =.8.l.uXjXjXsXrXm.j.f.r.r.9.7.7.5.>.*.+.( ( ( ( S A n d 1 < w h n n b e u R  .Y./.,X1X<X<X$X^.T.| R y y u b n S S V j d i j D ,.r.f.d.7.*.-.d.D.sXkXlXxXbXBXBXBXvXlXhXaXrXM.l.f.r.9.1.=.G c f 2 3 3 2 j S G D k 2 & + , 2 w w i d d k V ;.a.Z.sXkXcXyXj.5.C j d d d i i w w w w w w w w w w 1 < < < < < < < < q q q q q q q q q < < q q q 1 q w w w 1 1 q q q q r w e e r q q < < q q r w w r e h b n m n d 1 & * q r e e q q r M ` 4.p.%.` ) / n                                                                                                                                                                                                                                                                                                                                                         ",
"                                                                                                                                                                                                                                                                                                                                                                        j S *.>.3.>.*.S k d w 2 < , , - & & < 2 w 2 , & < w d w < & & 2 h k k j w , & , 2 d d d d j C *.7.7.,.=.C g 5 2 5 j z z z g g z Z =.=.=.=.L L L <.y.rXfXkXfXuXZ.n.l.g.f.r.9.7.7.>.:.;.;.*.*.( ( S V j w < 1 d n B n b u T [ H.~.|.1X<X<X,X|.W.K.[ Y t 0 e b n A V k d w d k D ,.9.r.7.,.r.M.uXfXjXjXlXzXNXBXBXNXzXlXfXuXD.M.l.f.r.7.-.K Z z f 5 1 2 d V D S k 2 & + < 2 i i i i d d k S >.l.uXsXuXn.7.S f w w w 2 1 < < < < < < < < < < : & & & & & & & & * * * * : < < : * * * * & & & & < < < < : : < < < : < 1 q q < : * & & * < 2 w r r w w d b n n h 2 & & * q q q q * q s ^ ` ` ` ' / B n n                                                                                                                                                                                                                                                                                                                                                       ",
"                                                                                                                                                                                                                                                                                                                                                                        i k S :.5.5.:.D n h w 2 3 , & & + & < 2 w 2 , & < w d i < & & 2 j k k j w - & , w d d d d f k D >.7.7.>.G N d 2 5 f z c z g g g C G =.-.=.L L L =.8.x.uXhXjXsXtXN.m.l.g.d.r.q.0.7.3.>.>.:.;.*.+.( S n d w 1 r b m B n b u E [ Y./.,X<X<X<X>X}.!.| R y y 0 e b N V n j w w d k D -.,.1.9.l.rXaXfXfXfXhXxXbXBXBXBXNXzXjXsXtXZ.m.z.y.9.1.-.K D z f 5 2 d N S C j 2 + + < w i d d d d d j V ;.d.N.rXn.q.S j w 2 2 < , & & & & & & & & & & o O O O X X X X X X % & & & & & & & & & & % % & & o & & & & & & & & & & & & * & & & & O X O & < 1 w w w w w d l n h w < & * q q q q * * r M / / ^ M m n n n h                                                                                                                                                                                                                                                                                                                                                     ",
"                                                                                                                                                                                                                                                                                                                                                                        2 d N *.>.5.>.+.V j d w 2 < , & o & < 2 w 2 , & < w d i < & & 2 j n k h 2 - & < w d d d d d j V +.,.8.7.=.S k d 2 d j z z z g g z D *.=.=.=.L L =.<.r.M.pXfXfXuXD.M.l.z.f.y.r.9.8.7.5.3.>.>.;.;.+.( A n d 1 q e l N B m M T R  .Y./.$X<X<X:X>X^.J.[ Y t y r s n B N j i w w i j C *.1.f.A.rXuXaXaXaXfXjXzXNXBXBXNXvXlXfXuXrXC.c.z.u.t.8.,.=.H V f 2 2 k V N j 1 + o , 2 i d d d d d j V *.w.l.j.9.*.k w 2 1 < - o o o o o o o X X o X X X X o o X o o o X X X X X X X X X X X X X X X X X X X X X X X X X X X X X $ $ X X o . . o o & < 1 w w w w w h l h d 1 * * q r r q < & * q e e e e e h h h h d                                                                                                                                                                                                                                                                                                                                                   ",
"                                                                                                                                                                                                                                                                                                                                                                        3 2 j S *.>.>.=.D n j d i 2 < - + + < w w 2 , & < w d i < & & w j n k d 2 - & < w d d d d d d g C -.8.8.5.*.V f i 5 d g g z g f g C G *.=.=.=.L L =.1.f.Z.pXfXfXyXZ.c.z.f.f.d.d.w.0.7.5.3.>.>.:.;.+.( A n w 1 q p n N A m u E ] G.W.|.>X:X:X>X|.W. .R Y t y u M m n n h w w 2 2 g K t.l.C.Z.S.iXuXaXgXhXlXvXNXBXBXNXxXhXpXrXD.Z.m.c.z.f.r.1.=.Z g 2 2 d k k d < o o & < w d j j f d j V ;.q.f.a.>.V d w 2 < & o o . . . X o X X o o . o o o o X X o o o o o o o & o & o o o X X X X X X X X X X o o o o o o o o o o o o X . . . . . o & , 1 w w w w d h j h w : < q w w q , & & & * < : < q q r e p d d                                                                                                                                                                                                                                                                                                                                                 ",
"                                                                                                                                                                                                                                                                                                                                                                        , < w k D :.,.,.*.V k j h d 2 , & & < w w 2 , & , 2 d i < & - w h k k d 2 - & < w d d w i d d f N *.7.q.7.:.D k f 5 5 d g g g g g z C G =.=.=.L L =.<.8.g.rXfXfXaXD.m.l.g.g.g.f.a.q.7.5.3.3.3.>.>.;.;.( A j 2 < q h n A B M u E | J.^.$X:X<X<X$X^.T.| R Y y y u b n n h d w 1 2 g -.u.c.A.A.A.Z.rXpXgXhXjXxXvXNXBXNXvXkXsXpXuXyXiXD.A.l.f.8.=.Z g 2 3 2 d d 2 , o o & < 1 i j k j j j S :.q.a.q.+.k i w 1 , o o . . o o o o o O X X X X o & - - , < < < < < < , < < , , , & & & - - & & & & & & - < < < , , - & + o o o o o o . . . . o & < 1 w w w w h l h w : : 1 w w 1 , & X O & & & & & * < q r e e                                                                                                                                                                                                                                                                                                                                                 ",
"                                                                                                                                                                                                                                                                                                                                                                        , < 3 d V *.,.7.>.D V k j j i 1 , & < w i w , & , 2 d i < & & w j k j d 2 & & < w i w 2 w i d d k D >.8.8.>.G V g d 5 5 d g g g f g c D *.-.-.=.=.=.-.,.r.m.pXfXsXyXZ.x.z.z.j.g.d.w.q.7.3.3.3.3.3.3.:.;.S n w < < w n A A n u T R | T./.$X<X<X<X$X~.U.[ Y t y u e h h j h i 2 d Z 8.z.c.c.c.c.A.S.pXgXhXjXjXxXvXNXBXNXzXjXfXgXaXuXrXC.l.u.1.K C g 5 1 2 2 2 < & o o & , < w f k k j k A :.0.w.5.S j i 2 < & o . . o , 2 w 2 < < < & & - < 1 2 2 w i d d d w w w w w w w w w 2 w w w w w 2 w w w w w e w w 2 2 < < , , & & o o o o . . o X & < w w w p h b h r * & < 1 1 < , o o & & & & & & & * : q r r r                                                                                                                                                                                                                                                                                                                                               ",
"                                                                                                                                                                                                                                                                                                                                                                        3 3 3 2 j S -.7.5.:.S N k j d w < , 3 w i w , & , 2 i w < & & w j k j i 1 & & , 2 w 2 2 2 i d d j V *.5.8.7.:.D V g i 2 5 f g g f f g V G =.-.-.-.=.-.-.1.f.D.aXgXpXrXM.x.l.l.j.h.a.w.0.5.3.3.3.3.3.3.;.+.S h 2 < 1 h n B n b u T R  .W.$X<X<X<X,X/.~. .R Y t 0 r e d h h d i z <.f.c.m.c.x.c.m.D.uXgXfXfXfXhXxXNXBXBXbXxXjXfXaXrXC.l.u.8.-.H V z f 7 5 2 3 , o X o - < < 2 i j k j k V *.7.0.>.S j w 2 , o o . o , d k n k d w w 1 1 2 w d j j k n n n n k j h j k k j h h d h j j h h h h h h h h n n k j d w 2 2 1 < < < > & o o o o o & < w w d d h h h r * & & , , , & o & & & * * * * & & * < q q q                                                                                                                                                                                                                                                                                                                                               ",
"                                                                                                                                                                                                                                                                                                                                                                        w w w w d N +.,.7.5.*.A n k j i 2 < 1 w w w < & , 2 i w < & - w j k j i 1 & & , 2 w 2 3 2 w d d j k S :.7.8.7.=.D c f 2 2 d g g f f f z Z =.,.,.<.-.-.-.<.9.x.tXsXgXpXD.m.n.n.n.l.h.a.q.7.5.5.3.3.3.3.4.;.( A j 1 < r h n n n e u Y [ U./.,X<X<X<X,X/.Y.| Y t 9 0 q r d d d d D 9.c.Z.A.c.c.c.m.Z.iXpXaXaXgXgXkXvXNXBXNXzXjXpXD.x.y.9.1.-.=.G G D V z f 5 3 - o o o , < 1 1 2 d j j k V *.3.5.;.V d w < & o o o - w z D +.S k j p w w w h k n N N A A A A N n n n n N n n n n n N N N n n n N n n n A A N k j d i i w w w 2 1 < & o o o o X & w d d d d h h r * & & & & & o o & & : < q q q < * * * : q q q                                                                                                                                                                                                                                                                                                                                             ",
"                                                                                                                                                                                                                                                                                                                                                                        d d d d i j S :.7.7.:.D V n j d 2 3 3 2 w 2 > & , 2 i w < + & w j k j w 1 & & < 2 w 2 3 2 w d d h j N ( ,.9.9.7.=.C g d 2 5 f g g f 7 f c K <.,.,.<.-.=.=.,.y.Z.pXfXgXuXZ.M.m.m.m.l.f.r.8.7.7.5.5.3.3.3.:.;.( n w 1 1 w h n n b e u E X.Y./.,X<X<X1X,X~.H.R t 9 9 q r w w i g =.y.C.S.D.C.c.c.c.Z.S.iXuXpXaXgXkXvXNXNXNXlXpXZ.g.9.<.-.,.,.,.,.,.>.*.D c f 2 < + o o , < 2 2 2 w d j j N ( >.3.;.n e q < & o o + 3 j S ;.:.D n h d w w w j n n N A A A S S N n l n n B n n n n n V A A B N B A B n N A A N k h i i i w w w w 2 2 < , o o o X & w d d d e h d r * & & , , , & + & & * 1 w w w r 1 ; * * * : <                                                                                                                                                                                                                                                                                                                                             ",
"                                                                                                                                                                                                                                                                                                                                                                        d j j j h d n *.5.0.5.*.S N k d w 2 < < 2 < & & < w i w < + & 2 j k j i 1 * & < 2 w 2 2 2 w d d h j k S :.q.a.9.<.G V f 5 5 f g g f 7 f z G -.,.,.<.-.=.=.-.9.l.yXfXfXaXrXZ.C.C.M.m.j.d.w.9.q.7.7.3.3.3.>.:.*.S k w < 1 i j n n b u T Q G.W.|.<X<X<X,X|.Y.| Y 9 9 q q r w i V >.f.M.rXrXD.C.m.A.A.Z.S.iXuXaXhXlXzXvXvXlXaXM.f.9.,.,.1.9.r.r.r.r.8.,.=.D z f 5 , + o - < 2 2 2 w i d j n D ;.>.+.n e q < & o o , d N D ;.*.S k d w w w w d h n n n n n n n n h h h n n l h h h l n n n n n n n n n n n n n j w 2 2 w w w w w w w 2 , & o o o & 2 d d w w d e w * , < 2 w 2 1 < , & & < w w p w r q < * * * : -                                                                                                                                                                                                                                                                                                                                           ",
"                                                                                                                                                                                                                                                                                                                                                                        d j k n k d j D >.0.7.>.+.V k f i 2 < < < < & & < w i w < o & 2 j k j i 1 * & , 2 w w 2 2 2 i d j j j N +.7.r.r.7.=.Z z f 5 5 f g g f 7 g C L <.,.-.-.=.=.=.,.y.C.pXgXsXuXD.Z.Z.M.m.l.f.d.r.w.q.q.7.5.3.>.>.;.( V d < < 2 h n n n b u E [ U.^.$X<X<X<X$X^.G.R t 9 r r r w d D 1.y.x.Z.rXrXD.Z.A.A.A.Z.S.uXfXkXxXxXlXfXuXm.g.f.f.f.y.f.z.l.z.g.f.r.8.<.K Z V g 5 3 + & , 2 2 2 w i d j n S *.:.( n e q ; o o + 2 j V D D S k d 2 1 1 < q r e d h h h d h h d w r r w w w w w r w d d d d h h h h d d j h d w 1 < < < < < < 2 w w 2 < & o . o & 1 w d w w w w q < < w f j j j d 2 < & , 1 w w d p w q < * & & ,                                                                                                                                                                                                                                                                                                                                           ",
"                                                                                                                                                                                                                                                                                                                                                                        w j k V n d d N *.7.8.7.:.S n j d 2 3 , , , , - < w w w < o & 2 j k j i 1 * & , 1 2 2 2 2 2 w d j j j k S >.9.r.9.>.G C g 5 6 5 f g f f f z D -.,.<.-.=.=.=.-.8.g.Z.pXsXaXtXZ.C.M.m.l.z.g.d.a.r.w.q.7.3.3.3.>.;.S k w < < w h n n n b u R | Y.|.,X<X<X,X|.Y.[ y 0 0 r r w k *.7.r.f.l.Z.rXyXD.Z.A.A.A.S.aXjXlXkXfXuXZ.l.f.x.D.tXrXZ.m.m.m.l.z.g.r.9.,.-.K G C g 5 , + , 3 2 2 w d j j k A +.;.( n e q : o o & w n S S V j i < , & & & : < q r r w w w w 1 1 < < < < < < < < < < 1 1 q q w r r r w w w 2 1 < & & & & & & , 2 w w 2 < & o . . & < w i w r w w q 1 2 d k V V V N j w < , < < 2 w e e r q < * & &                                                                                                                                                                                                                                                                                                                                           ",
"                                                                                                                                                                                                                                                                                                                                                                        2 d k V N j w f S -.7.q.3.*.V k j d 2 < , , , , < w w w < o & w j n j d q * & & < 2 2 2 2 2 w i h j j k V +.5.9.9.7.=.Z z f 6 6 d g g f f f V K -.<.-.=.=.=.=.<.9.l.rXaXsXuXD.C.m.m.m.l.l.j.f.d.a.w.7.5.3.3.3.;.( V h < - 1 d n N n n u T Q G.W.$X<X<X<X|.~.X.Y y y r r j S >.8.9.t.y.x.D.yXyXS.A.A.Z.yXgXjXjXsXrXl.r.r.l.tXhXkXfXuXrXZ.A.c.l.g.u.r.8.,.<.-.K C g 2 - & , 1 2 w d j j k V ( *.( n e q * X o & w n S C k w < & & O % & * * : < < 1 1 1 < < & & = & & & & & & * & * * * * : : < < < 1 < < & & % $ X X o o & 3 w i w 3 & o . . o < w w w r w w r q w j N C D G D V j w 3 < , < 1 w w r r q 1 < *                                                                                                                                                                                                                                                                                                                                           ",
"                                                                                                                                                                                                                                                                                                                                                                        3 w j V N j w w k +.5.q.0.>.( N k f i 2 , - - - < w w w < o - w k n k d q * % & < 2 2 w 2 2 2 i d j j j k S =.8.r.9.,.K C g 7 2 5 f g g f f z Z =.-.-.=.=.L L =.,.r.m.yXaXaXyXZ.M.m.m.m.n.l.h.d.a.w.q.7.0.5.3.:.*.S n w < < w j N A m b u E [ T.^.$X<X<X,X/.H.E y u 0 r k +.1.8.8.1.2.u.m.rXyXS.A.C.D.pXfXhXaXD.g.8.8.g.D.fXzXzXxXfXpXrXC.m.l.z.f.u.r.9.7.1.>.K C f 3 - - < 2 w d j j k V D *.( n r < & X o & w n V V j 1 & o X X % 9 9 0 9 9 : < q q < * = * 9 9 = = & & , & = 9 9 9 9 9 9 * * < < ; & & % = = = $ $ X & 3 i j d 2 - o o . o , w w w r r w r r w k V D G *.*.D V j i 2 < , < < q w r r r q q                                                                                                                                                                                                                                                                                                                                           ",
"                                                                                                                                                                                                                                                                                                                                                                        < 2 h n n j i 2 d S >.q.w.0.;.S N j d 2 < - & & < w w w < o , i k n k p q * & & < 2 2 i i w w w d j j j j N D >.9.r.8.-.H V g 5 5 f g z g f f c G =.-.=.=.L L L =.1.g.Z.pXsXaXrXC.m.m.m.n.n.l.h.d.w.w.q.0.7.3.:.;.+.S k w < 1 d k V A n b u R | Y.|.,X<X,X/.U.R y y r r n =.7.8.1.<.<.8.z.A.rXiXD.D.yXaXgXpXZ.f.8.8.z.Z.pXkXvXNXvXlXfXuXD.Z.m.x.z.f.u.r.r.9.1.-.G V d < - , 3 w i j k N V D *.D k q * & X o & w j N n j 1 & o X $ 9 t Y Y Y y 0 q q q < * 9 t y Y t 9 9 < < < 9 t Y R R Y t 9 * : * * * 9 t y t t 9 = $ & < h n k w , o o o o , 2 w e w r w w w d k V D G =.=.*.D N j d 2 < , & < 1 q r r r q                                                                                                                                                                                                                                                                                                                                           ",
"                                                                                                                                                                                                                                                                                                                                                                        < 2 i j k k j w i z *.7.w.q.3.+.V k j d 2 , & & < w d w < & , d k n k w 1 & & & < 2 w d d i w w d j j j j g V *.8.y.r.,.*.D z f 5 d g z z g f g C G =.=.L L K K L -.9.x.yXfXfXuXD.M.m.m.N.m.n.j.d.a.w.q.0.0.3.:.;.;.+.S j 2 < 2 h n A A n b T [ G.W.|.,X,X/.U.R y 0 r w N =.7.7.,.=.=.<.t.z.Z.iXyXyXuXpXuXZ.f.8.8.z.Z.uXsXkXzXNXNXzXlXgXyXD.C.m.c.l.z.f.u.r.8.,.=.D z 5 , , < 2 w d k V V D +.D h q * $ o o & w n A V j w : & $ 9 y Q [ X.[ Q y r r q q 0 Y Q [ [ Q Y y q 1 q y Q [  . .X.Q y 9 * * * 9 y Q [ [ Q Y t 9 * 1 j V N h < & X o X & 1 w e e r r r w d k V D G =.-.>.*.D N j d w 3 , - < q r r r q                                                                                                                                                                                                                                                                                                                                           ",
"                                                                                                                                                                                                                                                                                                                                                                        < 2 w d j k k j d j D >.9.w.7.:.S N k h w < & & 1 d d w < & , i k n j w < & & > 1 w w d d d w w d j j f f j z D ,.r.r.q.>.G C k d i f z z x f 7 g C K =.=.L L K K =.,.f.rXsXhXsXuXD.N.N.Z.N.m.b.h.s.i.q.0.0.3.3.:.;.;.+.A d < , w k V S A n a E [ Y./.|.$X~...E y r q d C -.7.1.<.=.L L <.r.c.S.uXuXuXrXM.d.8.8.f.Z.uXsXgXfXlXzXbXvXzXjXaXyXD.C.m.c.l.z.f.y.9.8.,.=.D g 2 , , 1 2 d k N V S D S j q * % o o & d A ( S n s < & % 9 Q  .T.T.T. .~ u r r r y Q  .Y.Y.U.X.E u r r T X.U.W.W.Y. .Q y * * * 0 Q  .U.T.G.X.E y 9 2 k S A h 1 & X o X & 1 w e w r w w w d k V C G *.-.>.=.*.S N k f i 2 , - < q q q q                                                                                                                                                                                                                                                                                                                                           ",
"                                                                                                                                                                                                                                                                                                                                                                        2 2 2 w h k n k d d z *.7.w.q.>.+.V k j i w - & 1 d h w < & , i k n j w < & & , 2 w w d d d w w d j f d d j k V *.7.r.w.,.*.S N f 5 d g x x f 7 7 z Z =.=.=.L L L L -.9.m.pXhXjXsXyXD.Z.Z.Z.N.n.j.d.w.q.0.0.5.3.3.:.:.;.( n 2 , < d n S S A n u R X.Y.~./.Y.X.Y 0 q q j D -.,.,.-.=.L L <.2.z.Z.uXyXD.m.r.1.2.u.C.yXaXgXaXaXhXlXvXNXvXxXhXpXrXZ.C.A.c.x.z.f.r.9.8.,.*.C f 3 , < 3 w j k N S D S j q * % o o , j S *.+.S h q : = t [ T.^.^.^.Y.X.u r r 0 T ..Y././.~.U.{ T r u Q ..~./.$X/.Y.[ Y 9 * * y X.T.^.^.W.U.[ Y 9 w k S S k w - o o o & 1 w e w w 1 1 1 w j N C D K =.-.-.=.*.D V z j d 2 < & * * < <                                                                                                                                                                                                                                                                                                                                           ",
"                                                                                                                                                                                                                                                                                                                                                                        w 2 2 2 i k n k j d f C -.q.w.7.:.D N k d w < & < w d w < & , w k k j w , & & < w w i h d d w w d j f d d j j N D -.q.9.7.=.D V g d 5 f g x g 7 6 f C L -.-.=.L L L =.1.g.tXfXkXhXaXtXD.Z.Z.N.n.b.f.w.q.q.0.0.7.3.3.3.;.+.V d < , 2 j V S S B b T Q ..U.U. .Q y 9 * 2 k G -.<.-.=.=.=.L =.,.u.m.D.Z.x.r.,.,.r.c.rXpXaXaXaXpXaXhXzXNXNXvXlXfXyXD.Z.Z.C.c.l.g.f.r.r.7.>.G z i , , , 2 d j k S D S j 1 * % X X < k ( :.;.S n w < * Y  .W.|.$X$XW. .W r q 0 E ../.,X,X|.W. .W u u ~ U./.$X$X$X^...E 9 * * Y  .W.|.$X|.W. .E 0 q j A A j w , o o o & 1 w w r q 1 < < 2 f z C D G =.-.>.,.>.=.+.S V k d 2 < & & & &                                                                                                                                                                                                                                                                                                                                           ",
"                                                                                                                                                                                                                                                                                                                                                                        w w 2 1 2 d k k g d i k +.7.w.w.,.+.V k h w 1 , < 2 w w < & , w j k j w , & & < w w i d d d w w d j d d d j j k V G >.8.7.>.*.D V j d 7 f x g f 7 7 z G -.<.=.L L L L -.r.M.pXjXjXfXuXrXZ.N.M.m.b.h.d.i.i.w.w.0.7.3.3.:.;.S n w , < i k S ( S n u T R [ [ Q Y 9 = * 2 z G -.-.L K L L =.-.,.r.z.x.z.9.>.-.2.f.C.yXuXpXpXpXuXuXgXlXvXNXNXzXjXaXiXS.D.Z.C.m.l.g.f.r.9.1.-.D g 2 , , < 2 d k S D S j 1 & & X X < k ( :.;.( n w 1 9 Y  .^.$X>X$X^. .W r q 0 ~ R./.,X1X,X/.U.! a u ~ U./.$X:X$X/.U.Q y * 9 Y  .^.$X>X$X^.G.R y < d n N h w < & o o & < w w r 1 < < , 1 d k V D G *.-.,.7.7.7.,.*.S N j d 2 , & + +                                                                                                                                                                                                                                                                                                                                           ",
"                                                                                                                                                                                                                                                                                                                                                                        w w 2 < < w j k k f w d C >.w.w.7.*.C k j d 2 < , < 2 2 < & , w j k j 2 & & & < w w i d j d d i d j d d d f j k k V *.,.q.0.>.+.Z z f d f g x g f 7 f C K -.<.=.L L L =.1.g.rXsXjXhXaXyXZ.Z.M.m.n.j.f.d.a.a.w.q.0.5.3.3.:.+.A j 2 < 1 d n S ( A b u Y Y Y Y t 9 = & 2 z G =.L H G G K L -.1.r.r.r.1.-.=.2.u.l.Z.rXyXyXuXuXyXyXpXhXxXbXNXNXxXfXpXyXrXS.Z.M.c.z.f.r.t.8.,.=.C j 2 , < 2 d k S ( S j 1 , & O X < j S ;.;.( n d q 9 Y  .^.$X<X$X/.U.~ 0 q u ~ R./.1X<X1X/.E.} W u ! U./.$X:X:X$XY.[ y 9 9 Y U.^.$X<X$X^.T.Q t : w k n h w < & o o & < w r r q < , , < 5 g V D G *.>.,.8.9.9.q.,.*.C N j d 2 , - &                                                                                                                                                                                                                                                                                                                                           ",
"                                                                                                                                                                                                                                                                                                                                                                        w w 2 < , 2 f k n j i 2 k +.7.w.q.>.D V k h i 2 < < < 1 < & , w j k f 2 & o & < w s s d j j h d d j d d d f j k k z C =.8.q.7.:.G C g f 7 f g x f 7 7 g Z =.-.=.=.L L L >.9.x.tXfXhXfXpXrXZ.M.m.m.n.l.j.d.a.r.w.0.0.5.3.3.;.( N d 1 < 2 h A S S n e y t t t 9 = * & 2 z G K G H H G H K -.2.9.7.-.G G ,.u.x.M.Z.D.S.iXiXiXiXyXpXgXlXvXNXNXzXkXgXuXyXrXD.Z.m.l.g.y.r.r.9.,.=.C j 2 < 3 i j S ( S j 3 , & O X , d S +.*.S n e q 9 Y  .^.,X<X<X|.U.~ y 0 u ~ R./.1X<X<X,X(.} W T ! U./.<X8X<X$X(.} Y 9 9 Y U./.<X<X<X$XT.[ t * 2 j k h i 1 & o o o < w r r 1 < < - , 2 j V D +.;.>.5.8.9.r.r.q.,.+.V k j d 2 3 < ,                                                                                                                                                                                                                                                                                                                                         ",
"                                                                                                                                                                                                                                                                                                                                                                        w w 1 , - < d k n k h w i V :.q.q.7.;.S k j d w 2 < < < , & - 2 j j f 2 & O & < w d d d j k j f j j f d d f j j g k V *.7.9.8.,.*.D c f 7 7 f g g 7 6 7 c G =.<.=.L L L =.,.r.M.pXfXhXsXyXZ.C.M.M.m.n.l.f.d.r.w.q.0.0.3.3.;.@.S n i < < w n S S V h r 9 9 = = & * < 2 z H G H Z Z Z G K -.1.1.-.Z V K 9.x.Z.D.Z.Z.Z.S.S.S.iXuXpXgXhXxXvXbXvXxXhXaXyXrXD.Z.M.x.z.f.y.y.r.9.,.=.C f 1 < 2 j V D S j < & & X X - i V ( +.S n e q 9 y  ./.<X8X<X$XE.~ y 0 y ~ U./.1X9X1X,X(.O.! W ~ #./.<X8X<X,X/...Y 9 9 Y ../.1X9X<X,X~.{ t = < d k k d 2 , o o o , w w r < < , & & 3 d V D *.:.>.5.0.9.r.r.r.8.-.D V k j d d i 2 3                                                                                                                                                                                                                                                                                                                                       ",
"                                                                                                                                                                                                                                                                                                                                                                        w 2 3 , & , 2 j k n k d 2 j ( 7.w.q.>.D V k j h i 1 < < & & - 2 f j d 2 & & & < w d d d j k j j j j j f j j k g g k z D >.q.w.8.>.G C g 7 5 d f g f 6 5 g C L -.-.=.L K K =.7.z.rXgXhXfXuXrXZ.Z.Z.Z.M.l.f.d.a.i.w.q.0.3.3.4.;.( S k w < 1 d n S A n e q = $ $ & < < 2 z D G Z V C C Z K <.,.<.G z z =.r.M.rXrXD.S.Z.Z.S.S.iXuXpXaXgXjXxXzXvXzXlXfXuXrXD.Z.C.m.l.g.f.f.f.r.9.,.*.V d < < d N S V d < & O o o & 2 n S ( S n d q 9 y  ./.,X8X<X,X(.! y 0 u ~ R./.1X9X9X1X`.#.! T W ../.<X8X<X,X/.#.E 0 0 Y ../.1X9X1X,X(.{ t = , w j n h w < & X o , w w r 1 < , & o - i n D ;.>.5.7.7.8.9.r.r.9.7.*.S n j j j j d i 2                                                                                                                                                                                                                                                                                                                                     ",
"                                                                                                                                                                                                                                                                                                                                                                        w 2 < , & - 3 i j k k f 2 i V >.q.w.7.;.S N k j h w < , & & , 2 f j d 2 & % & < w d d d j k g j j j j j k k k g g g z C *.7.r.9.,.*.C z d 5 5 f f f 7 5 5 z G =.<.-.L K H L <.r.M.pXhXhXgXuXrXD.D.Z.M.l.f.d.a.a.i.i.0.0.3.3.4.;.( V d 1 < w j n A A n w * X X & < < 2 z Z D C z z c C K ,.<.K C g V =.r.m.rXiXiXrXZ.Z.Z.S.yXyXuXpXaXfXjXxXvXvXzXjXaXyXD.Z.C.C.m.x.z.z.z.f.r.9.,.G k 1 < w k V n w < & O o o + 1 j S ( S N h r q y X./.,X8X8X,X(.} y 0 y W #./.1X9X9X1X`.#.! a W ../.,X<X<X1X/.#.E y 0 y ..(.1X1X1X,X(.{ y = & 2 j n j w 1 & X o , w w r 1 < - & o + 3 j S :.,.7.7.0.8.8.8.9.9.8.,.+.V k k k z g f d i                                                                                                                                                                                                                                                                                                                                   ",
"                                                                                                                                                                                                                                                                                                                                                                        2 2 < - & & , 2 d k k j w 2 j +.7.w.q.5.*.S N k j w < & & & < i f j d 1 & & & < w d d d f j g g j j k j k n z k g g k N D ,.9.r.8.=.D N f 5 2 7 f f 7 6 6 f C =.,.<.=.L H H =.1.g.D.gXjXhXaXyXrXrXZ.M.l.f.d.a.i.i.i.i.i.0.6.3.4.;.S k w < < w j n A V j 1 & o & < < 2 g C Z V g g g V K >.-.D z g C =.9.l.Z.rXuXyXD.Z.D.iXyXyXyXyXuXpXsXjXzXvXvXxXfXpXrXZ.Z.Z.Z.M.m.c.l.g.y.r.8.>.C f 3 2 d j h 2 , & o . . o < j A ( ( A b r q y X.~.$X<X8X1X(.} y 0 u T ..(.,X1X1X1X`.#.! a W } ~.$X<X<X,X/.U.R y r u } (.,X1X1X,X(.} y = & 2 h n n p q * & o , 2 w w 1 < & & o o - i V ;.7.8.q.8.7.7.7.7.9.9.7.>.D V N N N z k j j f                                                                                                                                                                                                                                                                                                                                 ",
"                                                                                                                                                                                                                                                                                                                                                                        2 3 < - o o & < w j k j d 2 i N :.q.w.9.5.*.S k j d 2 - & , 2 d d d w 1 & & & < w d d i d j k N k k k k k k n k j j g k V *.7.9.9.,.G V g i 2 5 7 f f 7 6 6 z L ,.1.-.L K G L -.9.m.uXhXkXfXuXrXD.Z.M.l.g.d.a.i.i.i.i.i.i.0.0.3.:.+.A d < , < w k V A n i , & & , 3 5 g V C z g f g c G =.*.C g z D =.1.y.c.D.uXuXiXS.rXyXyXyXiXiXyXuXuXgXlXvXbXzXkXaXyXD.S.D.D.Z.Z.m.x.z.f.y.r.1.*.V d 3 2 w 2 < & o o . . + , d V ( ( S n e 0 y [ T.$X<X<X,X/...T 0 y u } (.,X1X1X,X`.O.W u u { Y.|.,X<X,X/.U.R y r u { E.,X1X1X,X(.{ y = & 1 j n n d q : & O & < w w 1 , & & o . + 3 g G ,.q.w.9.7.1.,.1.8.9.8.1.=.D V V V N z k k k j                                                                                                                                                                                                                                                                                                                               ",
"                                                                                                                                                                                                                                                                                                                                                                        3 3 , & o X & - 1 i j j j w 2 f D 5.r.d.9.>.D N j d 2 , - < w d d d w < & & & , w i w i d k C D S V k k k k k j j j j k z D :.8.9.0.-.D N d 2 6 7 g x f 6 5 g G ,.2.<.=.K L L =.,.u.Z.sXjXhXaXyXD.D.Z.m.z.f.a.r.i.i.i.i.i.i.0.6.3.;.( k 2 - & < d n V N j 2 , & , 3 5 g z z z f d g V H K D c z C G =.<.8.f.C.yXpXuXyXyXuXyXyXyXrXiXyXyXpXfXxXvXvXxXhXpXrXD.D.rXrXD.Z.m.l.g.f.r.9.,.G k w < < < , & o o o o + , d V ( ( S m e q t Q U.^.$X,X$X(...T r r y [ Y./.,X,X,X(...W u u Q U./.$X$X$X^.H.R u e u Q R./.,X,X|.E.{ t = o < j n n h q < & X o & < < < - & o . . o , d V :.8.r.9.8.,.,.,.7.8.8.8.5.=.D V N z z N N n k                                                                                                                                                                                                                                                                                                                               ",
"                                                                                                                                                                                                                                                                                                                                                                        1 < , & o X o & , 2 d j j d w w z =.9.d.r.5.+.V k d w < , , 2 i d d w < * % & , 2 w w w d N *.:.*.C k k k k k j j j j j k V D ,.9.w.0.=.C g d 5 7 f x x 8 6 f Z -.1.,.-.L L L L =.8.l.tXfXjXfXuXrXD.Z.m.l.g.d.a.a.a.i.i.i.i.0.0.3.:.+.N i , & - 2 j n N k d < , , 3 i f z z g f f g C H G C z z Z G L =.<.8.l.rXpXaXuXuXuXyXyXyXyXyXtXrXiXuXfXxXvXzXlXsXuXtXrXrXrXrXZ.m.l.f.y.r.9.7.:.D j 2 , - & o X o o o o - w N D ( S n r 9 9 E  .Y./.$X/.E.X.y r u u Q G.~.|.|./.R.{ u r y E  .W.|.|.|.W.G.R u u u E ..~./.|.^.U.Q y = o < j n n e q : & X o o - , , & & X . . o - 3 j D ,.9.r.9.7.1.,.7.7.8.8.8.,.*.D V z z N N N k j                                                                                                                                                                                                                                                                                                                             ",
"                                                                                                                                                                                                                                                                                                                                                                        3 < < & o o X o & 1 d j k j i 2 d D 7.y.a.7.*.C k j i 2 , , < w d d w < * % o , 2 w w w f V :.7.>.D k k k k k j j j j j j k C ;.8.a.w.,.G V g d 5 f z v x 7 7 z K <.,.-.=.L L L =.<.r.M.pXhXhXsXtXD.Z.m.x.z.g.f.d.d.s.i.i.i.0.3.3.3.;.S j 2 - & < w j n n j w < , < i f g z g j j z S G Z z g c H H K K L <.r.C.uXsXaXpXuXyXyXyXtXrXrXD.S.iXpXhXxXvXzXjXaXuXyXyXiXrXZ.A.l.f.r.t.9.7.,.=.C f 3 & & o X o o o o & 2 k S ( S n r * 9 y [ G.T.W.E...Q u u e y Y [ Y.W.~.Y...Q y 0 0 y [ G.!.!.!.T.| E u u u T [ H.Y.W.Y. .Y 9 $ & 1 h n l e < & & X o o o & & & O o . . o + , 2 k G 7.9.r.9.8.7.7.7.7.8.9.8.>.G C V N N V V n j                                                                                                                                                                                                                                                                                                                             ",
"                                                                                                                                                                                                                                                                                                                                                                        3 3 < & o o o o & < 2 j k k j w 2 N =.8.r.q.:.S N k f d 2 , , 2 i d w < & % & , 2 i w w j C <.7.<.D N k k k k j j j j j j k V G ,.r.r.7.=.D V g d 7 x v v x 7 f C L -.-.=.L L L =.-.1.f.D.gXhXfXuXD.C.m.m.x.l.j.f.d.d.i.i.i.0.3.3.:.;.( N d < & - < w j k j d 2 , < i f g g g g z V D D C z g c H G G H H =.2.z.rXsXfXgXpXyXrXtXrXrXrXD.S.S.yXaXlXvXvXxXhXaXuXyXyXrXS.A.c.z.u.r.t.9.7.<.*.C d < & o o o . o o & < j V S A n r < = 9 Y [  .....{ E u s s r y R X.G.H. .Q y 0 9 9 9 E [ G.J.T.G.{ T a M u y T {  .G. .[ y 9 & , w h n b w < & o o . o o o o o o X . . . + - , 5 z *.8.r.r.9.8.8.7.8.8.9.9.7.-.G S V V V V N k f                                                                                                                                                                                                                                                                                                                           ",
"                                                                                                                                                                                                                                                                                                                                                                        3 3 < & o o X X & , 2 d n n k d 2 d S ,.w.q.>.( V N k j d 2 < 1 w i w < & % & , w i i i j C <.7.>.D k k k j j j j j j j j k z D >.8.r.8.,.*.D N f 7 x v v x 7 7 z Z L -.-.=.L L =.-.,.9.x.tXfXfXaXtXZ.m.m.m.m.l.l.h.d.i.i.i.0.5.3.:.;.+.S n d < & - < w d h d w < 3 i f g g k z V D G D c f f z Z Z H H G H <.r.M.pXfXfXaXuXrXrXrXrXrXrXS.rXrXuXhXzXbXvXlXfXpXuXyXrXD.Z.c.z.f.u.r.r.t.8.,.*.V d , o o o . . o o , i k n n h r < & 9 y Y ~ Q ~ W u e b b e r y E Q Q R y 9 9 * * 9 y E [ | X.{ ! ^ M M b r y T Q Q ~ Y 0 * < 2 j n n h w < & o o . . o o o o . . . . @ + + - , i V -.r.y.d.r.9.9.8.8.9.9.9.7.>.*.D V V V N k j d                                                                                                                                                                                                                                                                                                                         ",
"                                                                                                                                                                                                                                                                                                                                                                        3 3 < & o X X $ = * 1 d n V N j w 2 g *.7.w.7.:.D S V k j w 1 3 2 w 2 < & % & < w d i d j Z <.7.-.C k k k j j j k k j j k k k C *.7.9.r.8.>.+.C g d 8 x v x 7 5 f c G =.,.<.-.=.=.-.-.1.r.M.pXfXfXpXD.C.M.M.m.m.l.j.d.a.i.i.0.6.3.:.;.;.( S k 2 , & * 1 r w w w < 1 i j k k z z C G G C z d f z C Z Z Z G H =.1.z.rXsXfXfXpXiXS.D.rXiXiXiXiXiXyXaXlXvXNXvXlXgXuXiXrXD.Z.m.l.z.z.f.f.u.r.9.7.*.V 5 , o . . . o o & < i h h i w < , : q u u T u u b b n b e q 0 y y y y 0 q < < < q 0 u T ! ! W ^ m m m b e r 0 y y u y q q w d n n n d w < & o . . . . . o o o o o + + # 4 - - 3 f G 1.y.j.j.f.r.9.8.9.9.9.9.8.,.*.S V N N k j d i                                                                                                                                                                                                                                                                                                                       ",
"                                                                                                                                                                                                                                                                                                                                                                        3 < < & % $ = 9 0 0 r e n V V k d 2 i V >.w.w.7.*.S S V k h w 3 3 1 < , & % & < w d i d j Z <.2.-.C g g k g g j k k j j k k k V D >.8.r.9.7.=.D z f 7 8 x x 7 7 f z Z L ,.1.,.-.-.-.-.>.7.g.rXsXhXsXyXZ.C.m.m.m.x.j.f.a.i.q.0.6.3.:.;.;.*.( V d < & & ; < q w 1 < 3 d j k k z V C G H V f 7 f z C C Z D G G =.<.r.m.uXfXfXaXyXrXS.rXiXyXyXyXiXiXpXfXxXNXNXzXhXpXyXrXD.C.c.c.c.l.z.z.z.g.d.r.7.*.z 2 - o . . o o o , < 2 2 1 1 < < 1 r u u b b b n n n b e q q q r r q q q q q w r e u W W ^ ^ ^ m m n h w w q r r r r w w d j n n j w 1 & o o . . . . + , < 3 3 3 1 2 2 2 2 2 2 7 V <.y.l.m.l.y.9.9.9.9.r.r.r.8.>.+.S N k k j f d 5                                                                                                                                                                                                                                                                                                                     ",
"                                                                                                                                                                                                                                                                                                                                                                        < < , & % = 9 y Y T u e b n V n j 2 2 j +.q.d.w.>.+.S V N j i 1 < , & & & & & < w i i i j Z <.2.=.C g g k k k k k k j j k k k N S *.7.r.r.9.,.G C g 7 6 8 g 8 7 g z C H <.1.1.,.<.-.-.=.<.t.m.uXfXfXpXD.C.m.m.c.l.j.h.a.i.q.0.3.3.:.;.;.;.+.S n i , & & ; < < < , 3 d k z k k z C D D z d 5 g z C C Z H G K *.-.2.f.Z.aXfXgXpXyXiXiXiXyXyXyXiXyXuXaXkXvXNXbXlXgXyXS.Z.m.c.c.c.c.c.l.l.l.j.f.r.1.K z d < + + + & - , , < < < < < < q r e b b l n k k h e r q q q q q q q q w w r e e b M ^ ^ ^ m m n h w r w r q r r e w d h j j h w 1 , & o X o o + + 3 d g z c z z z c c z z z z Z 1.g.M.M.l.f.r.9.9.9.9.r.y.r.7.:.D V z g j j f d                                                                                                                                                                                                                                                                                                                     ",
"                                                                                                                                                                                                                                                                                                                                                                        < < , & = 9 Y Q Q Q W u b n V N k i 3 2 V 5.a.a.7.:.+.S V k d 2 , & & & & & & < w w w w j Z <.1.=.C g k N V z k k j g k k k k k V D >.9.d.r.7.=.D N f 5 6 7 7 g x z c H =.1.1.1.,.<.=.=.=.,.f.Z.aXfXaXtXZ.M.m.x.l.j.h.a.w.0.5.3.:.;.+.;.;.;.+.S k 2 - & * * * & & 3 d g z k g k V D C g 5 7 g c C Z Z G G K K =.<.9.l.rXaXgXaXpXyXyXyXyXyXyXyXyXyXuXfXzXNXNXvXjXpXrXZ.m.c.c.m.m.m.m.m.l.l.l.g.r.8.=.C g d 5 5 5 w i d d i 2 < < < 1 w e e h h j j h i w 1 < < 1 1 1 1 1 1 q q w r e e b M M b b b p r q 1 1 q q q r r w w i d i w < < , - & & + - , 2 f C *.>.,.>.-.-.-.>.>.-.=.-.1.y.m.Z.m.z.y.r.9.9.9.9.r.r.r.9.,.=.D N k g j j f f                                                                                                                                                                                                                                                                                                                   ",
"                                                                                                                                                                                                                                                                                                                                                                        < , & & = t Q X.G. .{ W a b n N k f 2 1 j *.w.d.a.7.*.S V n j w < & & & & & & < w w w w j Z <.1.=.C g V C C V z k k k k k n k k N C =.0.a.d.w.5.*.C k d 3 6 f z z z v C K <.1.7.1.<.=.L L -.8.l.rXaXsXpXrXC.m.l.l.j.h.a.q.7.3.:.;.( ( ;.;.>.:.+.C j 2 & & = & & o < d g k g j g V C V j 5 7 z C Z Z H G G K G K =.,.r.m.yXaXgXaXpXuXyXyXyXyXyXyXyXuXaXkXzXNXbXxXfXuXZ.m.m.m.C.D.D.D.Z.Z.M.M.m.x.z.y.8.-.*.G G D D D G G S k d w 2 w i d d d h j h d i w 2 2 2 2 2 w 2 w w w w w i p h b b b b s e w w w 2 2 w w w w w i i i i w 2 2 2 2 2 2 1 2 2 d g C >.9.f.j.f.y.r.y.d.d.y.f.f.j.m.Z.C.x.f.u.y.y.r.r.r.r.r.r.9.8.,.*.C z k k j j k                                                                                                                                                                                                                                                                                                                   ",
"                                                                                                                                                                                                                                                                                                                                                                        & & & & 9 Y X.T.Y.Y...! W b n n n k d 2 d S 5.d.h.w.>.D S N k d 2 , & & & & & , 2 w w w j D <.1.=.C k C G G D V z k k n n N n k z V D >.w.d.a.8.:.D V f 5 5 f z z z z c H =.,.8.8.,.=.L L L <.r.m.uXgXgXuXZ.m.l.l.j.h.a.q.5.>.;.+.D ( ;.>.3.3.:.+.V d < & & & & + < 5 f g g f f k V z d 2 7 z C Z H H G G G G G K =.1.f.C.pXgXfXgXpXuXyXyXyXyXyXyXyXuXgXlXvXbXvXlXsXtXZ.C.Z.rXpXaXsXaXuXuXtXrXrXD.Z.m.g.f.d.y.r.r.r.r.r.8.=.C k k n V V N N N N N N n n k k k k k k k k n n n n N N N N n n n n k k j j j j k k k n n N k k k j j j j k k k k k N C D =.8.g.N.Z.Z.c.l.l.l.l.x.c.m.M.Z.Z.m.l.g.z.z.g.g.f.f.y.r.r.r.9.8.<.G C z k k k k k                                                                                                                                                                                                                                                                                                                 ",
"                                                                                                                                                                                                                                                                                                                                                                          & & & 9 Y  .W././.E.} W e h k N N j i 2 k ;.w.h.a.7.*.S V n j w < & o & & & , 2 w w w j D <.1.=.V k C *.=.G C z k k n N N n k g z V *.8.d.d.9.>.*.S z d 5 7 g z z z z C H ,.8.9.1.=.L H K =.1.g.rXsXfXsXtXZ.l.z.j.f.a.q.5.>.:.*.( +.:.3.7.7.5.>.( n w < , < < < 3 5 d f f f d j g j 2 3 7 z C H H H H G G G G G G =.8.l.rXsXfXfXaXpXuXyXyXyXyXyXiXyXuXgXlXvXbXzXkXsXpXyXuXsXjXlXlXkXjXhXfXaXaXpXuXyXrXD.D.Z.Z.M.M.C.M.n.w.:.D D +.*.*.*.*.*.*.*.*.*.*.*.*.*.*.*.*.*.*.+.*.;.;.;.;.;.;.*.+.( ( ( ( ( ( D D D +.+.*.*.*.+.G D D D D D D D D +.*.*.=.>.,.9.l.D.tXrXZ.m.l.l.l.m.m.M.M.M.m.l.l.l.c.c.c.c.l.l.j.g.f.f.d.r.9.,.G C z k k k z                                                                                                                                                                                                                                                                                                                 ",
"                                                                                                                                                                                                                                                                                                                                                                          & & & 9 ~ ../.$X$X/.#.W r w j V V N j i d S 5.a.d.w.>.*.D V k d 1 & o X o & , 2 w w w j D <.1.=.V z D =.<.-.G V z k k k N k k g k z D ,.w.d.r.7.=.G V f 5 5 f g z z z c Z =.1.8.1.-.L H H L <.r.M.pXhXfXaXrXm.l.j.d.a.0.5.3.>.:.;.:.>.7.q.w.w.7.:.S d 2 5 d f f d d d d d d d d f i 3 < 5 g C G H H H H H H H H G G <.r.M.uXfXfXgXpXuXyXyXyXyXiXiXiXyXuXfXxXvXbXzXzXlXjXjXkXxXzXzXzXxXlXjXfXfXgXaXaXpXuXuXyXtXtXrXtXyXrXj.7.=.:.5.0.q.q.q.q.0.0.q.q.q.w.q.q.q.q.q.q.q.w.w.w.w.w.w.w.q.0.5.5.5.5.5.5.5.5.5.5.7.7.7.8.7.7.5.5.>.>.>.>.>.>.5.7.7.7.7.8.9.r.g.N.tXtXD.m.l.g.g.l.x.c.x.x.l.l.l.m.m.M.C.C.C.M.m.n.l.l.j.f.y.9.,.G V z k k z z                                                                                                                                                                                                                                                                                                               ",
"                                                                                                                                                                                                                                                                                                                                                                            & * 9 W #./.,X,X`.E._ u w j V S S N j i k +.8.d.d.9.5.*.D V j 2 & o X X o , 2 w w w j D <.1.=.C z D >.7.1.=.D N k k k k k j j j k V *.7.r.r.9.,.*.Z z d 5 5 g z z z z C G <.1.1.<.=.P G K =.1.g.tXfXjXfXuXZ.b.j.d.w.7.5.7.7.5.5.7.0.w.a.d.f.w.>.D z k C D D D V g d 5 2 2 i d d 2 < , 1 f c G G H H Z Z Z H H H H L 2.f.Z.pXgXfXaXpXuXyXyXyXiXiXiXrXiXpXjXzXNXBXBXNXzXzXxXxXxXxXlXkXhXgXaXaXaXpXuXuXyXyXtXrXD.D.rXyXrXl.8.>.,.8.r.d.d.d.d.d.d.f.h.j.j.h.j.j.j.j.j.j.j.j.j.j.j.j.j.h.d.a.r.r.a.a.a.a.a.r.r.r.r.d.d.r.r.r.r.9.9.9.q.q.9.r.a.a.r.r.r.r.r.y.l.Z.tXtXZ.l.g.f.z.l.l.l.l.l.l.x.m.M.C.Z.Z.D.Z.Z.M.M.n.l.g.f.y.9.<.G V z z z z z z                                                                                                                                                                                                                                                                                                           ",
"                                                                                                                                                                                                                                                                                                                                                                            > : q T ..(.,X,X,X(._ u w d N D D S n d d V >.a.j.h.w.3.+.S k 2 - o o o o , 2 w w w k D <.1.-.C V G ,.9.9.<.G V n k k k j j j j j k C =.8.r.r.8.>.+.V k d 5 f z z z z z C *.,.1.,.<.=.L L L <.r.N.pXhXhXaXrXn.h.a.w.8.7.0.q.q.w.a.f.j.l.x.l.d.7.;.K =.,.7.1.>.K C g 5 3 3 2 i i 2 , & , 5 z Z G G H C C Z H H H H H =.8.l.rXaXfXgXaXpXyXyXiXiXrXrXS.S.yXfXzXBXZXZXBXNXzXlXjXfXsXaXuXtXrXrXtXyXtXrXD.D.Z.Z.C.M.C.Z.rXD.l.9.>.>.8.r.d.f.h.h.h.j.j.l.l.b.n.n.n.n.b.n.n.n.n.b.l.l.z.z.j.f.d.d.d.d.h.h.h.f.f.f.f.f.f.f.f.d.d.d.d.a.r.r.r.r.d.f.f.d.r.r.r.9.9.r.l.rXyXrXM.z.j.z.l.l.j.l.l.z.l.x.m.m.M.Z.Z.Z.M.M.m.l.g.f.f.f.r.9.>.G C N N c c z z                                                                                                                                                                                                                                                                                                         ",
"                                                                                                                                                                                                                                                                                                                                                                            , < q u } E.`.,X,X(.&.s 1 i k S +.( S k i j +.w.v.b.d.7.*.S j 2 & o . . o & 1 w w w k D <.7.-.D V *.7.r.r.,.+.S V k k k j j j j j k N D ,.r.y.r.,.*.D V f 5 5 g z z g g c H -.1.2.,.<.L L L -.7.j.rXsXfXsXtXM.j.a.w.q.q.w.i.a.h.b.N.Z.M.M.x.d.8.9.r.y.f.f.y.8.<.G c d 3 3 2 w w 2 , + + 3 d z Z H H Z C Z H H H H H L <.r.m.yXsXfXgXaXuXyXrXrXS.S.S.D.yXfXvXBXZXZXBXvXlXfXuXZ.m.m.x.l.l.l.C.D.rXZ.Z.M.m.m.c.m.m.M.Z.C.l.r.,.=.,.8.r.d.d.h.f.f.g.j.z.l.l.l.l.l.l.l.l.l.l.z.j.f.f.d.d.a.a.a.a.d.d.f.f.f.f.f.y.y.d.y.r.r.r.d.a.r.r.r.9.w.a.d.d.r.9.9.7.1.,.,.d.Z.uXuXZ.n.z.z.l.j.j.j.j.j.j.j.l.l.x.m.m.m.n.l.j.f.r.r.r.r.y.y.9.,.G C V V C V z g                                                                                                                                                                                                                                                                                                       ",
"                                                                                                                                                                                                                                                                                                                                                                            < < q u ! R.(.`.`.(._ e 2 2 f V *.;.*.V d d C 7.j.n.k.3.D n d < o o . . . & < 2 w w k D ,.8.,.G S =.8.y.r.7.=.+.S N k g j j f j j g k V *.8.f.d.9.>.+.C k d 5 d g z z z z C K ,.2.2.,.=.L =.=.,.r.n.tXaXsXuXZ.l.d.a.w.w.a.d.j.m.rXyXtXZ.m.g.y.g.m.Z.C.C.c.g.9.,.=.Z g 5 3 2 2 2 3 - o o 4 3 f c Z H G H H H H H H G H =.,.f.Z.pXfXfXsXpXyXrXrXS.D.D.rXpXkXNXBXZXZXBXzXfXtXm.r.7.1.7.1.7.9.l.Z.tXrXZ.m.x.l.c.c.m.m.m.m.l.f.8.,.<.,.8.9.w.w.w.r.r.r.y.f.f.f.f.f.f.f.f.f.d.r.r.9.9.8.8.8.8.q.q.q.9.r.r.r.r.r.9.8.8.8.8.8.8.9.9.9.9.8.7.7.8.q.q.8.7.,.<.-.=.-.r.Z.uXuXrXM.l.j.j.j.j.j.j.j.f.g.j.z.l.l.l.z.j.f.r.,.>.>.>.,.9.y.f.r.,.G C C C V z g f                                                                                                                                                                                                                                                                                                     ",
"                                                                                                                                                                                                                                                                                                                                                                            < q r u W } R.(.(.$.' r < 2 i V *.>.:.S j 2 k :.s.j.i.*.n d 2 & X . . . . + < 2 w w j D ,.8.7.=.G =.9.y.r.7.<.>.*.C z g j j j j j g k N D ,.r.f.r.1.*.D N j 5 5 f g z z z c H -.1.2.1.<.=.=.=.-.1.d.m.yXaXpXtXB.l.h.d.d.f.l.N.tXuXpXyXM.g.y.z.D.pXaXyXD.m.g.9.1.-.G C g 5 2 2 1 , + o o @ 4 2 g C H K H H H H H H G G K -.8.l.rXsXfXgXpXyXrXS.D.rXrXuXfXzXNXBXBXBXBXzXgXZ.r.=.C C D D D =.r.M.uXuXZ.x.l.l.c.m.m.m.c.l.l.g.y.9.9.9.r.r.r.r.r.r.r.y.d.f.f.f.f.f.f.f.f.d.y.r.r.9.9.8.9.9.9.9.q.q.9.r.r.r.r.r.9.8.8.8.8.9.9.9.r.r.9.8.8.8.8.8.8.7.7.7.,.<.>.7.g.Z.uXuXrXM.l.z.z.z.z.l.l.j.h.h.j.j.j.g.g.g.g.r.,.G S C S G >.9.f.f.r.,.G Z C V z g f d                                                                                                                                                                                                                                                                                                   ",
"                                                                                                                                                                                                                                                                                                                                                                              q e u u ! } #.#.o.W q 1 < 2 N ;.,.>.D j 2 d S 7.w.3.V w 1 : & o . . . . + < 2 2 w j D ,.9.9.<.=.-.9.y.r.7.1.7.<.G V k j j j j j k k k V *.8.d.f.9.>.D C k d 6 7 g z z z z C K <.2.2.,.-.=.=.=.-.7.f.Z.uXaXuXtXB.b.j.j.n.Z.yXaXaXuXZ.l.r.f.Z.sXjXhXaXS.m.f.9.2.,.-.G C g d 2 < - o . . . @ 3 d c H L L K H H H H G G G L <.r.M.uXgXgXaXuXrXS.rXtXuXgXlXvXNXNXNXBXNXvXfXM.7.V f f g g j V ,.m.pXsXrXl.z.l.m.m.m.m.c.l.l.z.z.g.j.l.l.l.l.l.l.z.l.l.l.x.n.m.m.m.m.m.x.l.l.j.g.h.f.f.f.f.f.f.f.f.f.j.j.j.j.g.f.d.d.d.f.f.g.g.g.j.f.d.a.y.y.r.r.r.r.r.r.9.9.f.m.rXuXtXZ.m.l.l.z.z.l.l.l.z.j.j.j.j.g.g.g.g.f.r.>.C k k k z D ,.d.l.l.r.<.H C V z g j f                                                                                                                                                                                                                                                                                                   ",
"                                                                                                                                                                                                                                                                                                                                                                              q e e u u ~ ! ! W u q 1 1 2 k *.>.=.C d 3 i V *.:.D j 1 : & % o . . . . + < 2 2 i j D >.8.9.1.<.,.t.y.r.7.7.9.7.-.D z j j j j j k k k z D >.r.f.r.5.*.D V f 5 5 f z z z z c Z L ,.7.2.<.=.=.=.=.<.9.x.tXaXaXuXrXm.n.m.#XuXsXsXuXZ.l.y.f.M.uXhXlXlXgXrXm.f.t.8.2.,.-.G V j w , & o . . . . + 2 z H =.=.P H H H H G G G K =.1.g.Z.pXgXgXpXuXiXyXuXgXkXzXvXvXzXzXbXNXbXkXD.9.C f f j g f z >.x.aXfXtXl.j.l.c.m.m.m.m.c.l.l.x.m.N.Z.Z.Z.Z.Z.Z.N.Z.Z.Z.Z.D.rXrXrXrXrXZ.Z.M.M.m.n.n.m.n.m.m.n.n.m.m.N.N.M.M.m.n.x.l.l.x.m.m.M.M.m.m.n.l.l.l.z.z.z.z.z.g.g.g.x.Z.tXtXD.M.n.l.l.l.z.z.z.l.l.l.l.j.g.f.f.f.f.f.r.<.D z k j f z K r.x.Z.l.8.G C z k j j j j                                                                                                                                                                                                                                                                                                 ",
"                                                                                                                                                                                                                                                                                                                                                                              q r e e e y T T y 0 1 2 2 2 k S *.D k 2 < w n S +.V w < & & X o . . . . + < 2 2 i k D =.,.8.7.1.8.r.r.9.,.7.r.r.7.=.C k j j j j j k k k V +.7.d.d.q.-.D C z f 5 d z c c z z c G -.,.2.,.-.=.=.=.-.1.f.Z.uXgXaXyXZ.Z.rXpXgXfXpXZ.l.u.f.m.rXaXhXjXjXfXuXA.g.r.8.8.8.1.>.G V d , o . . . o o + 3 g H L <.L H H H H G G H K L <.t.l.rXaXfXgXpXuXpXgXkXxXvXzXxXlXlXzXbXNXzXsXl.,.C k k k z G 9.N.sXsXrXl.z.l.m.m.A.C.C.M.m.n.m.Z.D.tXtXrXrXrX#XZ.rXrXtXtXtXyXyXyXyXyXtXrXZ.Z.N.N.N.N.N.N.N.N.N.N.Z.Z.Z.Z.Z.Z.M.m.m.m.M.N.Z.Z.Z.Z.N.M.m.M.m.c.x.n.x.x.l.l.l.m.Z.D.Z.Z.m.n.l.l.l.z.j.z.l.n.x.l.l.j.f.f.f.f.f.d.8.=.S N g g z K r.m.rXM.r.=.C V z g g k k                                                                                                                                                                                                                                                                                                 ",
"                                                                                                                                                                                                                                                                                                                                                                              < q r e r r 0 9 9 : 1 w 2 2 j V D V f < , 2 k S D N w * & & o . . . . . & < 2 2 d k D *.>.2.8.9.r.r.r.8.>.1.r.y.r.,.G V j j j j j j j g k S >.9.f.a.7.*.H C g d 5 g z c z z z C G <.2.1.<.=.=.=.=.>.9.l.tXsXgXpXtXtXpXfXfXaXD.l.f.g.m.rXuXaXaXgXfXfXpXD.x.u.t.t.9.9.7.>.D j 3 o . @ 4 3 3 4 3 f Z L <.L H H H H H G G K K =.,.y.M.uXfXfXfXgXgXjXxXzXvXxXkXhXhXlXvXNXNXlXuXl.7.=.*.*.>.9.m.uXfXsXrXm.x.m.M.C.Z.D.rXD.Z.Z.Z.D.tXyXyXtXrXrXrXrXrXtXtXtXyXyXyXyXyXyXtXrXZ.Z.Z.Z.Z.Z.Z.Z.Z.Z.Z.Z.Z.Z.N.Z.Z.Z.M.M.M.M.M.Z.Z.Z.Z.Z.Z.N.M.M.m.c.m.m.m.c.x.l.x.m.C.Z.Z.Z.Z.M.m.m.m.x.l.x.m.M.m.m.n.l.j.f.f.f.j.g.y.8.>.*.G G *.1.g.Z.rXM.r.=.Z C V z k k k k                                                                                                                                                                                                                                                                                               ",
"                                                                                                                                                                                                                                                                                                                                                                              < < w w w q < = = : 2 2 2 2 d n V k w , , 2 k S D N w & & o o . . . . o & < 2 2 d k D G =.,.9.r.r.y.r.7.-.,.r.d.d.8.>.S k j j j j j j j k N D 7.d.f.w.,.*.D c f 5 d x v v z z z C L ,.2.,.-.=.=.=.=.,.y.Z.uXgXgXaXsXfXfXaXrXx.f.g.m.D.uXpXuXiXyXpXgXaXyXZ.l.u.r.r.r.9.,.*.V 2 + . + 3 7 7 6 3 7 C L <.L H H H Z H G G K G K =.2.g.Z.aXhXjXjXlXxXzXzXxXlXhXfXgXhXxXNXNXbXlXuXN.j.h.h.l.Z.pXjXkXfXyXD.Z.D.rXrXyXuXpXpXuXyXtXyXuXpXpXuXtXtXtXrXtXyXyXuXuXpXpXuXuXuXuXyXtXtXtXtXtXrXD.rXtXtXtXrXZ.N.N.Z.Z.Z.Z.Z.Z.Z.Z.Z.rXrXrXrXZ.Z.Z.M.m.m.M.M.m.m.M.M.m.M.M.Z.D.tXtXrXZ.Z.Z.Z.M.N.Z.Z.Z.Z.Z.M.n.z.f.f.j.l.z.g.y.r.r.r.r.g.m.Z.Z.m.r.-.G H Z C V N z k                                                                                                                                                                                                                                                                                               ",
"                                                                                                                                                                                                                                                                                                                                                                                < 1 w w 2 < & & & 2 2 2 3 i k N k 2 , , w n S ( V w & & o o . . . . o & < 2 2 d k D G *.,.9.r.y.r.r.1.-.,.9.d.d.r.7.*.V k j k k k k k k k C :.w.f.d.8.>.G C k d 5 f z z z x g z H <.2.7.,.-.=.=.=.-.8.z.rXaXfXhXhXhXsXrXx.f.g.m.D.yXuXyXD.Z.Z.S.uXgXaXtXM.z.u.r.r.9.7.-.Z f 3 + 4 7 x v x 7 8 v L -.P H Z Z H H H K G G H L <.t.l.tXfXlXxXzXvXzXxXlXjXhXfXfXhXlXvXBXBXbXlXsXyXtXtXyXsXkXxXlXfXaXuXuXuXuXpXaXfXfXfXgXaXaXaXsXsXsXaXpXuXuXuXuXpXaXaXaXsXaXaXaXaXsXaXaXaXaXaXaXuXyXyXaXaXuXtXZ.N.Z.Z.D.D.rXtXtXrXD.rXtXtXtXtXrXD.Z.Z.M.m.Z.Z.M.N.Z.Z.Z.M.M.Z.tXuXaXuXtXrXrXrXD.D.rXrXrXrXrXZ.M.x.g.f.j.l.l.x.x.x.m.m.m.M.Z.Z.M.z.r.,.=.K K G C V z g                                                                                                                                                                                                                                                                                               ",
"                                                                                                                                                                                                                                                                                                                                                                                - < 2 w w < & o - 1 2 1 < i k n j 2 , , w n S ( V w & & o o . . . . o & < w w d k C D G >.8.r.r.r.9.,.-.,.9.9.r.r.8.>.D z k k k k j j g j N D 5.a.f.r.,.*.D V f 5 7 g z z x f g C L ,.8.7.,.-.=.=.=.,.r.M.pXhXkXjXgXrXx.u.f.c.Z.rXiXiXS.C.m.m.Z.iXaXfXaXrXc.g.u.r.9.2.<.G z 2 4 4 8 J J J x 8 v P L H C C Z H H K K G H H G =.,.y.M.aXlXzXvXvXzXlXjXhXfXhXhXjXxXbXBXBXNXxXjXsXsXsXsXfXkXlXjXsXuXuXuXpXpXaXsXfXfXfXfXsXaXsXsXsXsXaXpXuXuXuXuXpXpXaXsXsXaXaXaXaXsXsXsXaXaXsXaXpXuXuXaXaXpXtXZ.M.N.Z.Z.D.rXtXtXrXZ.rXrXtXtXtXrXZ.Z.M.m.m.M.Z.M.M.Z.Z.Z.m.m.M.rXuXpXuXtXrXrXD.D.Z.Z.rXrXD.Z.Z.M.l.f.r.f.g.z.l.m.M.Z.Z.Z.Z.C.m.l.g.f.9.,.-.=.K G C z g                                                                                                                                                                                                                                                                                               ",
"                                                                                                                                                                                                                                                                                                                                                                                  , 3 w w 2 , & - 3 2 3 < w k n j 2 - , w n S ( V w & & X . . . . . o & 1 w w d k V V C *.1.9.r.9.1.,.=.,.8.8.8.9.8.,.K V k k k j j j j j k V =.9.f.d.8.:.D C g 5 5 f z z x f f z H <.8.8.1.<.-.=.=.-.9.c.uXfXhXgXyXc.y.u.l.A.S.S.S.Z.A.A.c.m.A.S.pXfXfXuXC.z.u.r.9.8.,.=.C f 3 3 8 J I I J v v P P H v v C H H L L K H H H L <.8.z.tXjXvXvXvXlXjXfXfXfXhXjXlXvXNXBXBXzXkXsXpXuXuXuXpXsXsXuXrXZ.Z.rXrXrXtXyXuXpXuXuXtXtXtXyXyXtXtXrXrXD.D.D.D.rXtXtXtXtXtXrXtXtXtXtXtXtXtXtXrXrXrXtXtXrXM.l.z.l.m.m.m.M.Z.Z.M.m.m.n.m.m.m.m.n.l.z.g.g.z.l.z.l.l.x.l.g.f.j.n.N.Z.Z.m.m.m.m.m.x.x.n.n.n.x.l.j.d.9.7.7.9.r.u.g.l.x.x.l.l.z.g.f.g.l.f.t.1.-.=.G Z z g d                                                                                                                                                                                                                                                                                             ",
"                                                                                                                                                                                                                                                                                                                                                                                  - < 2 w 2 < & - < 3 , , 2 j k h 2 & , 2 k S ( n w & % X . . . . . o & 1 w w d j k z N D >.8.9.7.,.-.=.>.7.7.,.,.8.7.=.V k k j j j j j j j N D 7.d.f.r.5.*.D z d 5 5 g x x g f x C =.2.9.8.,.-.=.=.<.t.m.uXgXaXyXc.u.t.z.m.Z.S.Z.A.C.A.A.A.A.A.Z.uXgXhXaXD.c.f.r.9.8.1.-.H z 5 3 7 J I I I J J J P J v v v H H L L H H H H L =.,.r.M.sXzXvXzXlXhXfXfXfXjXlXzXNXBXNXzXjXuXD.Z.M.M.m.m.M.m.x.j.f.f.j.l.l.x.m.m.m.m.m.x.l.l.l.l.l.l.z.z.z.g.g.j.j.l.l.l.l.l.l.l.l.l.n.n.x.x.x.l.z.l.l.l.z.f.r.9.r.r.r.d.f.f.f.d.r.r.r.r.a.d.r.r.9.9.8.8.9.9.9.9.r.r.9.8.7.8.9.y.d.r.r.r.r.r.r.9.9.9.9.9.9.9.8.,.-.=.=.=.-.,.7.9.9.r.9.9.8.7.9.f.l.l.g.r.1.-.K D V g d                                                                                                                                                                                                                                                                                             ",
"                                                                                                                                                                                                                                                                                                                                                                                  & , 2 w w < - - , < , , 2 j k d 3 & - 2 k S S n 2 & % o . . . . . o & 1 w w w d j j g V *.,.1.,.>.-.=.>.7.,.=.-.1.7.=.C k k j j j j j j j k V :.w.h.f.8.=.D V g 5 5 d g x x x x c K ,.9.9.1.-.=.-.1.u.C.yXuXrXc.r.t.u.c.Z.Z.Z.A.m.m.A.A.A.C.A.A.rXaXhXgXyXM.g.r.9.8.2.,.=.Z f 2 5 x P I I P J P J J v v v H H K K H H H H L =.-.2.g.tXlXvXzXlXjXfXfXhXlXzXNXNXNXzXfXrXl.y.r.9.9.9.8.8.8.7.,.>.,.5.7.8.8.9.9.9.9.8.7.7.7.7.7.1.,.,.,.,.,.,.,.,.,.,.,.,.1.1.1.7.7.7.7.8.8.8.7.7.7.7.7.,.-.=.=.=.=.-.>.>.,.<.>.-.=.=.=.=.=.=.=.*.*.G G *.*.*.=.=.=.=.*.G G *.=.=.*.*.*.*.=.*.*.*.*.*.*.*.*.+.G D C C C Z D G K *.=.*.+.G G =.9.g.x.x.f.8.-.K D V g f d                                                                                                                                                                                                                                                                                           ",
"                                                                                                                                                                                                                                                                                                                                                                                  & - < 2 w 1 , & , , - , 2 f j d < & & 2 j V S n 2 & o o . . . . . o & 1 w w w d d d f k D =.-.=.=.-.=.,.7.,.*.*.>.7.:.C k j j f f j j j j j N ( 7.d.f.r.,.*.C z f 5 7 f x x x x c H -.8.t.8.,.-.,.9.z.A.rXD.x.r.9.u.c.Z.Z.Z.A.c.c.m.A.A.A.A.m.A.S.uXgXgXpXD.l.u.t.8.8.2.,.K c 5 6 8 J I I I I P P J v C C H H H H H G H G L L =.<.t.M.fXxXvXzXxXlXjXlXzXNXNXNXzXfXZ.d.7.=.=.*.*.*.+.+.G D D D D D +.*.*.*.K *.*.G G G G G H D D C Z Z D D D D D Z Z Z Z D D D G G G G *.*.+.G D D D C C C C C C C C S S C C C C C V V C C V V V V V V V C V V V V V V V V V V V V V V V V V N N N V V V V V V V V z z z c V V C V V z c C =.9.z.c.l.r.,.K Z V z g f d                                                                                                                                                                                                                                                                                         ",
"                                                                                                                                                                                                                                                                                                                                                                                    - < 1 2 1 < , , , - , 2 d j i < & & 1 j V S k 2 & o X . . . . . o & 1 w w w w d d d j C G G G =.-.=.,.8.,.*.G >.7.:.C k j j d f j j j j j k S :.w.f.f.9.=.D V g d 7 f x v x z z C =.2.t.9.2.,.2.r.l.A.C.l.r.8.r.c.Z.S.Z.A.c.c.c.c.A.A.A.A.m.m.A.S.uXaXaXyXC.z.r.t.9.8.1.-.Z f 6 6 8 J I I I I P H Z C C C H H H H H H G L L =.=.2.z.yXkXzXvXvXvXzXvXNXNXNXzXfXZ.d.>.K G G G D S C C V V V V V C S D D D Z C C C C C Z C C V V V V V V V V V N z z z z N V V V C V V C C C V V V V z z z z z z z z z z z z N z z z z z k k g k k k z N N N k g g z k k k k z z z z z z z k k k g k z N N V V V N z k k g g g z z z g g z C >.r.g.g.r.,.K G C V z g d 2                                                                                                                                                                                                                                                                                       ",
"                                                                                                                                                                                                                                                                                                                                                                                    & , < 1 1 < , , , - , 2 d j i < & & 1 j V S k 2 & o X . . . . . o & 1 w w w w d d d j n C C D *.>.=.,.8.7.=.+.>.7.:.C j j j d d f j j j j j N +.7.f.l.d.,.G C N f 7 f x v v z z c G <.8.t.8.8.r.z.l.l.f.9.2.t.z.A.S.D.Z.A.m.c.c.c.A.A.A.m.c.m.A.A.S.uXaXpXrXc.f.r.t.9.8.,.K c 7 3 7 v I U U U P H Z C C C H H H H H H P L L L =.,.u.D.fXxXbXNXNXvXbXNXNXzXfXrXd.>.G D G *.*.G S V V N N N V V V V S S C C C C C C C C C C C V V V V V V V V V z z z z z N V V V N N N N N N z z z k k k z z k z z k g k k k k z k k k k k k k k k z N N z k g g k k k k k z z z z z z z k k k g k k N N V V V z g g j g g g g g g g g g z D <.9.r.9.>.G G D C C z j i 2                                                                                                                                                                                                                                                                                     ",
"                                                                                                                                                                                                                                                                                                                                                                                      - < < 3 < , , - & , 2 d j w < & & 1 j V A k 2 & o X . . . . . o & 1 w w w w d d d d j k k C *.>.>.,.9.8.>.*.>.7.:.C j j f d d f f d h j j n S ,.d.l.f.7.*.D V g d 7 x v v v z c Z L ,.8.t.u.z.z.z.r.2.<.2.u.m.Z.S.S.Z.A.A.A.A.m.A.A.A.c.m.m.c.c.C.rXpXaXuXZ.l.f.r.t.9.1.-.Z g 6 6 8 J U U U L H Z C C C C H H H H H H P L L <.2.u.Z.aXlXvXNXbXvXzXzXxXsXD.f.,.+.D +.=.:.*.D V N n k k k k n N N V V V V V V V V V V V V c c V N N V V V N N z k k k k z N N k k k j j g g g g g g g g g g j g g g j j j j j g g g g g g j j j g g k k g g f f j j j j k k k g g g g g g j j j j j k k k z k g j f f f f f f f g k z k g z G ,.8.7.=.G D G G G C N j d d                                                                                                                                                                                                                                                                                   ",
"                                                                                                                                                                                                                                                                                                                                                                                      - < < 3 < , , & & , 2 h j i < & & 3 h N V j 1 & & o . . . . . o & < 2 w w w d d d d h j j V *.>.>.7.r.r.7.>.,.7.=.C k j j f d d d d f j j k V ;.9.h.f.8.>.*.D k d 7 f v v c c z c Z =.8.u.z.x.z.r.,.=.<.t.z.A.Z.Z.Z.Z.Z.A.A.A.A.c.c.c.c.A.m.c.c.m.Z.uXaXpXiXA.z.y.r.t.8.,.K c 7 3 7 v I U I P H Z C C C C Z H H H H H P L =.,.9.z.Z.aXjXxXzXxXjXfXsXuXZ.f.7.*.D +.;.>.:.D V k j d d d d d d j j j j j j g g k k k k g g g g g j j k k k j j j f f f f f f f d d d d d d d d d d d d d d d d d d d d i i i d d d d d f d d d d d d d d d d 5 5 i i d d d d d d i i d d d d i i i d d f f f f d i i 2 2 2 2 5 5 d j k k g g V =.7.7.=.D C D G *.*.D N g g g                                                                                                                                                                                                                                                                                 ",
"                                                                                                                                                                                                                                                                                                                                                                                        < < < < , & & & < 2 j j i < & & 1 h n N j < & & o . . . . . o & < 2 2 2 w d d d d d d j V *.>.>.7.r.r.9.7.8.7.=.C k j j j f f d f f f j k N D 5.r.f.d.q.>.G N d 5 d z c c c z z C K 8.f.x.l.u.1.=.-.8.f.c.A.A.A.Z.Z.S.Z.Z.A.A.A.A.m.A.c.c.c.c.c.A.S.pXpXuXD.c.f.r.t.9.1.-.H z 5 6 8 J P P H Z Z C C C Z Z H H Z H H H L <.2.u.c.iXsXhXhXfXpXtXrXrXZ.j.8.=.D D *.:.:.+.V j i 2 2 3 < < 3 2 2 2 2 2 2 w i i i i i i i 5 2 5 2 i i w w w w 2 2 2 2 2 2 2 2 2 1 3 3 < < 3 1 1 1 3 1 2 2 2 3 1 1 3 3 3 < < < 3 3 3 3 1 1 1 1 3 3 1 1 1 1 3 3 3 < < < < 3 3 3 3 3 3 3 3 3 3 3 3 < < < < 1 1 2 2 1 3 < , , , < < 3 2 d j k k j z =.8.9.>.D V C G =.=.+.C V z z z                                                                                                                                                                                                                                                                               ",
"                                                                                                                                                                                                                                                                                                                                                                                        , < 3 < , & & & , 2 d j i < & & < d n n j < & o o . . . . . . + < 1 2 2 2 i d d d h d j C ;.>.>.7.r.r.r.9.9.8.:.C k j j j j f f f f f j j k C :.w.l.n.j.8.*.N d 2 2 f z c c z z z G 7.f.l.z.8.=.*.1.u.x.m.A.A.A.A.Z.S.Z.Z.A.A.A.A.A.c.c.c.c.c.c.c.A.rXuXpXyXC.z.y.r.9.8.,.=.Z g 5 6 x v H H C C C C Z Z D D D Z Z H H L <.8.z.Z.pXgXaXyXZ.x.l.m.Z.N.z.7.*.D ( *.*.+.V d 2 < < , - & & & - - , , , , , , < < , , , , , , , , , , , , , , , , , - & & - - - & & & & & & - - - - - - - - 4 & - + 4 + + & & & & & - 4 - - - + + + + 4 + + + + + + + + & & & & + + + + + + + + + + + + & & , , - - - & & & - - - , 1 d j k g N =.9.9.,.D c c D *.=.*.D C c z z z                                                                                                                                                                                                                                                                             ",
"                                                                                                                                                                                                                                                                                                                                                                                        , < 1 1 < & & & , 2 d f w < & & < h n N j < & & X . . . . . . + < 1 2 2 2 i d d h h h j C =.,.<.1.9.r.r.r.r.8.:.C k j j j j f f f f f j j j V ;.r.m.Z.n.w.+.j 2 3 3 5 g z z z z z G 2.u.f.r.-.D =.r.c.C.A.A.A.A.A.Z.Z.Z.Z.A.A.A.A.A.c.c.c.A.A.c.c.c.Z.iXuXuXD.c.f.r.r.r.9.7.-.D g 5 7 x v C C C C C Z Z D D D D Z H H L <.t.l.rXaXaXrXc.y.9.r.l.Z.tXm.9.*.S D +.D V d 3 , , < , & o o + & & & & & & & - - - & & & & & & & & & & & & & & & & & & o o o o o o o o o o o o + + + + + + + + o + + + o o o o o o o o + o o o o o o o o o + + + + + + + o o O o o o o o o o o o o o o o o o & & & - - & + & - , - & , 1 d f j V *.7.8.,.G z z V D G G D V z z z z V                                                                                                                                                                                                                                                                           ",
"                                                                                                                                                                                                                                                                                                                                                                                          < 2 2 < , & - , 2 d d w < + o < j n N j < & & X o . . . . . + , 3 2 2 2 w d d h j j k S =.,.>.,.8.9.9.r.r.8.=.C k j j j j j j f f f f f j N *.9.l.m.j.7.C i , + + 3 d z z z z z D ,.t.t.2.G C <.g.C.S.S.Z.A.A.Z.Z.Z.Z.A.A.A.A.C.A.m.c.A.A.A.c.c.c.A.S.uXpXyXC.l.f.f.f.f.y.t.<.Z f 6 7 g c C C C Z Z D G G G D H H H P -.t.c.rXuXtXc.r.,.<.8.j.rXuXZ.r.*.D D S N d 1 , < 2 w 2 , & & & , < < < , , < < < < , , , , , , , < < < < < < < < , , , , , - - - & & & - - , , , , , , < < < , , , , , , , , , , , , , , , , - - - , , , , , , - & - - & & & & & & & , , , , , , , , > & & & & , , , , , & - , 3 3 , - , 1 i j N G ,.7.,.G V g g c C Z C z f f g z V V V                                                                                                                                                                                                                                                                       ",
"                                                                                                                                                                                                                                                                                                                                                                                          < 2 w 2 < & & , 1 w d w , & & 2 h V V j 1 & & X o . . . . . + , 3 2 2 2 w i d j j j k C =.>.>.,.8.1.7.9.9.7.*.V k j j j k z k j f d d d j k D ,.d.f.9.*.g 3 & + @ 4 5 g z x z z Z =.2.2.=.C C ,.g.Z.iXiXS.Z.Z.Z.Z.Z.Z.A.Z.Z.Z.C.A.m.A.A.C.C.A.c.c.A.Z.iXpXpXiXZ.m.c.c.l.l.f.9.=.z 6 5 f z C C Z Z Z D G G G G G H H H =.9.c.D.D.m.r.,.=.=.,.f.rXpXrXd.=.D S V j 2 < 1 w d d w < & & , 3 2 d d w w w i i i w 2 2 2 w w i d d d d d d d d d i w 2 2 2 2 1 3 3 1 2 2 w w w i i i i i i w w w w i i i w w w w 2 2 2 2 2 2 2 2 2 2 2 2 2 2 2 2 2 1 2 2 2 2 2 2 2 w w w w w w w w w 2 2 1 1 2 2 2 3 , - , < 2 2 2 < & , 2 d z D =.,.,.*.V g f g N V z j i d j k V C V V                                                                                                                                                                                                                                                                     ",
"                                                                                                                                                                                                                                                                                                                                                                                          3 2 w 2 < - & - < w w 2 , & & 2 j V V j 1 & & X o . . . . . + , 3 2 2 2 w d h j j j k C *.>.>.,.7.,.,.8.8.>.D n j j j k N C V N j d d d f k C =.7.8.>.V d < & + @ 4 5 f g g z z C L <.<.G z V >.f.m.rXuXyXS.S.S.Z.Z.A.Z.Z.Z.Z.C.A.A.C.C.C.A.A.A.A.A.Z.rXpXaXaXuXS.Z.C.M.c.z.r.-.c 5 2 f z C Z Z Z Z D G G G G G G H H =.9.c.D.C.f.2.=.*.*.>.d.rXpXrXd.:.( S n w < 1 d k k j w < & & , 2 d j k k k k k k k j j j j j k k n n n n n n n N n k j j j j d d d d d d h j j n k k k k n k j j j k k k k k k j j j j j j j j d d j j j j j j j j j f f f f f f f j h h h j j j h h h d d i w d d i 2 , & - < 2 i i 2 , + , 2 g C *.,.7.=.V j f j k z j d 2 2 d k V C C C                                                                                                                                                                                                                                                                     ",
"                                                                                                                                                                                                                                                                                                                                                                                            2 2 2 < - & & < w w 2 , o & 2 j N N j 1 & & X o . . . . . + , 3 1 2 w w i h j k j j V +.=.=.,.7.,.,.7.7.;.C k j j j z S +.+.S k j d d d k C *.,.5.*.N w < - + @ 4 5 f g g z z C G -.=.H z z *.9.z.Z.yXpXuXS.S.Z.Z.Z.Z.Z.Z.A.A.A.A.A.A.A.A.A.Z.Z.Z.Z.rXpXfXhXgXuXrXD.C.c.z.t.-.V 5 2 d g C Z Z H Z D H G G G G H H H =.8.c.Z.m.y.,.=.*.*.-.y.rXaXrXf.>.+.S k 2 < w k V V j 2 , & & , 2 d k V A A V V V V N n n N V V S S S S S S S S S S V N n n k k k j j j j k n N V A V N N N N N N N V V V V V V n n n n n N N k k k n n N n n n n n k n k k k k k k k n k k k k n n n k k h h h j j d 1 , & & , 2 d d i < + & 3 d V *.7.8.>.V j d f j k j d 2 2 d j N V S C V                                                                                                                                                                                                                                                                   ",
"                                                                                                                                                                                                                                                                                                                                                                                            2 2 2 < , + & , 1 2 < & o & 1 j N N j 2 & & X o . . . . . + , < 3 2 w w d h j k j j N S G *.<.7.,.,.7.,.*.C z g j g V G >.>.*.C k d d d k C =.,.7.*.N i 3 , + o 4 2 f g g z z V G =.=.Z g z D >.r.l.S.pXpXyXS.S.Z.Z.Z.Z.A.C.A.A.C.A.A.C.A.A.Z.D.S.rXuXgXjXjXgXuXD.C.c.z.y.8.=.V 7 3 2 f z C Z Z Z Z G G H H K H H H =.8.c.Z.m.r.,.=.*.*.=.y.rXaXtXf.>.+.S k 2 1 h A ( S k 2 , , , , < i k S S S S A A V N N V V S S S S S S S S S S S S A V n n N N n k n n n n n V S S A N N V V N N V V A A S S A V N n n N V V n n n n N V N n n n n n n n n k k k k n n n k k k n n n k k j h d j d w < & + & - < w d d 2 , + , d V =.8.9.>.C f d d j k g f 5 2 d j k V V V V N                                                                                                                                                                                                                                                                 ",
"                                                                                                                                                                                                                                                                                                                                                                                              2 2 3 , & o & < < < & o & 1 j n V k 2 & & X o . . . . . + , < 3 2 w w d h j k j j k N V D >.7.,.,.7.,.*.D C N g z D =.7.8.,.*.V j d f k S =.7.7.=.V d 3 , + o 4 5 j g g g g c Z K G C g g V G <.y.M.yXpXpXiXS.S.Z.Z.A.A.C.C.C.C.A.C.A.A.Z.D.rXyXpXgXhXjXfXpXD.m.l.f.r.8.,.K c 7 3 3 d z C C Z C Z H G G K L L H K =.8.l.C.c.r.,.=.=.*.>.y.rXsXtXj.5.*.S k 2 2 j S *.( n 2 , , < , , 2 j S S S A N n n n n n N V V V S S S S A A A A V N n n n n k k j j h h j k n N A n n n n n n n n n n n N N n n n k n n n n k h h j n n n n n k j l n n j j j j j h h h h j h h h h j j d i d d i w , & - , , , 2 i d i < + - 2 V :.9.r.,.C j d d j k k j d 5 i f k k N V V n j                                                                                                                                                                                                                                                               ",
"                                                                                                                                                                                                                                                                                                                                                                                              3 3 2 < & o o - , , & o & < j N A k w & & X . . . . . . o , < 3 2 w i d d j j j j j j k V =.,.,.<.7.,.=.*.K Z z V G ,.9.r.9.,.D k f f k D =.7.8.:.V d 3 , + o & 2 j g g f g z C H D V g g V C K 7.l.D.pXpXuXiXS.Z.Z.A.A.A.A.C.C.C.A.A.A.Z.S.uXaXfXjXjXhXpXD.l.f.r.t.8.1.,.L C 7 3 4 2 g c C C C Z H G K K L L K K =.8.z.M.l.t.,.=.=.=.>.y.rXaXtXj.7.:.D n w 2 k D ;.*.V 2 , < 3 , , 1 j A S S n h h h h h h j k k n n n n n n n n n n n l h h h h h h d d d d d h n n n k j h h h h j j h h h h h h d d d d h h d d d d j h h h h h h h h h h d d d d d d s e e w e e e w w w w w w w 1 , , < < , , 3 i j d 1 & & 2 N :.q.r.,.S j d d j g k g f i i d j j k N N k j                                                                                                                                                                                                                                                               ",
"                                                                                                                                                                                                                                                                                                                                                                                                < 2 < , o o & & & & o & < j V S n w & & X . . . . . . o , < 1 2 w i d d j j j j j j j N *.<.>.>.7.,.=.-.-.K C C =.7.r.d.r.8.=.C j j z D >.7.0.=.V d 3 , + o & 2 j g g f f g V Z C z f g c V Z -.r.m.yXpXuXiXS.Z.Z.A.A.A.A.A.C.A.m.A.C.D.yXaXhXlXlXhXaXZ.l.y.t.9.7.,.,.,.=.C d 4 # 3 f z C C C C Z G K =.=.K K K =.2.g.c.z.9.>.=.=.=.<.y.D.aXtXj.7.:.( n w 2 k D :.;.S d 3 < < , , 2 j V S A j d e e e e e d d j j h h h h h j h d d h h d e w w w w w w e d d d j h j h h d d d d d d d p p e w w w w w w w w w w w w w d d s e e e e e e r r r r w w w r r r r r r r r r r r r w w q < < 1 1 < < 2 d j h 2 & o 1 k *.8.9.,.D j f d f j k k f 5 2 i d j j k n k d                                                                                                                                                                                                                                                               ",
"                                                                                                                                                                                                                                                                                                                                                                                                < 2 1 , & o o & & o o & 3 j V S n 2 & O o . . . . . . o , < 2 w w i i d d j j j j j j N G =.=.>.1.,.-.-.,.-.G G -.7.r.r.r.9.,.G z j z D =.7.7.;.V i < - o o & w j g f f f g c C C z f z c V C G 1.g.Z.yXuXyXD.Z.A.A.A.A.Z.Z.A.A.A.A.Z.iXsXjXlXlXjXaXZ.z.r.t.9.9.2.,.,.,.-.C d 4 + 3 5 g c C C C Z H K =.=.K G G =.,.f.l.g.9.>.=.=.=.,.y.Z.pXrXz.8.-.+.N w 2 j S :.;.S j 2 < < < 2 f N S S n j i w e e e e e w d d h h h d d d d s e e s e w w w w w e e e d d d d j j j j d e e d d d p w w w w w w w w w w w w w w w w e e e e e e r e r r r r r w w r r r q w w q q q q q r r w w w 1 1 w 2 2 w d j k h 2 & o < k +.7.8.,.D z j d j j k k f 5 2 i d d j j k j d                                                                                                                                                                                                                                                               ",
"                                                                                                                                                                                                                                                                                                                                                                                                  2 2 < - & o o o o + , 2 j V S k 2 & X o . . . . . o & < 2 w w w w i d d j j j j j j k D *.*.=.,.,.=.-.,.,.=.=.>.7.9.9.r.r.8.=.V k N D =.,.,.*.N i < - o o & w k g f f f g z C V g f z c c c C =.t.c.D.yXrXD.Z.A.A.A.Z.Z.Z.A.C.C.Z.iXaXjXlXlXhXaXZ.g.r.9.9.9.8.,.>.>.>.=.V 5 + @ 4 3 f z C C C Z H H L =.K G G =.,.r.z.g.9.,.=.=.=.,.r.Z.pXrXl.9.>.+.N 2 3 f S ;.;.( n d w 2 i j N S S A n d d d d d d e e e d d d d d d d s e e e e e w w w r w e e e e d d d d h j j d p e e e d i i i i w w w w w w w w w w w w w w w w e e e e r r r r r w w w w w r r q w w q q q q q r r r w w w w w w d j k k k d 3 o o , j D ,.0.,.*.V j d d j k k f 5 2 w d d d j j f i                                                                                                                                                                                                                                                               ",
"                                                                                                                                                                                                                                                                                                                                                                                                  2 2 3 , & o X o o & < w j N A k 2 & X o . . . . . o & < w r w w w w d d h j j j j j k V C D *.,.<.=.=.<.,.<.>.,.8.7.7.8.r.9.>.C k N S *.>.>.G k w < & o o & w k k f f f g z C V g f z c c z c H ,.f.m.D.rXD.Z.A.A.A.Z.Z.Z.Z.Z.S.iXaXjXxXxXjXpXZ.g.r.8.8.8.8.,.=.G G G D g 1 + . + 3 7 z C C Z Z H H K L K G G =.<.t.f.f.r.,.=.=.=.<.r.Z.uXtXm.r.,.+.N 2 < d V *.;.+.V j f j k V S S S V k d d h d d d e e e d d d d d d d d e e e w w w w w w w e e e d d d d d d d d d e e e e w w w i i i w w w w w w w w w w w w w w w w w w e w w r r r w w w w w w w w w w w w w w q q w r w w d d h j k n N N k d < o o , f D >.0.7.=.C g d d j k g f 5 1 2 i d d j j j d w                                                                                                                                                                                                                                                             ",
"                                                                                                                                                                                                                                                                                                                                                                                                  2 2 2 < , & X o o & < i k V S n w & o o . . . o o X & 1 w w w w w i d d h j j j j j j k N V K ,.>.G G =.<.,.,.7.8.1.,.,.9.9.>.D z z C +.:.:.D k w < & o o & w j j f f f g z C V g f z c c z z C L 9.z.C.rXrXD.Z.A.A.Z.Z.Z.Z.rXuXgXjXxXxXjXpXM.f.9.7.1.5.,.>.*.C N V D C g 2 + @ @ 4 5 g c C C Z H H K L K G G L -.8.r.f.r.1.=.=.=.>.r.M.uXyXC.f.7.*.V 2 , w N +.;.+.S k k n V S ( S A n j j j k k k j h h h h j j h h j j h h h h d d d d d h j h h h h k j j h d d w w w w w w w w w d d i w w w w w w w w w w w w d j j h j j h d d d e w i i i w w w w w w w w d d i w w w w w w d j j n n V N n j i < o . - d D >.8.8.,.D g d d j j g f 5 3 2 w d d d j j d d                                                                                                                                                                                                                                                             ",
"                                                                                                                                                                                                                                                                                                                                                                                                  2 2 2 1 , & o o o & 1 d n S ( V i < & o . . . o X o , 2 w w w w w w d d h h j j j j j j j N G >.-.G C G =.,.,.7.8.,.-.>.8.9.>.D z z C +.:.:.D k w < - o o & w j j d f f g z C V g f g z c z z c D -.r.x.D.tXS.Z.A.A.Z.Z.Z.rXpXfXlXxXxXkXaXZ.f.8.1.,.,.>.*.D N j j D >.,.G g 1 + o 4 5 g c C C Z H H L L L K K K =.,.r.g.f.8.-.=.=.-.9.m.yXuXZ.g.7.=.C i < 2 k D *.*.S n k N V S S S N k j k N S S S S S S S S S S S S S S S S S A A V A A A S S S S S S S S V k d w w w w w w w w w d d d d i w w w w w w w w w w j N S S V V V V V n n n n k k k k k k k k k k k k k k k k k j h d d h h n n n n k j d 1 & o + i C -.8.9.7.G g d d f j j f w < < 2 i d d j j j d                                                                                                                                                                                                                                                             ",
"                                                                                                                                                                                                                                                                                                                                                                                                  2 2 2 2 < - o o & , 1 d V ( +.A d < & o o . o X & & < 2 w i w w w w d d d d h j j j j j j k D -.=.D N C G =.<.1.7.,.=.=.7.q.>.D N z C +.:.:.G k i < - o o & w j f d f f g c C V g f g z c z z z C G 1.g.Z.rXrXZ.A.A.A.Z.S.pXhXxXzXzXlXsXZ.f.8.,.1.,.>.G V k i w n >.f.l.9.G j 3 + 4 2 f z C C Z H H L L K K G K L ,.r.z.z.r.-.=.*.=.8.l.tXuXrXl.8.:.S f 3 2 k D *.*.S k k n V V V n k k j n ( :.>.>.>.-.:.:.:.:.>.>.>.>.>.>.>.>.:.:.:.:.:.>.>.>.>.>.>.>.>.-.+.V f w w w w w w w w i d d d d d w w w w w w w w w d n *.>.>.:.;.;.*.*.+.( ( D D D D D D D D D D D D D D D D D S S N k d d d j h j j h h h w & X + 2 N *.8.r.9.*.k d i d j j f i < < 2 w d d f j j d w                                                                                                                                                                                                                                                           ",
"                                                                                                                                                                                                                                                                                                                                                                                                    2 2 2 3 , & & & , 3 d N D ( V i < & o o . o O & & < w w i w w w w d d d d h h h j j j j k S *.*.C z z C G =.,.1.,.=.=.7.9.,.D N z C +.-.-.+.k i < & o o & 2 d d d f f g c C V g f g z c z z z c Z =.r.m.rXtXrXZ.A.A.D.uXhXxXvXvXxXfXrXj.9.1.1.8.7.=.V j w q w S r.D.yXm.7.C d 3 + 3 d z c C Z H H L L K G G G L ,.u.c.x.r.>.=.=.=.7.g.D.uXtXx.8.-.D k 2 2 j D ;.*.S k j k n n n k k h j V ;.7.q.q.q.q.0.7.7.7.q.q.q.q.q.q.0.0.0.7.7.0.0.q.q.q.q.q.q.q.q.7.:.S j w w d d j j j j j h d d d d h h h h d d w w w f S >.w.w.q.7.7.5.3.>.>.:.:.:.:.:.:.:.:.:.:.:.;.;.:.:.:.:.;.*.+.S n d w w i d d d d h h r & X + 1 g K 8.d.r.=.k i i d f j j i < , 3 w i d d j j f d                                                                                                                                                                                                                                                           ",
"                                                                                                                                                                                                                                                                                                                                                                                                    1 2 2 < , & - , , < w k A S n w , & o o o X % % & < w w d w w 2 w d i i d d d j j j j j k V D D V g g z V D =.,.,.-.>.8.9.,.D N z C *.-.-.+.k w < & o o & 2 d d d f j g V V c g f g z z z z z z c H ,.g.Z.yXyXrXZ.S.yXfXxXvXbXzXhXtXl.r.8.7.7.9.8.=.z w 1 q h *.j.uXsXrXd.*.g 3 4 3 5 g z C Z H H L L G H H H L ,.f.m.m.y.,.=.=.=.,.y.Z.uXuXm.8.-.+.N i 2 j D :.;.D k j j k k j j j j j V *.7.q.w.w.q.q.q.q.q.q.w.w.w.w.w.i.w.q.q.q.q.w.w.w.r.a.i.i.i.w.0.:.S j w d j V S S S S V k j d d j n V V V n k j d w d S 3.w.d.a.q.0.7.5.3.3.>.>.>.-.>.>.>.-.-.-.:.:.:.:.-.-.-.:.;.*.S k d w w w w w e d b h r & X + < f G 7.d.r.>.z i 5 d f j j d 1 , < 2 2 i d j j j f                                                                                                                                                                                                                                                           ",
"                                                                                                                                                                                                                                                                                                                                                                                                      1 1 < , - , , , < 2 j N V j 2 - & o o o X % & & < w w d w w 2 w i i w w d d h h j j j j n V V k j j j k C K ,.1.1.1.9.w.,.D N N C *.>.>.( k w < & o o o 2 d d d f j k V V V g d g z z z z z z z C L t.c.yXpXuXyXuXfXxXbXNXzXjXtXx.d.9.8.8.9.r.9.>.V i 1 w V >.n.uXsXtXz.,.V 5 4 4 1 f z V C H H H K H H H H L ,.f.m.m.u.,.-.-.-.,.r.m.uXuXM.9.:.+.V d 2 k +.>.>.( n j j k k h j h h j k S *.:.3.3.3.5.5.,.,.,.,.5.5.5.5.5.5.5.3.3.5.5.7.7.8.q.w.w.q.5.:.D k d i j C *.>.5.>.:.*.D k d d N D *.*.*.+.D V k d i k *.7.9.9.7.5.3.>.;.;.;.*.*.*.*.*.*.*.*.*.+.+.+.+.*.*.*.+.( S n d 2 2 w w w w e h h h w & X o , f D 7.f.y.,.V d i d f g k f 2 , , 3 2 2 d j j j j f                                                                                                                                                                                                                                                         ",
"                                                                                                                                                                                                                                                                                                                                                                                                      3 3 < , - - , , , 2 d n n j 1 & & o o o X & & & < 2 w i w w 2 w i w w w i d d h h j j j k k k j j j j k V G ,.8.9.8.r.w.5.D N N S *.>.>.( k 2 < & o o o 3 i d f j j k V C V j d f g z z z z z z c H ,.g.D.pXaXgXhXxXbXNXzXjXyXm.f.r.9.9.8.9.r.r.7.+.k d z *.9.n.tXuXtXm.8.Z d 3 + < d g c C Z G H H H H H H L ,.u.m.m.u.,.>.-.-.<.8.l.uXuXM.9.:.+.V f 2 k +.3.3.*.N h j k k h h h h h j j n S ( *.;.:.:.:.;.;.*.*.;.;.;.;.;.;.;.;.:.-.-.>.5.0.q.0.3.*.S k d i d V =.8.a.a.r.q.7.=.S j j S :.5.7.5.>.>.*.S k i d V *.>.7.5.>.;.+.( D D D +.+.+.+.+.+.( D D D D D D D D S V n d 2 2 w w w w w e d h h w & O o - d D 7.f.f.7.D j d d f k k j 2 , , , 3 2 i d j k j f                                                                                                                                                                                                                                                         ",
"                                                                                                                                                                                                                                                                                                                                                                                                        3 < , - & - - , 1 d n n d 1 & & o o o O & & & < 2 w w w 2 2 w i w w w w i d d h j j j j j j j j j j k V *.1.9.r.r.r.r.>.D N N S *.>.:.D k 2 , & X o o < i j j j j k V V z g d f g z z z z z z z C K t.m.uXfXkXxXvXNXvXlXuXm.f.r.9.9.9.8.9.r.d.9.,.G D =.8.f.n.N.rXtXM.r.K f 3 + 3 5 g z C Z H G H H H H H L <.r.x.c.y.,.<.-.-.<.8.z.tXuXM.9.:.G V f w k *.5.5.;.A k k n n n k j h h d d d j n ( ;.3.>.-.:.:.;.;.*.*.*.*.;.:.:.:.:.:.-.>.5.0.q.7.:.S j w 2 i k +.7.a.f.f.d.w.8.>.G V k D 5.q.q.0.7.5.>.*.V j w d V +.>.5.>.;.( S S D +.*.;.;.;.*.*.*.+.+.+.G G +.+.+.S N d 3 < 1 w w e w w r e h d w , & o + 5 C ,.y.f.8.*.z d d j k k j i < - , 3 2 2 i d j j j d                                                                                                                                                                                                                                                       ",
"                                                                                                                                                                                                                                                                                                                                                                                                        3 < < , - & & , 1 d n n d 1 & & % X o o & & & , 2 w w 2 2 2 w d i w w w w i d d j j j j j j j j j j k C -.8.t.r.y.d.w.>.S z N S *.>.:.D j 2 , & o o o < i j j j j g z V z f d f g z z z z z z z c Z ,.f.D.gXxXvXbXvXxXsXZ.j.y.9.9.9.8.8.9.r.r.r.9.,.1.r.f.l.l.l.M.D.Z.g.>.z 3 + , 5 f z C Z H H H H H H H G <.r.l.l.r.,.<.>.-.,.7.f.Z.rXm.r.>.G V f 2 k +.3.5.;.S n n N V n n j h h d d w i n ( 3.0.7.7.5.>.>.>.>.:.:.:.>.>.>.>.>.>.>.5.0.q.q.7.;.V d 2 2 d C >.8.r.r.w.q.q.7.>.*.D V +.5.q.q.5.>.>.5.-.D k i 2 k ( >.7.5.;.( D D *.;.>.>.,.>.>.>.-.:.:.=.=.=.:.;.*.( N i < < w w e e e r r e h d w < & o + 1 V >.r.f.r.>.V j d j k k k d 3 , , 3 2 2 w d j j j j f                                                                                                                                                                                                                                                     ",
"                                                                                                                                                                                                                                                                                                                                                                                                          3 3 < , & & , 2 d n n d 1 & & % X X & & & & , 1 2 2 2 2 2 w d d i w w w w s d j j j j j j j j j j k D ,.9.9.r.r.r.8.=.V k N S *.:.:.D k 2 , o o o & 1 i h j j f g z c z f d f z z z z z z z z z C G 8.c.pXlXzXzXlXsXrXl.f.r.r.9.8.8.8.8.9.r.r.r.r.f.l.x.l.g.f.l.Z.Z.x.8.C 2 + 4 2 d z C Z H H H H H H H H -.t.z.l.r.,.<.<.<.,.7.u.m.S.M.f.,.G V f 2 j ( >.3.:.S n n N V N n l h h h d d d n ( 3.q.q.7.7.5.3.>.>.-.:.:.>.>.>.>.>.>.,.7.q.w.q.5.*.C f 2 2 j D >.7.5.>.:.-.>.>.>.=.+.D :.7.0.5.*.D +.:.-.*.V d 2 k *.7.q.0.>.*.+.*.*.-.>.,.5.,.>.>.>.>.:.:.:.:.:.:.*.S n w 1 w r w s e e r r e d d w 1 & X o < z =.9.f.a.5.D j d d j k k j 2 , < 3 2 2 2 w d j k k j f                                                                                                                                                                                                                                                   ",
"                                                                                                                                                                                                                                                                                                                                                                                                          2 2 2 < , , , 2 d n n d 1 & % $ X X & - , & , < 2 2 2 1 2 w w d d d d d s s d j j j j j j j j j j N G ,.9.9.8.9.8.,.G N k z S *.:.:.D k 2 , & o o & 1 i d f f f g z z z f d j z z z z z c z z z c Z <.f.rXfXkXhXsXuXZ.z.f.r.r.9.8.7.8.8.8.9.r.r.y.z.m.x.g.y.r.g.M.Z.M.r.G d - 4 3 7 g V Z H H H H H H H H -.t.z.l.r.,.,.,.,.,.1.r.c.Z.Z.l.8.*.C f 2 d S :.5.>.( N n n N n n j h h h d d d h S ;.3.5.>.>.:.:.;.*.*.+.*.=.:.:.:.-.>.,.7.9.9.0.5.=.D k d i j D ;.*.D V V D *.>.>.>.>.>.5.8.7.;.S k n S +.D V d d V -.q.i.q.3.;.*.;.:.>.>.>.>.-.=.*.*.*.*.*.*.*.*.*.D V h w 1 w w e e e r r r e d d i w , O o 3 g K 8.d.d.8.D j d d j k k j w , < 3 2 2 2 w d j k k k j j                                                                                                                                                                                                                                                 ",
"                                                                                                                                                                                                                                                                                                                                                                                                          2 w 2 1 < , < 2 h n n d < & % $ X X & , , , , < 2 2 2 3 < 2 w i d d d d i d d j j j j j j j j j j N G 7.9.7.,.,.,.=.D k g z C *.:.:.D j 2 , o X o & < i d d d d f z z z f d g z z z z c c c z z z C =.y.C.tXtXrXtXyXZ.l.f.y.r.9.8.8.8.8.8.8.9.t.y.g.l.g.y.9.9.u.c.Z.Z.f.=.g < + 3 2 f z C Z H H H H H H H -.t.z.l.r.1.,.,.,.,.1.r.l.D.tXZ.r.=.S j 3 w V *.5.3.*.V n k n n k h h h h d d d d k S +.*.*.*.*.+.+.D D D G =.:.=.=.:.>.5.7.q.q.7.5.>.*.D N f j V S V k j k V G =.>.5.7.0.q.7.:.D k d d j V V k d k +.7.a.a.q.5.:.:.>.5.5.>.:.;.*.+.D D ( +.+.( D S S n f 2 1 q r e e e e r r r e d d d w < o o , f G 7.d.f.9.*.g d d f g k k w , , < 2 w w w d j j k k k k                                                                                                                                                                                                                                                 ",
"                                                                                                                                                                                                                                                                                                                                                                                                          2 w w 2 < , < 2 h n n d < & $ X X o - , < , , < 2 2 2 3 < < w i d h d d i w d j j j j j j j j j j N +.7.9.1.=.=.>.=.D k j k C *.-.:.D k 2 , o X o & < w d d d d f g z g f d g z z z z c V V z z z C =.t.z.l.g.l.Z.yXrXM.z.f.r.r.9.9.8.8.8.8.8.9.r.y.y.r.9.9.9.y.l.Z.Z.z.,.V 2 - - 1 d z c C H H H H H H G -.r.l.x.y.1.,.,.,.,.,.9.l.rXaXyXj.,.D k 3 2 k +.5.5.;.S n j h h h j d h d d d s s d k N V S S +.*.+.G D D *.>.,.>.:.>.>.7.7.7.7.0.7.5.>.;.D V k k k k k V C D G *.>.8.r.r.q.>.D V k k j j j k k k S >.r.d.a.q.5.>.>.5.7.7.>.:.:.*.+.D D D ( ( ( S V k d 2 < < q r e e e r r r r e p h d w < o o , f G 7.f.j.r.*.k d d d j k k i , - < 1 w w w i d j k k k k                                                                                                                                                                                                                                                 ",
"                                                                                                                                                                                                                                                                                                                                                                                                            w w 2 < , < 2 d n n d < & % X o o - < < , , < 3 2 2 1 < < 1 w d h d d i p d h j j j j j j j f j N G 1.9.1.*.G =.=.D N g k C *.>.>.( k 2 , o X o o < w d d d d f f g g d d g c V z z z V V z g z C =.8.u.t.1.9.x.rXyXD.x.f.r.r.r.r.9.9.9.8.8.9.9.9.9.9.9.9.9.r.z.C.Z.c.t.G f 3 + < 5 g z C Z H G G G H G <.r.c.m.f.2.,.,.<.>.-.8.l.uXhXsXn.7.+.n 2 < j ( 5.7.>.( n h h h h h h d d d d d d d d d h n S *.-.:.=.*.*.>.7.7.,.>.>.>.>.>.,.7.q.q.7.7.5.:.+.S C C D G *.=.=.=.*.>.q.d.a.7.*.C V D ( D D C V S D >.w.d.k.i.7.5.-.:.>.5.3.>.>.>.:.*.+.( +.*.*.+.S n d 1 , , 1 q r e r r r e e e e e h h d 1 & o , f D 7.d.j.d.:.N d d f g k k w , & , 1 w w w w d h j k k k                                                                                                                                                                                                                                                 ",
"                                                                                                                                                                                                                                                                                                                                                                                                            w w 2 < < < w f n n d < & % X o o , < < < , , < 2 2 2 2 < 1 w d h d d w i d j j j j j j j j d f z G ,.8.,.K H =.:.G N g k S +.>.>.+.k 2 , & X o o , 2 i d d d d f g g d d g z V z z z V V z g z C =.7.t.,.K -.f.Z.uXtXM.g.y.y.d.d.r.r.9.9.9.9.9.8.9.9.9.9.9.r.g.m.Z.m.f.-.z 3 4 3 5 f z C Z H G G G H G -.r.c.m.f.7.<.-.-.=.=.7.l.pXjXfXm.7.+.N w < h D 3.7.3.( n h h d d d h d d d d d s d w e d h S :.7.7.,.>.>.,.7.,.>.=.=.=.=.:.>.5.7.q.q.q.7.7.>.:.*.;.:.>.,.,.,.,.-.>.w.f.a.7.+.C D >.5.5.>.;.;.:.>.8.a.d.s.q.5.>.-.:.:.:.:.;.:.:.;.*.*.*.;.:.:.;.S k w < , < 1 w r r r r e e d d e e h h d 2 & o - d D ,.d.j.d.>.V f d d j k k i , & - < 2 w w w i d j j j k k                                                                                                                                                                                                                                               ",
"                                                                                                                                                                                                                                                                                                                                                                                                            w w 2 3 < < w j n n d < & $ o o o , < < < & & < 2 w w 2 3 2 w d d d w w p d j j j j j j j j d f k D <.7.,.K G =.>.+.V k k A +.3.>.+.k 2 , & X o o & < w d d d d f g g d d g N N z z z c V z k z Z =.2.8.-.Z G 9.m.yXuXZ.z.f.f.f.f.f.y.r.r.9.9.9.q.q.9.9.9.9.r.f.l.C.Z.x.8.C 5 , 4 3 d g c C D G G G H G <.y.m.m.f.7.<.=.*.K =.2.l.uXjXsXm.7.*.A h 2 d S 3.0.5.+.n h d d d d h h h d d d d d s e w j C :.7.7.7.,.,.>.>.=.=.*.=.=.:.-.>.3.7.0.q.q.q.7.7.5.5.5.7.7.7.7.7.7.>.,.w.f.a.7.*.D *.7.q.q.7.5.3.5.7.q.r.w.q.7.3.>.-.-.>.:.*.*.+.+.+.+.+.*.:.:.;.*.S h 2 < < 1 w r e e r e e h h d p e h b h w , o + 2 V >.a.j.d.7.D j d d j k k d < & & < 1 2 2 w w i d d j j k                                                                                                                                                                                                                                               ",
"                                                                                                                                                                                                                                                                                                                                                                                                              2 2 3 < < w j n n h < % $ X o o , < 1 < & & , 2 w w w 2 2 w d d d w w d h j j j j j j j j h f g C -.1.,.-.*.-.>.*.V k k V +.>.>.( k 2 , & X o o o , 2 i d d d j g g f d j N N k g z z c z k z Z =.,.1.=.C C ,.l.tXuXD.l.f.f.g.j.g.f.d.d.r.9.9.q.q.9.9.9.9.9.r.z.M.Z.M.r.K f < 4 3 5 g z V C D G H H H -.r.c.m.f.7.-.=.G K -.1.g.rXsXuXl.7.;.S k w i S 3.q.0.;.N h d d d d d h h h d d d d s e e d N G >.,.>.>.:.*.+.*.;.:.>.,.,.>.-.>.5.7.q.0.7.7.7.7.5.7.7.7.7.5.5.,.>.5.r.f.a.7.=.D *.7.q.q.7.5.>.>.5.7.7.7.5.3.>.:.:.-.>.>.:.*.+.D S S D +.*.*.( S n d 2 1 2 w w w e e e e e h h d e e h n h w < & o 1 k :.w.j.f.0.G k d d j k k f 2 , & , < < 1 2 2 w w d d j j k                                                                                                                                                                                                                                             ",
"                                                                                                                                                                                                                                                                                                                                                                                                              2 2 3 < < w j n n h < % $ o o o , < 1 < & + - 3 w w w 2 2 w d d d w i d h j j j d d d d j j j j V *.,.1.,.-.,.,.*.V k k V +.:.:.( k 2 & & X o o o , 1 i d d f g z k f d j k k g g g z c z g z C *.<.,.K V V =.f.D.uXrXm.z.g.z.l.l.j.j.f.d.r.9.8.8.9.9.9.9.9.r.f.m.Z.Z.g.<.z 3 + 4 2 f g z C Z Z Z H H -.t.z.l.y.,.=.K G K -.1.r.M.uXtXl.7.:.( n w w V >.q.w.>.A h d p e e d d h d s s s s s e e d j n S ( +.+.+.G D *.>.7.7.7.5.>.:.:.5.7.7.5.3.5.5.>.5.5.5.5.,.,.>.:.-.7.a.f.a.7.-.+.+.>.5.5.>.:.;.;.:.-.>.-.-.-.:.*.*.;.>.,.,.>.:.*.D C S S S V N h w 2 1 2 w w w w e e e e e d h d e e h n n d 1 & o , j *.9.j.g.9.*.z d d j k k j w , & & , , < 3 2 2 w w d f j j                                                                                                                                                                                                                                             ",
"                                                                                                                                                                                                                                                                                                                                                                                                                2 3 < < w j n n d < & % o o o - < < < & & & < w w w w w w i d d i d d d h h h h d d d j j j f k D -.1.7.7.7.1.*.V k k V +.:.:.( j 3 & o X o o o & < 5 d d f k n k j d j k k g g g z z z g g V G -.-.G V c K r.M.tXtXZ.l.z.l.l.l.l.l.j.d.w.9.8.8.9.9.9.9.9.9.d.l.Z.Z.x.8.Z 5 4 4 3 d g z V C Z Z H G =.7.r.u.9.,.=.K K =.-.,.9.m.tXtXl.q.>.+.V i w N :.w.a.5.S h d e e e e d d e e e s s s e w w w d j k n V D +.*.>.8.q.8.7.>.*.:.>.7.7.,.:.:.>.>.>.5.7.7.5.,.,.-.*.:.q.d.d.w.7.>.*.+.;.>.>.;.*.*.+.+.*.*.*.;.:.:.;.*.*.=.>.,.5.5.>.*.D C V j d w 2 < < 1 w w w w w w w w w w e e e w e h n n h w & X & d G 8.f.g.r.=.N d d f j k j i , + & - , , < 1 2 2 2 i d j j j                                                                                                                                                                                                                                           ",
"                                                                                                                                                                                                                                                                                                                                                                                                                3 3 < < 2 d k k d < & % X o o - < < < & o & , 2 w w w w w w d d d d d d d h h h d d j j j j d j V *.,.8.9.9.7.;.V k k V ( :.;.S j < & o o X o o & , 2 d d f k k k j d j k g g g g z z g f g V G =.=.G c z D 7.z.D.yXtXM.l.l.x.m.n.l.j.d.9.8.8.8.9.9.9.9.9.9.r.j.M.Z.m.r.K f 3 4 3 i f z c C Z Z H H K -.2.8.1.<.-.=.=.-.<.,.8.m.yXyXm.r.5.*.V d w k *.w.d.7.S j d e e e e e d e e e s s s e e w w w w w i j D *.-.5.8.0.5.>.*.*.>.7.0.5.:.*.:.>.>.>.7.q.9.7.5.,.:.*.>.w.d.a.q.7.>.*.+.*.:.:.;.*.*.+.D +.*.*.*.;.:.-.:.*.*.;.-.>.5.5.:.*.D k i < , & - < 2 w w w w w w w w w w w e w w e h b n h w , X o 2 C 1.f.g.r.-.V f d d j j j d , + + - , , < 3 2 2 2 w d d f d                                                                                                                                                                                                                                           ",
"                                                                                                                                                                                                                                                                                                                                                                                                                < < < < 2 d j j w < & & X o o - < < , & o o , 2 w w w w w w d d d d d d d d h h d h j j j j d j k D -.8.9.r.8.;.V k k V D ;.*.S d , o o o & & & + , 2 d d f j k k f d f g g g g g z k g f f c H =.=.D z z C =.r.Z.uXpXrXm.l.x.m.m.n.j.d.9.8.8.9.9.9.9.9.9.9.r.f.m.Z.m.u.-.z 2 , , 5 f z c C C Z H H H K =.-.<.,.,.>.>.>.<.<.8.m.uXuXZ.f.7.:.S d 2 j +.q.d.0.( j d p e w e e e p e e e s e e w w i i w w 2 j S *.>.>.>.>.:.*.*.-.7.8.7.>.*.;.>.5.>.>.7.w.r.q.7.>.*.*.7.d.d.w.7.5.>.:.*.+.*.>.:.;.;.+.D +.*.;.*.*.:.>.>.:.*.+.*.:.>.>.:.*.D k 2 & & * < 1 w w w w w w w w w i i p w w w e e h n j i < o o 1 c >.r.f.w.>.C f d d j j j i < & + - , , < 3 2 2 2 2 i d d d                                                                                                                                                                                                                                           ",
"                                                                                                                                                                                                                                                                                                                                                                                                                , , < < 2 i j d w < & & O o o , < < , & o o & < w w w w w d d j d d i w i d d d d h j j j j h d j V *.,.9.9.7.*.V k k V S *.+.V w & o o & , < , - , 1 i d f j j j d i f g g g g g g k g f g V G =.K Z z g V G 9.m.pXsXuXZ.l.l.m.M.n.l.d.r.r.r.r.w.9.9.9.9.9.9.d.l.C.m.g.,.C 7 3 , 2 f z V C C Z G H H G H G L -.,.1.,.,.<.-.8.m.uXaXZ.j.q.-.S d 3 d D 0.d.0.( n d i w e w e e w w e e e e e e p d d d w w d N D +.+.+.D +.*.:.5.0.8.,.*.*.>.5.5.>.>.7.9.w.q.5.:.+.*.0.d.a.8.5.>.>.:.*.+.*.:.:.:.;.+.( +.;.:.*.*.=.>.,.>.*.+.D ( +.+.( S V f < & * < 1 w r w w w w w w w e d d d d d e e e h k j d < & o < g *.9.d.9.>.C g d d f j f d < & & & , < < 3 2 2 2 2 w i i i                                                                                                                                                                                                                                           ",
"                                                                                                                                                                                                                                                                                                                                                                                                                , , , < 1 w d w < & & & O o + , 3 3 < & o X o , 1 w w w w d j j j d w w w d d d d h j j j j h d f z D :.7.7.>.D N k k V S ( D n 2 & + - < 2 w 2 , , < 2 d d f f d i 5 d g g g g g g g j f g C G L G C g g z D 1.x.uXfXsXrXm.l.m.M.M.l.g.f.f.f.d.a.r.9.9.9.9.9.y.j.m.M.l.8.H f 3 - 1 f z V C C Z H K K H C c Z =.,.7.7.1.,.-.7.x.yXpXD.z.9.>.D f < w S 0.d.0.+.n h d w e e e e e e e e e e e d d d h d d w w d k N V N V S *.>.7.7.5.:.*.:.5.7.>.;.:.5.7.7.7.>.*.+.>.w.d.w.7.>.>.>.-.;.+.+.*.:.;.*.( ( +.;.>.:.*.*.:.>.>.:.+.D S V V N k f 2 < < < q q r w w w w w w w e e d d d d d d e e d j k h 2 & o , f G 7.r.9.,.D z f d d d d i 1 , & & , < 1 1 2 2 2 2 2 i i 5                                                                                                                                                                                                                                           ",
"                                                                                                                                                                                                                                                                                                                                                                                                                & - , , 1 w w 2 , & & o X o + < 2 2 < , & X o + , 2 w w i h j k j d w w w d d i d h j j j j h d f g V +.:.:.*.C k j k V D ( S k 2 & & < w d d i 2 , , 1 5 d d d 5 2 2 d g g g g g g g j f g C K K G c g f z Z <.z.yXfXhXpXC.l.l.m.M.m.l.l.l.l.g.d.r.9.9.9.9.9.r.f.x.C.c.r.=.z 2 4 3 d z V C C H K =.=.G C z z G <.7.8.1.,.<.7.l.tXyXZ.l.w.>.D f < 2 A 7.s.q.;.N j d w e e e e e e e e s e d d d h h d d w w w w d d d k S *.>.5.5.:.*.*.>.7.7.;.+.*.;.:.:.;.*.D *.7.a.a.q.,.>.>.>.>.:.+.D +.*.+.D S D ( *.:.>.*.+.*.:.-.:.*.S N j d d w 2 < < 1 q q r r w w w w w w e e s d d d d d d e e d j k j w - o , d D ,.9.9.1.K V f d d d d i 2 , & & , < 1 1 2 2 2 2 2 i i 2                                                                                                                                                                                                                                           ",
"                                                                                                                                                                                                                                                                                                                                                                                                                  & , < 2 w 2 , & O o X o o + < 2 2 2 < & X o o & < w w i h k k j d 2 w w d w d d h j j j j h h d f k V D D C k j j n S ( D C j < - < 2 d j j f w < , < 2 i d i 2 3 2 d g g g j g g g j g z Z *.K Z z f f g V =.u.D.fXjXsXD.l.z.x.M.M.N.N.M.m.l.f.r.9.9.8.9.9.r.d.l.C.m.f.,.V 5 3 3 d g c V C H =.-.-.=.Z g f V =.1.8.2.,.<.7.g.Z.tXZ.b.w.>.S j < 1 V 5.a.w.:.S k d i w e e e e e e e e s d d j h h d d w w w 2 2 2 w j V +.;.;.;.+.+.;.5.7.>.+.S D D S C S S S ;.w.d.w.7.>.>.>.>.>.:.*.D S D S V V S S D ;.>.;.D D +.*.*.+.S k i 1 < < < < 1 q w w r w w w w w w e e e h d d d h d e e e d j n j w , o & i C >.8.r.8.=.C j d i d d i 2 , & & , < < 1 1 2 2 2 2 2 2 2                                                                                                                                                                                                                                           ",
"                                                                                                                                                                                                                                                                                                                                                                                                                  & , 1 w w 2 & o o o o o o + < 2 w w 3 & X . o o , 2 w d d j k j i 2 2 w d i d d h j j j h d d d d j k N N k j j j V D *.D N i < , 2 d j k k j d 2 , , < 2 i 2 1 3 2 d g g g j f f f g g V D *.*.Z g f f g z G 9.C.sXjXfXtXm.z.l.m.Z.D.rXZ.m.z.f.r.9.9.9.9.w.r.r.z.M.Z.x.9.H d , 3 2 f z V C G =.<.,.=.Z z 7 f Z <.7.7.,.,.2.f.C.rXrXm.d.>.D j 1 < n >.w.w.5.( n j d w e e e e e e e s d d d d d h d d d w w w 2 2 2 d k S S S S S D :.5.,.*.S n n k j d j j N :.a.k.w.5.>.>.>.>.>.:.*.D N k k j j n n V ( *.*.S C C D S S n d 2 < < < 1 w w w r r r w w w e e e e d h h h d d p e e w w d h k j i , o o 2 N =.8.r.9.,.D j d i d d d 2 , & + - , < < 3 3 1 2 2 2 2 2                                                                                                                                                                                                                                           ",
"                                                                                                                                                                                                                                                                                                                                                                                                                    < 1 w w < & X o o o . . o , 2 i i 2 - X X . o & 1 w i d j j d w 2 2 w d i d d j h h j j d d d d d h j j j j j k V +.*.G k 2 , 3 d k k k k j j w < , , 1 2 2 3 3 2 d j g j j j f f g g V D *.G C g d d f z D ,.l.uXhXhXpXC.z.l.m.Z.rXrXZ.c.g.y.r.9.9.9.9.w.w.r.g.m.Z.M.f.=.g 3 3 3 d g c Z G =.<.,.-.H x 5 5 z K ,.1.1.,.1.y.m.tXyXZ.f.7.+.n w < j *.0.a.q.*.n j d e e e e e e e s s d d d d h d d d d d w w w w w i d j k n k n S *.:.*.D k d d i 2 3 3 2 k ;.i.k.w.5.>.>.>.>.-.:.*.S k d w 2 w d d j N S S V n k k k k d 2 3 < < 2 w w w w w w w w w e p p e e h h h h h d p e e r r w h j j w < o + 3 g K 8.d.d.7.G g d d d d d w < + o & , < < 3 3 1 2 2 2 2 2                                                                                                                                                                                                                                           ",
"                                                                                                                                                                                                                                                                                                                                                                                                                    < w w 1 < & X o o o . . o , 2 i i w < & . . o o < 2 w i d d w 2 3 2 w d d d h j h h j j d d d d d d d d d h j k S +.*.D k 1 < w j n n k j j h d w , - < 1 1 3 3 2 d j j j j j f f j k V D G G C g d d f g C -.u.D.fXhXsXD.l.l.x.Z.D.D.M.l.y.r.r.r.9.9.w.9.9.9.d.l.Z.C.z.,.V 2 4 3 5 g c Z H L -.<.=.H z 2 3 d V =.1.7.1.1.r.c.tXaXtXl.8.*.V d 3 d S 5.a.w.:.V j h d e e e d d d d s d d d d s s d d d d d d d i i w w w w w w d k S D S k d 2 2 3 < , , < j *.0.i.q.5.>.>.>.>.-.:.*.S j w < , < w w w d j k k j i w w w 1 < < 1 2 w w w w w w w w e e e e e e e d h k n h h p e r r r w d j h w < o o , d D 7.f.f.9.*.k d d d j f d < + o o & , , < 3 1 2 2 2 2 2                                                                                                                                                                                                                                           ",
"                                                                                                                                                                                                                                                                                                                                                                                                                    < w w 1 : & X o o . . . + , 2 i d w < & X . . o , 3 2 w w w 2 3 < 2 i d d d h j h h j j h d d d d d d d d f k N S +.*.S j 1 2 d n N n k k k k h i < - , < 1 3 3 2 d f j f j j j f j k V D G G C g d d f g V G 8.m.pXhXfXyXM.l.l.m.Z.M.x.g.r.r.r.r.w.w.9.9.9.9.r.f.m.C.l.9.D d 3 4 2 f c C H K =.-.=.G z 5 3 3 g G 1.8.2.1.9.l.yXsXuXn.9.=.S j 2 w V 3.a.a.>.V j h d d d d d d d d d d e e e e e s d d d d d d d i i w w 2 1 < 2 d k n j i 2 3 2 2 3 < < 2 k +.5.0.0.7.3.>.>.>.-.;.*.D N d 2 < 1 1 1 1 1 2 w w w < < < < < < 1 w w w w w w w w w e e e e e w e e d h k n n h d e w r w w i h h w < o o - i C 7.f.f.9.*.z d d f j f d 3 + o o & - , < 3 1 2 2 w i 5                                                                                                                                                                                                                                           ",
"                                                                                                                                                                                                                                                                                                                                                                                                                      2 1 < & % X o X . . . + , 2 i d w < % X . . o + , 3 2 2 2 < < < 2 i d d d j j j j j j h d d h d d d d d j k V S ( D V d 2 d k N V n n k n n k j 2 , , < 1 1 3 2 d d f f j g g j g z V Z G D C g d f j g z Z <.z.tXfXhXaXZ.m.l.l.x.l.g.f.r.r.r.r.w.9.9.q.q.q.9.d.l.M.c.r.=.g 3 4 3 d z C H H =.-.-.=.G g 3 3 d G 7.9.8.2.8.g.tXsXpXm.9.-.D n w w n :.a.s.3.V j d d h j h h h h d d d e e e e e d d d d d h h d d d i w 2 1 < < 2 w w w 2 < 2 2 2 2 2 w k D *.>.5.7.7.5.>.>.-.:.*.+.D S N d w 1 1 q 1 1 < < 1 < < < 1 2 2 w w w w w w w w w w w e e e w w w w w e d h l j h d p w w w w w d d w 1 & o & 2 V ,.d.f.9.*.z f d j j f d 3 + o o o & - , < 3 2 2 w i i                                                                                                                                                                                                                                           ",
"                                                                                                                                                                                                                                                                                                                                                                                                                      < < * & % X X . . . . o , 3 w w w < & . . . . o & < 2 2 < , , < 2 i d d d j j j j j j j j h h h d d d d j N S ( D S k i i j n V N n n n N n n k d 3 , , 3 3 3 1 5 d d f g k g g g z V Z D Z V g f f j g z V *.r.Z.gXjXfXyXM.l.l.z.g.g.f.f.r.r.r.w.w.q.q.w.9.9.r.g.m.m.g.,.c 2 4 3 5 g c Z H G =.,.8.,.D f 1 f K 8.r.9.7.7.f.tXfXpXM.r.>.+.V d 2 k ;.a.d.3.A h d j j h h h h h j h d d e e e s d h h h h h h d d d d i w w 2 1 1 2 2 1 1 2 w w w w i k D =.-.:.>.5.0.7.5.>.-.=.*.D +.+.D n d w w w 2 1 < < 1 1 1 w w w w w w w w w w w w w w w e e w w w w w w w d d h h h d d w w w 2 w i d i 2 , + + 2 V ,.d.f.9.*.z f d j j f d 3 + o o X & & , < 3 2 2 2 i 2                                                                                                                                                                                                                                           ",
"                                                                                                                                                                                                                                                                                                                                                                                                                      , & & & $ X X . . . . o - < 2 w 2 < o X . . o o & , < 1 < - - < 2 i d d d j j j j j j j j h h h d d d d j V D +.D V f i j n N N n n N V V V N n j w 3 , < < < 1 5 d d f g z z g g z V Z D Z V g f f g g g z H 8.m.pXjXhXpXZ.l.z.g.f.f.f.f.f.r.r.9.w.w.q.w.9.9.9.f.l.M.l.9.Z 7 3 3 2 f c C Z H =.7.r.y.7.D g V =.9.r.9.7.7.f.rXfXaXZ.d.5.*.S j 2 j *.w.a.3.A h d j h k k b h h h j d d e e e d d h h d h h h d d d d d w w w w w w 2 2 2 w w w w i j S :.7.5.:.;.5.q.q.7.>.-.*.+.D *.=.*.S k d d i w 2 1 2 w w w w w d d e w e e w w w w w w w w w w w w w w w w e d d d d d e w w w 2 2 w d d w < & + 1 V ,.d.f.9.*.k f d f f f d 1 & o o o o & , < 3 3 2 2 2 2 3                                                                                                                                                                                                                                         ",
"                                                                                                                                                                                                                                                                                                                                                                                                                      o o % X X X X . . . . + , < w w 2 , O X . o o X o & < < < - , < 2 i d d d j j j j j h j j h h h d d d d j V D +.S k d d n V V N n N V C S V V n k f 2 < , , , 3 i d d d j k z z k z V D G D V g f f g g g z Z ,.z.yXhXjXgXD.c.z.f.u.f.f.g.f.d.r.9.w.w.9.w.9.9.9.y.l.C.m.r.G f 3 4 3 d z C C Z G 1.f.z.f.7.G G ,.9.r.8.1.1.f.rXfXsXZ.f.7.:.D k 2 f +.q.w.>.S h d j h k n n b b h h j d e e s d h h h h d h h d d d h d d w w w w w w w w w w w d j V ;.7.q.7.:.;.5.q.w.7.>.-.*.+.D *.:.:.*.C k k j w 2 w w w w w d d d d d e e e w w w w w w w w w w w w w w w e e p p d d d e w w w 2 2 w d h d 2 - & 2 V ,.d.f.9.=.N j d d d d d 2 , o o o o & - , < 3 3 3 3 < ,                                                                                                                                                                                                                                         ",
"                                                                                                                                                                                                                                                                                                                                                                                                                        X X X o o . . . . . o , 3 w w q , o o . o X X o & , < < , , 3 2 i d i d h j j j j h j j h j j h d d d j V D D S k d k V S A N N V C S S S V N n k i < - & , 3 d f f d d j k k z z C D G D V g f f g g g g C =.u.D.gXjXfXrXc.z.f.y.d.f.g.j.f.d.r.w.9.9.9.w.w.w.r.z.C.M.f.=.z 2 - 3 5 g z V V Z -.r.l.x.f.7.>.7.8.8.7.,.1.d.rXfXfXtXl.q.>.D k 2 d D 7.9.>.S k j j k k n n n l h j j d d s s h h h d d d h d d d d h d d e w w w w w w w w w i k S +.5.q.q.3.;.;.5.q.w.0.3.-.:.*.G +.;.>.:.+.S V k d w w w w e d d h h d d e e e e w w w w w w w w w w w w e e e e d d e s e e w w w 2 2 w d j d w , & 2 C ,.d.f.9.=.V j d d d d d 2 < + o o o o - , < < < < < , - +                                                                                                                                                                                                                                       ",
"                                                                                                                                                                                                                                                                                                                                                                                                                        o o o o o . . . . . o , 2 w w w , o o . o o & o o - , < < < 3 2 i i i i d j j j j j j j h j j h h d d j N S D V k k V S S A V V C S S S S V N n k d 1 - + - 3 d f f d i d j g g z C D G G V g d d j g g g z G 8.m.pXfXfXuXC.z.f.u.f.f.g.j.j.f.a.w.9.9.9.9.w.w.r.j.M.Z.z.1.C d 3 , 2 f z z z V K 8.g.m.l.9.7.7.7.1.,.,.1.d.rXfXfXuXm.r.>.D k 2 w C >.0.,.( n h j n N N n n n l l j d d d s h h h d d d d d d d d h h h d e w w w w r w q q h C *.-.7.8.7.:.*.:.5.0.q.0.5.>.>.:.*.+.*.>.>.:.+.D N d w w w e d d h h d d d e e e w w w w w w e e e e w w w e e e e d d e e e e w w w w 2 w d h j w , & 2 C ,.r.f.r.>.C g d d d d d w < + o o o o & - , , , , , - & +                                                                                                                                                                                                                                       ",
"                                                                                                                                                                                                                                                                                                                                                                                                                          - - & o o . . . . o , 2 w w w , o o o X & & & o & , 3 2 2 2 w i i i i d d h j j j j j h h j j h d d h k V V k k V D +.D S S S S S ( D S V N n k j 2 , & - 1 d g j d 2 i d j g g V D G H V g d d f j g g z Z <.g.rXgXfXaXD.l.f.f.f.f.j.z.l.j.d.r.9.9.9.9.w.w.r.g.m.Z.m.r.*.j 3 , 3 d g z z z Z ,.y.l.z.9.7.1.,.,.,.,.1.y.Z.sXhXsXZ.d.,.D k 2 2 n *.5.5.*.V k n N V V V n n k l h h d d s s h d h j d d d d h d d h d h p e w w w r r q q j D :.>.5.5.-.*.*.>.7.7.q.q.0.5.5.>.*.D ( ;.>.:.*.D k d w w i d d d h d d d s e e e w w w w w e e e e e w w w w w e w w w w w e e w w w w w d j k j w , & 2 V >.r.d.r.,.G k d d d d d w < & o o o o & & & & & - - & & & ,                                                                                                                                                                                                                                     ",
"                                                                                                                                                                                                                                                                                                                                                                                                                          < , , + o . . . o & < w i i w , o o o O & & & o + - < 2 2 2 w i i w i d d h j j j j h d h h j h d d h j k k j j C *.;.*.+.D D D D ( ( S V n n k j d 3 - - 1 f k g d 2 2 d f g g c Z G Z c g d d f j g g g c K t.M.pXfXgXyXm.g.f.f.f.j.l.l.j.f.r.9.9.9.9.9.9.r.f.l.C.Z.z.,.N 2 , 3 5 f g z z C =.9.f.d.7.,.,.,.,.,.,.1.r.m.uXfXfXrXf.5.G k 2 3 j D >.5.-.S n n V V V N n n k k h h d d h d d d h h d d e e d h d h h h d e w w w r r r w j D ;.>.>.:.+.D +.:.5.7.w.w.w.7.5.>.*.S S ( *.*.+.S k d w w i d d d d d d d e w w e e e w w w e e e e d i w w w w w w w w w w w w w w w w w d j k j w , & 1 k *.8.r.a.8.*.N d i d d d i 3 & o . o o & & & & & & & & , < 3 2 2                                                                                                                                                                                                                                 ",
"                                                                                                                                                                                                                                                                                                                                                                                                                          3 < , - + . . . o & < w d d w , o X o o & , , & o & , < 1 2 w i w w i i d d h j h j h d d h h d d h j j f d i j S :.>.>.:.*.+.( ( ( ( S V n n n k j i < , 1 f g g d 2 5 f g g g z C H Z c g d d f g g g g z Z ,.z.tXgXfXpXZ.l.f.f.f.z.x.x.z.f.r.9.9.9.9.9.9.r.y.l.N.D.m.8.C i 3 3 2 d g z z C *.7.r.8.-.=.<.,.,.,.,.1.r.l.rXfXfXtXg.7.+.z w < d V :.7.>.( N n n n k k k k n n h h d d d d d d h h d d e e s d d d d d d p e w w e e r w j S *.*.;.*.D A S *.>.7.w.a.w.q.5.;.D N k V D D D S z d w w e s d d d h h d w w w e e e e e e e e w w w w w w w w e w w w w w w w w w w w w j k k j w , & < f D ,.r.d.9.:.V f i d d d i 3 & . . . o & - , , & & , < < 2 2 2 2 3                                                                                                                                                                                                                               ",
"                                                                                                                                                                                                                                                                                                                                                                                                                          , < < - o o . . o & < w d d w , o o o o - , , & o o & , < 2 w w w w w w d d d j j j h d d d d d d j k k d 2 2 d S :.7.7.>.;.+.( ( ( ( S V n N V V k f 2 < 2 f g g d 5 f g z g f g C Z C z g f d f f g g g g C =.r.Z.aXfXaXD.l.f.f.g.l.x.x.j.d.r.9.9.9.9.9.9.9.r.g.M.rXM.r.+.f 3 4 3 5 f g z C *.1.9.7.=.=.<.,.,.,.,.1.9.f.Z.sXfXtXj.7.*.C d 3 w N *.7.5.+.V k j d d d d j k n n h h h d d d d d j d d d e e d s s s d d p e e e e e e w k D +.+.+.D V k n S *.5.q.w.9.7.-.D N f d j k N C S V j w w w e d d d h h d w w w w e e e e e e w w w w w w w w w e e w w w w w 2 < < < 2 w j k n k i < & - 5 V =.r.f.r.>.C j i d d d w < & . . . o + , < < 1 1 1 2 2 w w w 2 3 <                                                                                                                                                                                                                             ",
"                                                                                                                                                                                                                                                                                                                                                                                                                          , , < , & o o o o & < w d d w , o o X o & < < , & o o & < 2 w w w 2 2 w d d d j j j h d d d d d d j n k d 1 3 d V ;.7.q.7.>.*.+.( ( D S V V V C V V j i 3 2 d j g d d g z z g f g V C C z g f f f f f f f g z H 2.x.yXfXaXrXc.f.g.l.l.x.l.f.d.r.9.9.9.9.9.9.9.r.f.m.Z.N.f.>.z 2 4 - 1 d g c Z =.7.9.7.=.=.>.,.,.<.,.1.9.u.Z.sXfXtXj.8.:.D g 2 2 k *.7.7.*.N d 2 2 < < 2 d k N n k h h h d h h d h d d d e e e e e e e w i p p p d d d d k D ( D S V k d d k S ;.5.7.7.>.+.N d 2 1 2 w d z C V f w w w e d d d h d d w w w w e e e e e w w w w w w w w w e e e w w w w 2 < , , < < 2 h k V n j 1 & + 3 g *.9.f.d.5.D j i d d d w 3 & o . . . + , 2 w w w w w i i w w w 2 3 <                                                                                                                                                                                                                           ",
"                                                                                                                                                                                                                                                                                                                                                                                                                          & , < < - o o o o & < w d d w < o X . o & , < < & o o o , 3 w w 2 2 2 w i d d j j j d d d d d d d j N n d 3 < w n +.5.q.q.5.:.*.+.( D S S V S S S V k f 2 2 i f g f f g z z g f g V C C z g j f f f f f f f g C -.f.D.aXaXrXm.z.z.l.c.l.j.d.r.r.r.r.r.r.r.9.9.r.y.l.N.N.z.0.C 5 - + < i g V D =.8.r.8.=.=.>.,.,.<.,.1.8.y.M.aXfXtXj.8.,.*.N 2 2 k *.7.7.;.N w < < < , , w n A A n h j h d d h h d d d d e e e e e w w w w i p d d d j j j V S V k j d w w i k S ( *.*.D V f 2 < < < < 2 j z k d w w w e d d h d d d w w w w w e e e e w w w r r r w w w e e e e e w w 1 , , < 3 < 2 d n S C k w & o 3 f +.9.g.f.7.D j d i d d i 2 - o . . . + , 2 i d h h h d i w w w 2 2 3 <                                                                                                                                                                                                                         ",
"                                                                                                                                                                                                                                                                                                                                                                                                                          & , 3 3 < & X o o & < w j j w < & X . o o , < < , & o o & < 2 2 2 2 2 w i d d d j h d i d d d d d k N n d 3 < 2 j S :.0.q.7.>.*.*.+.( D S D S S S V N j i 2 5 f g g j g z g f f g c C C z g j f f f f f f f g z G 9.M.uXaXyXC.l.l.m.m.l.f.y.r.r.d.d.d.d.r.r.r.r.r.g.m.N.n.r.*.f , + , 2 f V D =.9.y.9.=.=.>.,.,.,.,.1.8.r.M.aXfXyXl.9.7.=.V w 2 j +.7.7.>.V w < < < , & 2 n S S N j h h h h h h h d d d e e e e e w w w e w w d d j h j j k k j i w w w w w i j n N V n j w 2 1 2 1 1 2 i f d 2 w w e e d d d d d p e e w w w e e r r w w w r r r w w w w w e e e w w < & , 2 2 3 < i n S D V d , + - d G 9.g.f.8.G k d i d d d 2 , o . . . . + 3 i h n n j h d w w w w w 2 3 <                                                                                                                                                                                                                       ",
"                                                                                                                                                                                                                                                                                                                                                                                                                          & < 2 2 2 , o o o + < w j j d < & o . . o , < 3 < - o o o , 2 2 2 2 w w i d d d d d i w w d d d d k V n d 3 < 2 d n ( >.q.q.5.:.*.*.+.( ( ( D S S V V k f 2 2 d j g g g g f f f g c C V z g j f f f f f f f f g C ,.l.tXaXuXD.M.m.m.m.z.f.r.r.r.f.g.g.g.f.y.r.r.r.f.l.N.N.f.>.z 1 & - 2 f z D =.9.d.9.-.=.>.,.,.,.,.,.7.9.m.aXfXuXn.a.7.:.V w < j ( 5.0.3.D d < < < , - w N D S V j j d d d d d h d d s e e e e e w w w e w w d d h h j d d d i w w w w i w r r w i d i w w w w w w w w w w w w w w w d d h h h s e e e e w w e e e e w w w r r r r r r r r r e e w w < & < 2 w 2 < w N D *.S f , o + i D 8.g.g.9.+.k d i d d d i 3 & o . . . + , 2 h n n n k h d w w w w w 2 2 3                                                                                                                                                                                                                     ",
"                                                                                                                                                                                                                                                                                                                                                                                                                          & < 2 w 2 , o o o + < i j j d 1 & o . . o & < 2 3 , & o o & < 2 2 2 w w i d d d d d i w w w d d d n V N d 1 < 2 i j C ;.7.q.7.>.:.*.*.*.*.+.( S S S S V g d 2 d f g k g j f f f g V V V k g j f f f f f f f f g c =.f.D.pXaXyXZ.M.m.x.z.f.r.r.d.j.l.l.z.g.f.r.r.r.y.z.M.Z.l.7.S d , + 3 d z D >.9.f.r.-.*.>.,.,.,.,.,.1.8.l.uXfXaXZ.d.8.-.C i < d S 3.q.7.+.f , , < < 3 j A ( ( V j d d d d d d d h h d e e w w i d d e e e e d d h j j h d w w w w d d d e r q q 1 2 w w w d d e e e i w w w w w w w d d h h h s e e e e w w w p h d p w w w r r r r r r r r r e e w 2 < 1 w w 1 < d V +.*.D j , o + 5 D 7.f.j.r.*.k d i d d d i 2 & o . . . . o , w j n N n n h d d i i w w w 2 3                                                                                                                                                                                                                   ",
"                                                                                                                                                                                                                                                                                                                                                                                                                          & < w w w < o o o + , w j j d 1 & o . . o + , 2 2 < & o o & , 3 2 2 w w i d d d d d d w w w i d d n V V j 2 3 2 w d k D ,.8.8.5.:.;.;.*.;.;.+.( S S S S N d 2 2 d j j j f f d f k V V z j f f f f d f f f f f f z G 9.m.uXsXaXtXZ.m.l.z.f.y.r.f.j.l.n.l.z.g.f.r.r.r.f.m.M.x.9.*.f < + 3 5 g D >.9.f.r.-.*.>.>.,.,.,.,.,.1.g.rXsXaXD.h.q.-.S d < w V -.0.0.*.k 2 < 2 2 d n S ( ( N h d d h h h h h h h h h d p p d d d d s s d d d h j j j h d d d d d j d e r r r w w w w d d d d d d d d d d w w e s d d d d h s e e e e w w w h n n j h d i e e e e e e e e e e d d i w w w w w w j S +.+.S d , o + 5 C 7.f.g.r.=.N d i i d f d 2 , o . . . . o + < d n N A V n n h d d d i i w 2 1                                                                                                                                                                                                                 ",
"                                                                                                                                                                                                                                                                                                                                                                                                                          , < w w w < & X o + , w j j d < & X . . . o , 2 2 3 , & o o & < 2 2 2 w i d h h h d d w w w w d h n A V j 2 3 2 w w j S :.7.q.7.>.:.:.;.:.:.;.+.( S S S V j w 2 w d f f d d d f z V V z f d d f d d d f f f f f g C ,.l.tXsXgXuXZ.x.l.j.f.d.d.d.j.l.n.l.l.j.g.d.r.r.y.z.m.x.d.>.z 2 & - 2 g Z >.9.f.r.-.*.>.<.>.>.,.>.,.,.r.M.uXaXrXj.q.>.S j 3 2 n *.7.7.:.V d d d j N S ( ( S n j h h h h h n n n n n n n h h h h d d d s d d d d h h h h d d d d h j d e r r r r w w d d d d d s s h h d d d d d s d d d d d e e e d e w w w n A S V n k h h h h h h h h h h h b k k k j h d d h N S ( S n i , & - 5 C ,.y.f.r.-.V d i i d d d w , o . . . . . o & 1 h n S S S A n h d d d d w w w                                                                                                                                                                                                                 ",
"                                                                                                                                                                                                                                                                                                                                                                                                                          , < 2 w w 1 & o o & , w h j w < & X . . . o - 3 2 2 < , & o & < 2 2 2 2 i d h h j h d w w w w d j n V N j 2 3 2 w 2 i n +.5.q.q.7.3.>.>.3.>.:.*.( D S S V k i 2 2 w d d d d d j z C V g d 5 5 d f d d d f f f f j V =.y.D.aXfXpXZ.l.j.g.f.d.d.d.h.j.l.l.z.z.j.f.r.9.r.f.l.n.g.7.D d 3 + 3 f C -.9.d.9.=.*.>.>.>.>.>.>.>.,.9.l.rXpXtXl.q.>.D k 2 2 j S :.3.;.S k k n V S ( ( ( A n n j j n n n n n A A A A A V n n b h d d d d d d d d d h h h d d d d d d e e r r w w e d d d d d e e h h d d d d d w w w w e p e e e d w w 2 d V ( +.S V n n n n n n n n n n n n n n n V N n l n n A S S N j 2 , & - 5 V -.9.r.9.<.C j i i d d d i < o . . . . . . o & w h A ( ( ( S n h j d d d w r w                                                                                                                                                                                                               ",
"                                                                                                                                                                                                                                                                                                                                                                                                                          , < 2 w w 2 < & o & < w j j w < % X . . . . + , 2 2 2 < & & & , 1 2 2 2 w d h j j j d w w w w d j n N n d 3 3 2 w 2 2 j D >.q.w.w.7.5.5.5.5.>.;.+.( S S V k d 2 2 2 i d d d d g V C V j 2 3 5 d f d d d d d d f f z G 8.m.pXfXaXZ.l.g.f.f.d.d.d.f.h.j.j.j.j.j.f.r.9.9.y.z.n.l.r.=.z 3 + 3 7 V =.8.r.8.=.*.>.>.>.>.>.>.>.,.1.d.Z.uXtXx.9.>.+.V i 2 d N ( ;.+.A n n V S ( ( / A n n j j j n n n n B A A A A S S ( S n h d d e e e s d d d d d d h d d d s e e e e e e e e e d d d p e e h h d h d d d w w w w e e e p d d w w w j S *.*.( S N n n n n n n n n n n n n n N V V N n n N A A n h w 1 & & 4 2 z *.1.9.9.,.G g i i i d d i 3 + . . . . . . . X , w n S @.;.( S n j j d d s w w                                                                                                                                                                                                               ",
"                                                                                                                                                                                                                                                                                                                                                                                                                          , < 2 2 w w 2 - + - 3 i j j w < % X . . . . o - 3 2 w 2 < & & - < 2 w 2 w i d h j j d w w w w d j n n j w < < 2 w 2 2 d V *.7.i.a.w.0.7.7.5.>.;.*.( S S N k h w 3 2 i d d d f z C C V f 2 , 3 i d d d i d d d f f z C <.z.tXgXaXD.x.j.f.f.d.d.d.d.f.f.f.f.f.f.d.r.9.9.r.j.m.M.j.7.C 5 4 4 2 z G ,.9.7.*.*.>.>.>.>.>.>.>.,.,.r.M.uXyXm.r.5.*.S f 2 w j A S S n n n n A A A B n l h j h d h k n n n n n n n A ( ;.+.S n h h d e e e e e e d h h j d d d s e e e e e e e e e e e p p e p h h d d d d e w w w w e e d d d d p w i n ( ;.;.( V k h h h h l n n k k h h h n n n n n j l n n n d r < : & o 4 2 z G -.1.8.7.=.z i i i d d i 1 + . . . . . . . o o < d A ( ;.:.;.S n j j d s s w w                                                                                                                                                                                                             ",
"                                                                                                                                                                                                                                                                                                                                                                                                                          , < 2 2 w d w , & - 3 d j j s < % X . . . . . + < 2 w w < & & & , 2 w 2 w i d h j d d i w w w d k k k d 1 , < 2 w 2 2 d k +.5.i.d.d.w.q.7.5.3.>.;.+.S S N n j w 3 2 i d d d f z C D V f 3 - , 2 d d d i i d f f j g c *.r.Z.aXaXtXM.l.j.f.d.d.f.d.d.d.d.d.d.d.a.w.9.9.r.g.m.Z.m.r.*.f 3 4 3 f Z >.7.,.*.*.>.>.>.,.,.,.,.,.,.9.m.uXuXZ.f.7.:.D k w 2 w j n k d d d h l n b h e w w w w w w w d d d d d d j n D ;.:.( A l h h e e e e e e d h h h d s s h e e e e e e e e e e e e e e e e s d d d e w w w w e e e d d d d p w h V ( ;.+.A k d w w w w w d d d d i w w d d h j d d i d i w q < * & % O - 5 z D *.>.8.9.>.V i i i d d d 1 + . . . . . . . . o & 1 j S ;.3.3.;.S n h d d s d d p                                                                                                                                                                                                           ",
"                                                                                                                                                                                                                                                                                                                                                                                                                          , < 1 2 w d w < , , 2 d k k s < % . . . . . . o , 2 w w 2 , & o - < 2 w w w d d d d i w w w w d k k j w < & , 2 w 2 2 w j S -.w.k.h.a.q.7.5.3.3.:.*.( S V n j i 1 1 2 d d f f c D D V f 3 & - 3 d f d d i d f j j g z D 7.c.uXaXuXrXM.l.j.f.f.f.f.d.d.a.r.w.w.w.9.9.9.r.f.m.Z.Z.j.<.z 3 4 3 d V =.,.>.G *.>.,.,.,.,.,.,.,.1.9.n.yXpXrXl.q.:.( n i < < w w w 1 q w r w w r q 1 < < < < < 1 1 1 1 1 q q 1 w j S ;.3.;.S n n h d e e e e e d h h h d s s h p e e e e e e e e e e e e e e e e e e e w w w w e s d s d d d d d i j V ( *.S n w 1 1 < < 1 1 1 1 1 1 1 < 1 1 1 w w w 1 1 1 < < * & & % O o , d V G *.>.9.r.,.C d i i d f d 2 4 . . . . . . . . o X - w n ( 4.3.3.;.S n h h d d d d d                                                                                                                                                                                                         ",
"                                                                                                                                                                                                                                                                                                                                                                                                                          , < 3 2 w d i 2 < < 2 d k k d 1 % . . . . . . o & < w w 2 < & o + , 2 w w w d d d i w w w w w d k k f 2 - & , 2 w 2 w w d n +.0.d.h.d.q.5.5.5.3.:.*.S S A N k d 2 3 2 i d f g V D D V d < + o , 5 d f d d d j j j g g V -.f.rXpXaXyXZ.m.l.j.g.f.f.d.a.w.w.q.q.q.8.8.9.r.d.l.Z.D.n.8.C 5 4 4 2 z K -.=.G *.>.,.,.,.,.,.,.,.7.9.l.tXaXuXm.w.:.D V j 2 , , , , < < < < q < < < > & & , , > : : < < : : : & , 2 n ( 3.>.*.S n n h h e e d d d h h d p e e s p e e e e e e e e e e e e e e e e e e e w w w w w e e s d d h d d d j V ( ( A d < & & & & & & & * : : & & * : < < < < > & & & & & & & o o & 2 z D *.=.<.9.r.7.D j i i d f d 2 , . . . . . . . . o o o < d A +.3.5.3.;.S n h d d d d d d                                                                                                                                                                                                       ",
"                                                                                                                                                                                                                                                                                                                                                                                                                            , < 1 w i d w 2 < 2 d k k d 1 & X . . . . . . o , 2 w w 2 , + o - 3 2 w w w w i w 2 w w w w d k k d 1 & & < w w w w w w j S 3.a.f.d.q.7.5.5.3.:.*.( S A V n j w 3 3 2 d f g V D S N d < o o & 1 d f d d f j j j j g z G 9.M.uXaXuXrXN.m.l.l.g.f.d.a.w.w.q.q.q.8.8.9.9.r.j.M.rXN.y.*.f 3 + 3 g D =.*.H *.>.,.,.,.,.,.,.1.7.9.z.rXaXsXZ.i.;.S A k w < , , < 1 2 w w w w w 2 2 2 2 2 2 2 w w w w 2 1 < & & , f S :.3.:.( A n n h h d d j h h d e e e e e p e e e e e e e e e e e e e e e e e e e w w w w w e e s e d d d d e h V S ( N w & & & , , < , < < < < < 1 1 1 1 1 1 < < , , , , - - - , , 1 f C *.=.=.<.r.d.9.G k d d d j f 5 3 o . . . . . . . . o X & 1 d A *.3.5.3.;.S n k h h h h h h d                                                                                                                                                                                                   ",
"                                                                                                                                                                                                                                                                                                                                                                                                                            , , 3 2 w d d 2 1 2 d k k d 1 & X . . . . . . o & < w w 2 < & o & , 2 w w w w w 2 < 2 w w w d n n h 3 & & < w w w w w w d N *.q.d.d.i.0.5.5.3.:.+.( S S A N k d 2 3 2 i f g V C V k w , X . o < 2 d f f f j j j f f g V ,.l.tXsXaXtXZ.m.m.l.j.f.d.a.a.w.w.q.q.q.8.9.9.9.d.n.Z.Z.l.,.z 3 + 3 d V G G D *.,.,.,.,.,.,.,.1.7.8.f.Z.aXfXtXd.;.S A n j d i i d j k n n n n N V V V V V V V N n n n k k d 3 & & w A :.5.3.( A n n b h h h h d d e e e e e e e e e e e e e p p e e e e e e e e e e e e w w w w w e d d s e e e e b A ( ( n w & & < 2 d d d d d d d h j j j j j j d d d i i w w w i i d j V G =.=.*.>.r.f.r.=.V d d f j f i < + . . . . . . . . o X X & 1 j S *.3.3.3.;.( A n j h j h h d w 2                                                                                                                                                                                               ",
"                                                                                                                                                                                                                                                                                                                                                                                                                              , < 2 w d d i 2 2 d h k d 1 & X . . . . . . . o , 2 w w 2 , & + , 3 2 w w w w < < 2 w w w h n n h 3 & & < w w w w w w w j S >.w.d.d.w.7.3.>.;.*.( S S A N k j i 2 2 i f k V V z f 1 & o . o & 1 d j j j j f j f f f g K r.D.aXsXuXZ.M.m.x.z.f.d.r.r.w.w.w.q.q.q.9.9.9.r.z.Z.rXM.r.Z 3 + + 2 z D D D *.,.,.,.,.,.,.,.,.7.7.r.M.aXjXuXd.;.S A V N N n N V S D ( ( D +.*.;.=.=.=.=.*.*.*.*.+.+.( D V d , + 1 V ;.5.3.;.A n n n j h h j d d e e e e e e e e e e e e e d d p e e e e e e e e e e e d i w w e e d d e w r r e l A ( ( N w & - 2 k C D D C V V V V C C C C C V V C V z z k k k n N V C G *.=.K G -.r.f.r.,.C j d d j j d 3 + . . . . . . . . o X o o & 1 j A *.3.5.3.4.( S n k h h h d i w                                                                                                                                                                                               ",
"                                                                                                                                                                                                                                                                                                                                                                                                                              , < 2 w d f d w 2 d h j d 1 & o . . . . . . . o - 2 w i 2 < - + & , 2 w w w 2 < , 1 i w w h n n h < + & < w w w w w w w d n +.7.d.f.a.7.>.-.;.;.+.( S A V N k j i 2 2 f g z z g i , o o . . o , 2 d j j j f f f d d f C 8.M.aXsXpXrXN.m.x.z.f.r.r.r.w.w.w.q.q.q.9.9.9.r.f.m.D.Z.f.K 5 + + 3 f C C D =.,.1.,.,.<.>.<.,.,.1.9.x.pXjXuXh.:.S A A S S S D G *.:.>.:.:.>.5.7.7.7.7.7.7.7.5.,.>.>.:.=.G k 1 + < k +.3.3.;.S n n j h h h d d e e e e e e e e e e e e e e d d d e e e e e e e e e e e d d p e e e p d e r r r s n S ( ( N w & , d C =.,.<.=.+.+.( +.*.*.*.*.+.+.G G G D S S S S S D D G *.=.K G D =.9.f.d.7.D j d d f f d 1 - o . . . . . . . . X . o o & 1 j A ;.3.0.0.3.;.S n k j h d d i i                                                                                                                                                                                             ",
"                                                                                                                                                                                                                                                                                                                                                                                                                              , < 2 w d f d w w d j j d 2 & o . . . . . . . . + < w d i 1 , & & - < 2 w w 2 , , 3 2 w w h k n d < o + < w w w w 2 w w w j V -.w.f.d.8.,.:.;.*.+.( S S V V N k d 2 2 d g z z f 2 & X . . . o & 3 d j j f f f f d 5 d z >.l.yXsXsXyXZ.m.l.g.f.r.w.w.w.9.q.q.q.q.9.9.9.9.r.l.Z.Z.j.=.f , + 3 d z V D =.,.,.,.<.-.>.>.,.,.,.8.l.uXhXpXj.3.( S S S D ( +.*.>.5.5.3.>.5.7.q.q.q.q.q.q.8.0.7.5.>.>.>.*.C d , , j D >.3.;.S n j h h h h d d d e e e d d e e e e e e e e d d d e e r e e e w e e e e p d p e e e e e r r r e h n S +.( V w & , f G 2.t.t.,.:.*.*.*.=.=.=.=.=.*.*.=.=.*.G D D D G +.*.*.*.K G C C K 7.d.f.9.*.k i i d d i 2 , o . . . . . . . . . . . o X & 1 h A ;.0.i.i.7.;.S n k j d d d i 2 1                                                                                                                                                                                         ",
"                                                                                                                                                                                                                                                                                                                                                                                                                              , < 2 w d d d w w d j k d 2 & X . . . . . . . . o , 1 i i 2 < - + & , 2 w 2 3 - - 3 2 2 i d k j i , o + < w w w 2 2 w w w i k D 7.d.d.w.7.>.:.*.*.( ( S S V V n j w 2 i j k g d < & o . . . . o , i j g j f d d d 5 5 g *.d.rXsXfXaXrXM.l.f.y.r.9.9.q.q.q.q.q.q.9.8.8.8.9.f.m.M.j.,.z 1 + 4 5 f z D =.,.,.,.-.-.>.>.,.,.,.1.g.yXhXaXn.7.+.S S D ( +.+.*.:.>.>.:.:.>.5.7.7.0.0.8.7.7.7.5.>.:.:.-.=.D g 3 - i C ;.3.>.D n j h d d d d d d p p d d d e e e e e e e e e d d e e r e e e w e e e e e e e e e e e r r r e s h V ( *.+.V w & , f G 2.u.r.7.:.*.*.*.*.=.*.*.*.*.*.*.*.G D D D D D +.+.G G D S V V D ,.r.f.r.=.k i w i d d 2 , o . . . . . . . . . . . . o $ & w h S :.0.i.w.7.;.S n j h d d i w 2 2                                                                                                                                                                                       ",
"                                                                                                                                                                                                                                                                                                                                                                                                                                < 2 2 w d w w 2 d j k d 2 & o . . . . . . . . . + < 2 w w 2 , & o - 3 2 2 < & & < 2 2 i d j d 2 & o o < w w 2 2 2 w w w w d V :.q.d.d.q.5.-.:.*.+.( D S S V N k d 2 2 d j f w < & o . . . . o & 2 f g j f f d d i i j D 8.M.aXfXsXtXC.l.f.y.r.r.9.q.q.q.q.q.q.q.8.8.8.8.r.j.m.l.9.G d 4 4 3 d g C =.,.,.,.-.-.>.,.,.,.,.1.f.tXfXaXm.q.*.( D ( D ( ( +.*.*.*.+.+.*.:.>.3.3.3.>.>.>.>.:.*.+.*.*.*.G V 2 & 3 k *.3.>.+.N j h d p e e e p d d d d d d e e e e e e e e e e e e e e e e e e e e e e e e e e e w r r e d h k V ( *.*.A i - , d G 8.u.r.,.*.+.( D G G +.( ( +.G +.D D D D S S D D D D S C V N V D >.r.g.f.,.k w 2 w d d w < + . . . . . X X o o X . . X X % * w n ( 3.q.a.w.7.*.S k j d d d i w w 2                                                                                                                                                                                     ",
"                                                                                                                                                                                                                                                                                                                                                                                                                                < < 2 w w w 2 2 d j k d 2 & o . . . . . . . . . o & < w w 2 < & o & , 2 2 , + + , 2 2 d f j d < + o o , 2 w 2 2 2 2 w w 2 w j S 5.a.h.a.0.5.>.;.;.*.+.D S A V n d w 2 2 i w 3 & X o . . . . . o < d j g j f f d d d f V >.z.yXfXfXpXD.x.g.f.d.r.r.w.q.q.q.q.q.8.8.8.8.7.8.f.l.m.g.<.z 3 4 3 6 f C =.,.,.<.-.-.-.,.,.,.,.,.f.tXfXsX#Xd.>.+.( ( D D D D +.+.( ( ( ( *.:.:.:.;.;.;.;.*.+.D S D ( +.+.C d & , j ( >.3.*.V j d d e e e e e d h h h d d e e e e e e e e e e e e e e e e e e e e e e e e e e w w e d d h h k n S *.*.S d , - d Z 8.u.r.,.D D S S S S D S D D S S S S D D S S S C C C V V V N V S =.9.j.j.7.V i 2 w d d w < + . . . . o X X X X o . . . o X & < w n ( 3.w.a.w.7.*.V k j d d d d d d i                                                                                                                                                                                   ",
"                                                                                                                                                                                                                                                                                                                                                                                                                                , < 3 2 w 2 2 2 d j k h 2 & o . . . . . . . . . . o , w i w 2 , + o , 3 3 , + + , 2 2 d j j i < o o o , 2 2 3 3 2 2 2 2 2 w d V ;.w.k.h.a.q.5.:.:.;.*.( S A V n j w 2 3 3 < - o o . . . . . . o , 2 j k k j f d d d f N *.r.Z.aXfXsXtXM.l.j.g.f.d.r.w.9.q.q.q.8.8.8.7.7.8.r.l.M.n.9.D 5 3 4 3 5 V *.>.<.-.=.=.-.<.,.,.,.,.u.rXfXhXuXl.7.:.*.( ( D D ( ( D S S S D +.*.;.*.+.( +.+.( S S S S S +.*.D j , & i D :.3.;.S k h d e e e w e d h h h d d e e e e e e e e e e e e e e e e e e e e e e e e e e s d h h h h h k n S *.;.S d , - 5 Z 7.u.r.>.D S S S V C S S S S S S S S D D D S S V V V V V N N N C *.9.z.z.7.C d w i d d i < o . . . o X $ % % % X X o X o X & & < w n +.5.w.s.w.>.D N k j j j j j j h h                                                                                                                                                                                 ",
"                                                                                                                                                                                                                                                                                                                                                                                                                                  < < 3 2 2 2 2 d j k d 1 & o . . . . . . . . . . o , 2 i i 2 < & o & < < , + & , 2 w d j j i , o o o < 2 2 3 < < 2 2 2 2 2 w j S 5.d.v.j.a.7.>.>.:.;.+.D S V n k d w < , & o o . . . . . . . . + 3 d n n k j f d d d g S ,.l.uXjXjXpXD.m.x.l.j.f.d.r.w.9.9.9.9.9.8.7.7.8.r.l.Z.M.d.;.g 3 4 3 2 k G =.-.=.=.=.=.-.<.,.<.,.r.Z.fXkXfXZ.9.>.;.( ( ( ( ( ( S S A A D ( ( +.( ( S ( ( ( S S S S S +.*.D k 2 & 2 V ;.3.:.( N h d e e e e e d h h h h h e e e e e e e e e e e e e e e e e e e e r e s s e e d j k n h h h h n S *.;.S j < & 5 C 2.f.r.,.G S S A V C S S V V A A S ( ( ( ( S A V V C V V V N N C *.8.g.g.8.D j w i d d i < o . . . o O & & & & & & o X o o X % & 1 w n *.7.i.r.7.;.S N n k k k j j j h j                                                                                                                                                                               ",
"                                                                                                                                                                                                                                                                                                                                                                                                                                  , , < < < 1 2 d j j d 1 & o . . . . . . . . . . . + < w d w 2 , o o - , , & & < 2 w h j h w , o o o < 2 2 < , < < 2 2 2 w w d n *.w.v.b.d.q.5.>.:.;.*.D S V n k j d 2 , & o o . . . . . . . . o , w j n n j j d d d f N *.r.rXjXlXfXtXZ.m.x.l.g.f.d.r.w.9.r.9.9.8.7.7.8.r.z.N.N.j.7.C 5 4 4 3 j D *.=.*.G G K =.-.>.>.,.9.m.sXxXkXtXr.>.;.+.( ( ( ( S B m m / / ) ) ` ` / F A S ( +.*.+.D S G *.+.V i , 3 n +.>.>.+.V h d e e e e e e h h h h h d e e e e e e e e e e e e e e e e e e e r e s d s s d h k n h h h h n S *.;.D j < & 2 V ,.f.y.,.+.S S A V S C V N n m / / ` ) ) ) / / m N V S S V V N V G 5.r.d.8.+.k i i d d w < o . . o X & & & & : , , - & o o o X & * 1 i N *.7.w.q.>.+.S S V n k n n n n k                                                                                                                                                                               ",
"                                                                                                                                                                                                                                                                                                                                                                                                                                    , , , < 3 2 d j j d 1 & o . . . . . . . . . . . + , 2 i i 2 < & o o - , - - 3 w w j l h w , o o & < 2 2 < , , 3 2 2 2 w w w j D 7.h.v.h.w.7.3.:.*.+.D S A n n k d w 3 , & o . . . . . . . . o & 1 d n n k j d i i d k S 7.M.fXlXjXaXZ.m.m.l.l.g.f.d.r.r.r.r.9.8.7.7.8.9.g.M.Z.n.r.*.f 3 4 3 d V G *.G G D G K =.=.=.>.8.l.uXlXlXyXa.>.*.+.D S S S n M ^ ^ _ o.o.O.O.o._ ' M m S ;.>.:.+.D +.*.*.S j , , h S :.3.;.A j d e e e e e e d h b b h d e e e w e e e e e e e e e e e e e e e e e s d d d d h h h h d h j n S +.;.D k 3 + 3 z ,.y.d.7.*.D S S S S V n b ^ ^ _ o.o.&.&.o._ ' ^ m V S D S V V V D :.8.r.q.:.V d w d d w , o . . o X & & & < < < < < , & o X X % & & < d V *.7.q.7.-.*.( S S N N N A V V V                                                                                                                                                                             ",
"                                                                                                                                                                                                                                                                                                                                                                                                                                    - , , , < w d j k d 2 & o . . . . . . . . . . . . + < w i w < & o o & , & , 3 w i j l h w , o X & , 2 2 < , , < 2 2 w w w w d N ;.w.h.g.d.q.5.:.*.+.D S A N n k j j d i 2 - o . . . . . . . o o , w h n n h d i i d j V =.g.uXkXlXfXrXM.m.m.x.z.g.f.d.r.r.r.9.8.7.7.8.9.g.M.Z.N.g.>.z 3 4 4 5 k S G G D D D D G G *.-.7.f.tXkXlXuXd.:.+.( S S S N b u ! { ..R.R.E.E.U...{ W M S :.7.7.:.+.+.*.*.D k < & w V *.>.;.S n d e e e e e e d h b h h d e e e e w e e e e e e e e e e e e e e w e d d d d d d h d d d d d h A ( *.D k 2 + , g -.r.d.9.:.D S S S V n h a W { ..R.R.E.E.R...} ! ^ m S +.+.D V V S *.5.9.w.,.S d w i i 2 < o . . o X & & < 1 1 1 1 1 1 < & o O X & & & < h S :.7.7.3.>.;.*.D S A S S S S V N                                                                                                                                                                           ",
"                                                                                                                                                                                                                                                                                                                                                                                                                                    - , , , 3 w d k k j 2 & o . . . . . . . . . . . . o , 2 i i 2 < - + o & & , 3 w i h j j w , + o & , 2 2 < , , < 3 2 w w w w i j S 5.a.h.d.w.7.:.*.( S S S A n n n N V n j 2 & o o . . . . o o X & q b m m n h d i d f k D 9.Z.jXxXjXyXN.m.m.m.l.z.g.f.d.d.r.r.8.8.9.9.r.j.N.rXD.l.1.V 2 + # 3 f z C D G D C C C H *.-.1.d.rXjXlXuXd.;.D S S S A n e T Q ..U.E.(./.~.W.T. .~ a S >.q.q.>.*.+.*.*.D z 1 + < k ( :.;.S n d e e e e e e e d h h d d e e e e e e e e e e e e e e e e e e e e e p d h d d e e e w w e e d n S *.D N 2 + - f *.9.f.r.5.( S S S V n s u !  .U.W.(././.~.Y.H.{ W m ( ;.*.( C V V D >.9.r.8.G f 5 w w 2 < & o . o % & & < 1 w w w w w 2 < , & o & & & & 2 j S ;.3.>.:.;.;.+.S S S ( ( S V N k                                                                                                                                                                         ",
"                                                                                                                                                                                                                                                                                                                                                                                                                                    - , , < 1 w j n k h 2 & o . . . . o o . . . . . . . + < w d w 2 < & o + + , 3 w w d j d 2 , - , , < 2 2 1 < < < 3 1 2 w w w w d N *.q.d.d.r.7.:.+.D S S S S V V S S ( S V j 3 & o o . . . o o X & q a ^ ^ ^ n h d d f g V >.l.sXxXlXsXtXZ.Z.N.m.m.l.l.l.l.j.f.r.y.f.f.j.n.Z.tXZ.z.,.z 3 + # 3 5 f N C D D S C C G *.-.,.r.Z.fXkXuXf.:.S S S S A n s T { ..R.(./././.W.Y...! M S >.w.w.5.*.( ( *.+.V 5 & - d S ;.;.( N j w e e e e e p d h h d d e e e e e e e e e e e e e e e e e d d p e e d d d d e e e e w w e e n S *.( V i & + i G 8.f.d.7.( S A V V k s u ! ..U.E./././.~.Y.H.{ ^ / *.>.>.+.S V V D -.9.d.9.*.g 2 2 w 2 < - + o o & & : < w w w w w i w w 2 , & o o o & , w n ( *.*.+.+.*.+.S S S ( D C N n k k                                                                                                                                                                       ",
"                                                                                                                                                                                                                                                                                                                                                                                                                                      , , < 2 i j n k d 1 & o . . o o o o X . . . . . . o , 2 i d w 2 , & o + , < 2 w i d w < , < 2 < 3 2 w 2 < < < 3 1 2 w w w w i h S >.w.d.a.7.:.+.S S S S S S S S ( *.*.( N d < o o o . . o X $ = 0 W ' _ ' m j d d d f k G d.uXlXxXlXsXuXtXrXrXZ.N.N.Z.Z.N.l.j.l.x.m.m.N.Z.#Xm.y.=.g < + 4 3 6 d g V D D D C D G =.>.,.r.N.fXjXuXf.>.S A A A A n b W ! o.R.E.(.(.(.E.R.o.' / ( 5.w.q.>.+.S D *.*.S d , & i V *.:.*.V j i e e e e e d d h h d d e e e e e e d e e e e e e e e e e d d d d p h h d e e e e w w w r e n S *.+.V d , o 2 D 7.f.f.q.+.S V V n k h a ! } R.E.(.(.(.(.R.O._ ^ ( :.>.>.*.S N N S :.9.f.r.=.z i 2 2 2 3 , + o X & & < 1 w w e d d d d d w 2 , & o o o & < j A S S A S S S A A A S V n k k k k                                                                                                                                                                       ",
"                                                                                                                                                                                                                                                                                                                                                                                                                                      , , < 2 i j k j w < o o . . o o o X o . . . . . . o & < w d d w < & & o , < 2 w w w 2 , , 2 w w 2 2 w 2 < < < 3 3 1 2 w w w w d n *.7.d.d.q.>.*.( S S S ( ( ( ( *.;.:.;.( n w & X o . . o X $ = y W ' _ ' m n f d d d j C 7.Z.fXzXzXlXsXpXuXyXtXtXtXtXyXrXB.n.m.N.Z.N.N.N.n.d.,.C 5 , , 3 5 f f f z C D D D H *.-.<.,.r.M.sXjXuXj.>.D V V A A N n m ^ _ %.$.p.'.$.$.&._ / ( *.5.8.7.;.D S S +.*.D k 3 + 1 n +.:.;.S k d e e e e e d d h h s d d e e e e e e e e w e e e e e e e e d d d e s h s e e e w w w w r e n S ;.*.S h , o 1 C 5.d.f.q.*.S V V N k h b ^ _ o.%.$.$.$.$.&._ ' / +.:.>.:.+.S N z C =.9.f.r.<.C d 2 2 2 3 , o o X & * < q r w d h h h h h h i 2 , o o o o < d n N n n k n n n n k k j j d d j j                                                                                                                                                                       ",
"                                                                                                                                                                                                                                                                                                                                                                                                                                        < < 2 w d d w 1 & o . . . o o o o X o . . . . . . o - 2 d d w 1 , & + - < 2 w w 2 < - , 2 i w 2 2 w 1 < < < 3 3 1 2 w w w w w h S >.i.d.a.0.>.+.D D D ( ( +.+.*.;.>.3.;.S h 1 & o . . . X = 9 y T W ' ' A n j d d d f z =.g.pXxXzXlXfXaXuXyXyXtXrXtXyXtXB.b.n.m.M.n.l.g.w.>.C d 3 3 2 7 g z z g g V C D D G K =.-.,.9.m.aXfXuXl.,.D V N N V A A A / ) 4.4.e.e.4.` ` ) ( +.:.,.,.:.+.S S S +.;.+.N 2 & , j D :.:.( n d e e e e d p h h s e d h h e e e e e e e e e e e e e e e e d d d e e s e e e e w w w w r e n ( ;.;.S j < o < V >.d.f.q.*.S V V N k j n m / ) ` 4.4.4.` ` ) / ( *.=.:.*.S V N k V ;.8.f.f.7.D j 2 2 2 3 , o o X & * q q r e h h b n n n k j i 1 - o o o , i n n b d w w i i w w w w 2 w w w d                                                                                                                                                                       ",
"                                                                                                                                                                                                                                                                                                                                                                                                                                        < < w w d s 2 , o o . . o X & & & O X o . . . . . . + 3 d d w 2 < & o & < w w w 2 < - , w d w 2 2 w 1 < < < 3 3 3 2 w w w w w d n *.q.d.f.a.7.;.( D ( +.+.;.+.+.;.>.5.3.;.N w , o o . . X = 9 y u W ^ / B n j d d d d j S 8.#XjXxXhXuXtXrXZ.N.B.m.N.N.B.j.d.d.f.f.f.r.7.*.V d 1 3 2 d g V Z H C z z V Z D H G =.-.-.7.l.uXsXuXn.8.+.V N N A A A A S ( ;.:.3.;.;.( ( S S +.*.:.*.+.S S C S +.*.+.V i & & i S ;.:.( N h d d d d d p d e e e d h h d p e e e e e e e e e e e e e e s d d e e e e e e w w w w w r e j S ;.;.S k 1 & < n -.a.f.9.*.S A V N n k k N A S ( ( ( ( ( S S S D G *.+.D S V N z V *.8.f.g.r.=.k 2 2 2 3 , o o X % * q q r e h b l n n n n k j w 1 & o o , w n n d r 1 1 q q 1 < < < < < < 2 2                                                                                                                                                                       ",
"                                                                                                                                                                                                                                                                                                                                                                                                                                          1 w w s w < & o o . . o o & & & & O X o . . . . . + , 2 i w 2 < - & & < w d d w < , 3 i d w 1 2 w 1 < , < 3 3 2 2 w w w w w w j S 5.a.h.d.q.-.+.+.*.;.;.;.*.+.*.:.5.7.>.S j < o X . . . $ 9 t y u a m n n j j d d d f N >.l.pXsXyXm.l.j.f.d.d.a.a.d.a.q.5.,.5.5.>.=.D k d 3 3 5 f z C G =.-.K C z z C Z D G K =.=.<.f.rXaXuXN.r.*.S V V A A A A S S +.;.;.*.( S S C S D D +.D S S A A S D *.( V d , & 2 V ;.:.+.A n h d d d d p e e w e d d h d d d d d e e e e e e e e e e e s d s e e e e d e w w w w w w e h A +.*.( n w & , k ;.w.d.q.*.S A A N n n n N V S S D D D D D S S D D D D S V V N z V G 1.y.g.d.>.V i 2 2 3 , o o X % * q q r s h b n n V V V n n j w < & o , w j l d w < < < < : & & - , , < < 1                                                                                                                                                                       ",
"                                                                                                                                                                                                                                                                                                                                                                                                                                          2 w d w 2 , & o o . . o o & < , & & X o . . . . . . + 3 w w w 3 , & & < w d d w 3 < w d d 2 1 1 w 1 < , < 3 1 2 2 w w w w w w i N *.q.d.d.w.3.;.*.*.;.;.;.;.;.*.;.3.5.3.+.n w & o . . . $ 9 9 t y u b n n k j d d d d g K r.N.Z.j.8.5.>.-.:.*.*.*.;.*.( S C C C V k d 2 < 3 5 f z C G =.,.1.<.K C z c C Z Z G G G =.r.M.uXpXrXf.>.D S A A A A V A S ( *.*.*.( S S C V V S S S S S S S S D ( D V d , & 1 n *.;.+.S n k h j d d e e w w w e d d d d d d d p e e e d d d e e e e d s e e e e d d e w w e e e e e d n S *.+.N w & , f +.q.d.w.:.D S A A N n V V V S S D D S S S S C C C C C V V V N N V D <.r.j.f.7.V i 2 2 1 , o o o $ & * q r h b n n A A S A A n n d 2 , & , w h h w 1 < < * & & & & & , , < 1 1                                                                                                                                                                       ",
"                                                                                                                                                                                                                                                                                                                                                                                                                                          w w w w < & o o o . . . o , < < < & & X . . . . . . + , 2 w w 2 < - & , 2 d d w < 2 d d w < < 1 w 1 < , < 1 1 1 2 2 w w w w 2 w j S 3.i.d.s.q.>.:.:.:.;.;.:.:.;.;.:.3.3.;.S j < o . . . $ = 9 9 9 0 e h l j j d i d d g D 7.d.d.,.D V V N n k k k k k j h d d i w 2 < , , 2 f z C H =.<.1.8.8.,.K C z c C Z H Z Z G 2.l.yXsXuXl.5.( S S S S S A S S ( +.+.( ( S S S V V S S D D D S S S S S S N f 3 & < k ( ;.*.( A n j h d d e e w w w e e d d h h d d e e e e d d d e e e p d d e e e e p d p w w e e d d d e h A +.*.A d , - d D 7.w.w.>.+.S A A A V V C S S S S C V V S S S S S S C C V V V V V D >.r.g.f.7.S d 2 2 2 , o o o X & * q r h b m B A S S S A n n h i 2 , , 2 d d w 1 < * & & & & * : < < < 1 q                                                                                                                                                                       ",
"                                                                                                                                                                                                                                                                                                                                                                                                                                          w w w 2 , & X o . . . . o , 1 2 1 , & X o . . . . . . + < 2 w 2 3 , - , 3 w w 2 < 2 d d w < < 1 2 1 < , < 1 w 2 1 2 2 w w w 2 2 i N *.q.d.h.a.7.3.>.:.;.;.;.:.:.;.;.:.>.:.( n w & o . o X % 9 9 9 9 q e j j f d i i d j Z -.5.>.D j d w w w 2 2 w w w w 2 1 < < , , - - 3 f z Z H L <.,.8.9.r.t.,.G z z c C Z C C G ,.g.tXfXsXm.7.+.S S S S S S S S ( ( ( ( ( S S S V V S S D D D D ( ( D S S N j 2 - , d A ( *.+.S n j d d p e e w e w e e d d h h d s e e e d d d d e e e d d d e e e e e e e w w e e d d w w d N +.;.S d < - 2 V >.9.9.5.*.S S S S S S S S V V V V V V C C S S S C V V V V V C C D =.8.f.f.7.D f 2 2 2 < + o . X & * q w h n m A S S S S A n n j j i 1 , < 2 w 1 < < & & & & * * * < < 1 1 q                                                                                                                                                                       ",
"                                                                                                                                                                                                                                                                                                                                                                                                                                            w 2 < & o o o . . . . o - 1 w w 1 & & X . . . . . . o , 2 w w 2 < , - , 2 2 < , 2 d d 2 , , < 2 < < < 1 w w 2 1 1 1 w w w 2 2 2 j S 5.d.j.h.a.7.3.:.;.*.*.;.:.;.+.*.;.:.*.S f < o o o X $ = 9 9 = < w d j f d i i i j C *.:.G N d 2 2 2 3 3 < 1 2 2 1 3 < < , - & , 1 f z C H =.<.1.2.8.r.y.u.t.-.C g z C C C Z G <.u.tXhXfXM.7.+.D D ( D S V V A S S S S S A V N n n V V S S S S ( *.*.D S V k i , - 2 n ( ;.;.D n h d i w w e e e e e e s d d d d e e e e d d d e e e e d d d e e e e w w w w r e e d d w w w n +.;.( h < & 3 z =.8.9.7.;.( D D S S V V V N n k k k k z V V V N N N k n N V S D D *.7.r.d.7.G g i w 2 < + . . o & & 1 w h n m A S S S A N n n n k j i 3 < < < < : * & & & & * * * < < 1 1 q                                                                                                                                                                       ",
"                                                                                                                                                                                                                                                                                                                                                                                                                                            2 < , & o o o . . . . X & < w w w < & O o . . . . . . + < 2 i w 2 < - & , , , , 2 h d w , , < 1 < < < 1 w w w 1 < 1 1 w w 2 1 2 i N :.r.j.b.k.w.5.:.;.+.*.;.;.;.+.( *.:.;.( k 2 & o o X $ % = = = * < i f f d i 2 i j C *.*.D k i 2 1 1 3 3 3 1 2 1 3 < < < , - , 1 f c Z G =.<.2.8.8.9.r.y.f.u.2.G z z c C C Z G =.r.rXhXfXM.7.+.D ( ( S V k j h j k k k k j j j h h j j k k k V D -.>.=.G S N f < + < j D :.:.+.N d w w w w w e e e e e e s d d e e e e e d d p e e e e e d e e e e e w w r r r e e d w w 1 w n ;.:.( j 1 & , j *.7.9.0.:.+.+.D S N k j j d d d d d d d f f j j d d d d j N S G D G >.8.r.8.*.N d d 2 < + . . o O & 1 r h b m A S S A A n n N N n k j w < & & & * : : & & & & * & & , < 1 q                                                                                                                                                                       ",
"                                                                                                                                                                                                                                                                                                                                                                                                                                              - & o o o . . . . . X & < w w w 1 & & o o . . . . . + , 2 i w 2 < , & & & & , w j h w , - < 1 < < < < w w w < < < 1 w w 2 2 2 w j D 7.h.l.j.i.7.>.*.*.*.;.*.+.( D +.;.:.+.N w & o o & & & & $ $ & , i f f d i 2 i j S *.*.D k w 2 3 1 1 1 3 1 3 < < < < < , & , d C K =.-.<.1.9.t.9.t.r.r.u.u.t.<.C z z C Z Z H L 9.Z.fXsXM.7.+.D ( ( V j w 2 1 2 2 2 2 2 2 1 1 < < 1 2 2 2 2 f D >.0.7.=.D C j 2 & , h D :.>.*.N i 2 w w w w w w e e e e e e e e r e e d d d s w w w e w e e w r r r r r r r r e e w w q 1 w V :.3.( n 1 & 3 f G 7.9.8.>.+.G D V j i 2 3 < < < < < < < < 3 3 < < < < 3 2 j C G G G =.7.9.8.>.S j d 2 < + . . o X & < w h n m A A A N n N A A V n n k d 2 & & & & * < < < , & & & & , < 1 1                                                                                                                                                                       ",
"                                                                                                                                                                                                                                                                                                                                                                                                                                              & o o o o o . . . o o & < w w w w < & o o . . . . . . & 3 w w 2 3 , - & & & < i j j w < & < 1 1 < , < 2 w w < , < 1 1 w 2 2 2 w d V :.r.j.j.d.q.3.;.*.*.*.+.( S D *.:.:.+.N w - & , < < < & % X X , 2 d d d i i i j S *.*.S j w 2 1 1 1 1 3 3 3 < < < < < & & < j G ,.8.8.7.9.r.t.t.t.r.r.y.u.r.2.K z z c Z Z H H 2.M.aXaXm.8.*.D S A k 2 , o o o + & & & & o o o o & + + + & 2 C >.8.8.,.*.S k w - - d S >.>.*.V d 2 2 w w w w e e d d d e e e r r e e d d d d s w e w w e w w w w w w r r r e w w w w w w d S >.3.+.n w & - d D 1.9.9.>.G D C k i , + + o + o o o o + o o o o o + + + < d N D G G *.>.8.8.,.G k d 2 3 - o . o X & * q d l n n n n n n N A N n n n n h w , & & & * < < < < & & & & , < 1 2                                                                                                                                                                       ",
"                                                                                                                                                                                                                                                                                                                                                                                                                                                  o o o o . . . o o & & q e d w q < & o . . . . . . o , 2 w w 2 < , - & & 3 d k j w < * < q 1 < , < 1 1 1 < , , < 1 w 2 2 2 w w k D 7.d.j.h.w.5.:.*.*.+.( S S ( ;.:.;.( n 2 , < w d w 2 , & X o & 3 i d d d i i k D *.+.V j w 2 1 1 1 1 1 1 1 1 < < < < & & < g *.9.y.y.r.r.r.r.t.t.t.r.r.y.u.t.,.H z z C D H G ,.x.uXuXM.9.=.D S n w , o . . . o o o o o o o o o o . . . . < k ;.8.9.7.:.D V d < & w S ;.>.:.D n d d j j j j j n n n n b h b b b b n n n n n n j k k j h h h h h h h h h h d d h d d h h n S >.3.+.n r , - d D ,.r.r.,.G C z d < o . . . . o o o o o o o . . . . . . + 1 j S *.=.*.>.8.9.8.=.V f 2 < - o . . o X & 1 w b n n n n n n n n n n h h h d w < & & & * < < < < ; & & : < < 2 2                                                                                                                                                                       ",
"                                                                                                                                                                                                                                                                                                                                                                                                                                                      o o o o o o o o & 1 w d d w < & o o . . . . . o & < w w 2 2 < , & - 2 j n j w < * < q q < , < < 1 1 < , , < 1 w w 2 2 w w d N ;.w.h.h.a.7.:.*.+.( S S ( *.:.:.+.V d 2 2 d j k j w < & o o o , 2 d j j d d k D *.+.V j w 2 1 1 1 1 1 1 1 1 < < < & & o , f K 9.g.l.z.f.u.r.r.r.r.r.r.r.u.u.t.<.Z z C Z H H <.l.yXuXM.r.>.D V d , + . . . . o o X X X X o o X o o . . . & d G 7.r.9.5.*.S j 2 - w n +.:.:.*.S N n V V V V A A A A A A A A A A S S S S S S S A V V V V V V V V V A B N n n n n n n N A S ( :.:.( n w , & 5 Z 1.r.r.,.G V j 2 - . . . o o X X X X X X X o o . . . . o , d C *.>.=.>.8.r.9.,.D j 2 3 - o . . . X & < w d l n n n n n l b h h d e e e w 1 - o & & < < < < < & & < < 1 2 2                                                                                                                                                                       ",
"                                                                                                                                                                                                                                                                                                                                                                                                                                                              o o X o & < w d h w 1 & & o . . . . . . o , 2 w w w 2 < , , 2 j n n e < : < w w 1 < < < 3 3 < , , < q r w w 2 2 w w j D 5.r.d.w.7.>.*.( S S S +.;.:.+.A j w w j k n n j i 2 , & o o , 2 d j j d d k D *.G V h w 1 1 1 1 1 1 2 2 1 1 < * & % X & i C 1.f.c.m.l.f.u.u.u.u.u.u.y.u.f.z.r.-.C z C Z H -.g.rXyXZ.f.,.+.N w + . . . o o o & & & & & & , & & o o . . o 2 C ,.r.r.7.:.D k w , 1 j S *.:.*.( S S S D D S D D D S S S S S ( ( ( ( ( ( ( D S S S S S S S S S S S S S S A V A A A A S S ( ( +.( A h w , + 2 C ,.r.y.7.G V f 3 + . . o o & & & & & & & & & o o o . . . + 2 V =.,.,.,.8.r.r.8.*.k 2 < , o o . . o & , 1 w h j n n b h d e e r r r r r w 1 , & & & : < < < < & * < 1 2 2 3                                                                                                                                                                       ",
"                                                                                                                                                                                                                                                                                                                                                                                                                                                              o o o & & , 2 d h i 1 < & o . . . . . . o & 2 w d w 2 < , , 2 j n n e < : < w w 1 < , < 3 3 < < , < q r r w 2 2 2 w d N *.7.w.w.q.3.;.( ( ( ( ;.:.*.S k i i j n V V n j d w < , o o & 3 d j j d d k D *.D N d 2 1 1 1 q q q w w q 1 < : & $ X o < g =.r.c.M.m.l.f.u.f.u.f.u.u.f.z.l.z.t.=.c z C H =.u.Z.rXZ.j.8.*.N 2 o . . o o & , < < < 1 1 2 1 1 < & o o . o < z :.9.a.w.,.G N d < < w n S ( ( S V V A S S S S S S S S S A S S S ( S S S S S S S S S S S A A A A S A A V V n n n N N V A S S V N h w 1 & + 2 C ,.y.d.7.*.V j 1 + . . o & , < < < < < < < & & o o . . . + 2 N =.7.7.,.8.r.f.9.=.z i 1 < & o . . o & < 1 w p h h h d w r w q q q q q q w 1 < & o & & < < > * & * < 1 1 < <                                                                                                                                                                       ",
"                                                                                                                                                                                                                                                                                                                                                                                                                                                              o o & & & & 1 w h d w < & o o . . . . . . o < w i w 2 3 < < 2 j n k w < * < q w 2 < , < < 1 1 < < < q r r w 2 2 2 w w j S :.8.r.w.7.>.*.( ( ;.:.;.D n d d k V A S V n j d w 2 < & + + < i j j f f k D +.D k w 1 < 1 q q q r r r q q < < & $ X X & 5 C 2.z.m.C.c.z.z.f.f.f.z.f.f.z.c.m.x.t.H z c Z L t.x.Z.Z.l.r.=.V 2 o . o o & , 1 1 1 2 w w w w 2 < & & X . . , f *.8.d.r.7.+.V d < & 1 d k N n n j h k k k k k k k k k k k k n n n n n n n n k k k k k k k j j j k k k j j h h h j j j j k j h w w < * & o 2 C ,.d.f.8.*.V j 2 + . . o , < 1 1 1 1 1 1 < , & & o o . . o 3 k ;.7.8.1.7.r.f.r.>.V d 2 < - o . o X & < w w w w w w w w 1 1 q 1 < 1 1 q w w 1 & o & & & , * * * * < 1 1 < ,                                                                                                                                                                       ",
"                                                                                                                                                                                                                                                                                                                                                                                                                                                              o o & & & & < w d h w < & o o . . . . . . o - 2 w w 2 2 < < 2 h n j w : & > 1 w 1 < < < < 1 1 1 < < w r r w 2 2 2 2 2 w k D 5.a.d.w.7.:.*.;.:.:.*.V j i k S D S S N k j j d i 2 , + + , 2 d j j j k D +.S j 2 < < q q r r u u r r q q < * $ o o o < g K t.l.C.A.c.z.z.f.f.f.z.z.l.m.D.D.x.1.C z C K 2.g.M.Z.m.f.,.V 2 o o o & , < 1 1 1 2 2 2 2 2 2 < & & X . . + i D 5.a.d.7.+.V f < & > 2 w d s w w w w w w w w 2 2 2 2 w w w w w w w w w w w w w w w w w 2 2 2 2 2 2 2 w 2 1 < < 2 2 2 2 2 2 < < * & & o o 1 V ,.a.f.9.=.C j 2 + . . o & < < < < < < < , - & + o o . . . 3 j *.7.8.7.1.r.u.r.,.C f w 1 , + . o o - 1 w w w w q 1 < < 1 1 1 1 < 1 1 1 w w 1 , & o & & & * * * * < q 1 < &                                                                                                                                                                       ",
"                                                                                                                                                                                                                                                                                                                                                                                                                                                              o & & & & & < w d j d 2 , & X o . . . . . o o < 2 w 2 2 3 3 2 d k j w * & & < 1 1 1 < < 1 q q 1 1 1 w r r w 1 2 2 2 3 2 d V :.9.d.d.w.3.;.:.3.:.( n i d V +.*.( S N k k k j d w 3 , + - 3 d j j j k S G C f 1 < 1 q r u u T T u y r q < * & o o o - 2 c -.u.c.A.C.c.z.z.f.z.z.l.c.C.tXuXD.f.=.V C G <.r.m.Z.Z.l.7.C w & o o & , < < < < , < < < < , - & o X . . o 2 V >.a.d.7.+.V j 2 & & , < 1 < < < > > - > > & & & & & & & & & > > > > & & * & & > & & & & & & & & & & & & & & & & & & & & & & o $ $ X o o 1 V >.r.d.9.>.D j 2 & . . o o & , - & , - & & & o o o o . . . - f D ,.9.8.,.8.r.t.,.G z d 2 , o . o o , 2 w w w 1 < & , < 1 1 q q q q < 1 2 w 2 < & X O & & * * * * < q q < &                                                                                                                                                                       ",
"                                                                                                                                                                                                                                                                                                                                                                                                                                                              o & & & & & & 1 w h d w < & & o X . . . . . o & < 2 5 2 2 3 2 d j h w & % % & < 1 1 1 < 1 q q q 1 1 w r w 1 1 < 2 2 < < 2 k +.7.a.h.a.0.3.>.3.:.D j 2 d S ;.>.*.S N k k k k k d w < & + < i f j j k S G C f 2 1 1 r r a ! { [ Q T y q < * % o o o + , d C 2.z.Z.Z.A.l.z.z.z.z.c.m.C.rXuXyXm.9.D z C =.9.x.rXrXm.8.D d , o o o & & , & & & & & & & & o o X o . . o < N >.r.d.7.*.C k 2 , o o & & & & & & o O O O X X X X X X o X X X X X X X X X X o o O O X X o o o o X X X X X X o o o o O X X X X X X X o o < k ;.8.r.9.>.D k w , o . o o o o o o o o o o o o o o . . . . + d D ,.9.9.,.2.9.9.1.=.C f 2 , o . . X , 2 w w 2 < & & & , < 1 q q q q < < 1 w 2 < & X X o & * * * * < w q < &                                                                                                                                                                       ",
"                                                                                                                                                                                                                                                                                                                                                                                                                                                              o & - > & & & < w d j d 2 , & O o . . . . . o o , 2 5 2 2 1 2 d j d 1 & % X & < 1 w 2 2 2 w q q 1 1 w w w 1 < < < 3 < , < d V :.q.d.d.q.5.5.3.*.V d < i V ;.3.>.+.V N N N N k j d 2 , + , 2 d j j k C D V f 2 1 q r u W } U.U. .Q u r q * % X X o o & 3 f *.f.C.D.Z.m.z.z.z.c.A.C.A.Z.yXpXrXj.-.c c G 2.x.rXtXM.9.D j 2 + o o o & & & & o O o o o X o o o . . . o < k =.r.f.9.>.D N d , + o X o o o X o o o X o o o o o o o o o o X X o o o o o o o o o o o o . . . X o o o o o o o X o o X o o o o o o o o o , f D 7.r.9.,.G N d < o o . o o o o o o o o o o o o . . . . . + 2 V >.9.9.,.,.2.8.8.<.G g 2 , + . . o & 1 w w 1 < & & & & < q q q q q < < < q 1 < & o o O & & * * * 1 w w 1 &                                                                                                                                                                       ",
"                                                                                                                                                                                                                                                                                                                                                                                                                                                              o & , , & & & & 1 s j f w < & & o o . . . . . o & 3 2 w 2 2 w d j d 1 & % X & , 1 w w w w w 1 1 1 1 1 w 1 1 < < < < < , < 2 j S >.w.a.a.q.0.>.+.n 2 , 2 N *.3.5.:.D V V V V N k j w < - - 3 i d d j C D V f 2 1 q r u ! ..W.W.U.X.T r q * % o + & + & , 2 C 8.c.D.rXZ.c.l.l.c.A.A.c.c.D.pXuXZ.t.G z C ,.c.yXuXZ.r.*.k i - o o o X $ % & & % O X X X o o o . . . o , j *.9.f.r.7.*.C j 3 + . . o o o o o o o o o + o o o o o o o o o o o o o o o o o o o o o o o o o o o o o o o o o X X o o o o o o o o o X X - i C >.8.9.7.*.V f 2 & X o o o o X X X X X X X X o o . . . . o 3 z *.7.9.,.<.1.9.r.8.=.z 2 , + . . o & < 2 2 < - & & & & < q q q q q : : < < 1 1 - o o X % & = * : 1 r w < -                                                                                                                                                                       ",
"                                                                                                                                                                                                                                                                                                                                                                                                                                                              o & , , & & % & < w j j d 1 - & o o . . . . . . o , 1 2 2 2 w d j d 1 & % X O & < w w w w w 2 1 < < 1 2 1 < < , , < , , < 2 d N *.7.d.h.d.w.>.D j < , 2 j S -.7.5.:.D S V V V N n h w , , , 2 2 i j V C N d w q q r u ! U.^.^.Y...W u q * % & & , , - - 3 g =.f.Z.yXiXZ.m.c.c.c.x.z.z.C.uXpXrXl.<.c c ,.c.yXuXZ.y.=.V d , o . o $ $ & & & & & & & o X o o . . . X , d G 8.f.g.r.>.D k 2 + . . o + o o o + & & - - - - - - - - & & & & & & & & & & & & & & & & & - & & & & & & & & & & & & - - , , , , - & & & & 2 z =.8.r.8.=.C j 2 , o o o X X % & & & & & & o o o . . . . . , f D ,.8.8.1.8.r.u.r.-.V 2 , o . . o & , < 1 < & & & & * < q q q q q < : : < 1 1 < & o X $ & = * * 1 w w < &                                                                                                                                                                       ",
"                                                                                                                                                                                                                                                                                                                                                                                                                                                              o & , , & & % & , 2 d j d 2 , & o X o . . . . . o & < 2 w w w d j w 1 & $ X X & < 2 w w w 2 1 1 < < 1 1 1 < , , , < < < < 1 w j S 5.d.l.j.a.>.S d , - 3 d V *.5.7.7.:.D S S S S V k d 2 , , , 3 2 d k V k i w q q r u ! U.W.W.Y.} W u q * % & , < < < , 3 d C 2.x.rXuXiXZ.c.l.z.z.u.z.m.rXuXyXM.r.G c -.z.rXuXZ.u.-.C j , o . X $ % * * : : & & & % % X o . . . X & i S 7.g.l.f.8.*.V d - o o o & , < < 3 2 2 w w w w w w w 2 2 2 2 2 2 2 2 2 1 2 2 2 2 2 2 2 2 2 2 2 2 2 2 2 2 2 2 w w 2 2 2 w w w w 2 2 < , - 3 g *.8.r.9.>.D k i , o o X % % & & & & & & & & & X X . . . . + 5 V -.9.r.9.r.f.f.r.,.V 2 - o . . o o , < < , & & & * : q q q q q q < : : < < 1 < & X X $ & * * * 1 w w < &                                                                                                                                                                       ",
"                                                                                                                                                                                                                                                                                                                                                                                                                                                              o & , , & % % & & < w d d w < & & X o . . . . . . o , 2 2 w i d d w < & $ $ X o & < w i w 2 1 1 < < < 1 1 < , , , < < < 3 2 w d V :.r.l.j.a.:.N 2 & - < 2 j S -.8.9.7.=.D D D S S V k i < - & , 3 d j k j w q q q r u W } U.U...! u r q = $ & , 3 2 2 3 3 2 g K y.Z.pXpXS.m.z.z.z.z.z.c.Z.rXiXS.l.1.Z =.f.S.iXZ.f.,.D k < o . . $ % * * : < < & & % % X o . . . o & 2 V 7.j.M.n.r.-.S f , o + - < 2 d d d j k k k k k k k k k j j j j j j j f f f d f d f j j j j j j j j j j j j j k j j j j j j j j j d w 2 , < f G 8.y.r.,.+.V d < + X X % % & & * * & & & & & O X . . . . + 1 z =.9.f.f.d.f.f.r.-.c 2 - o . . o o , < < , & * : < q q q r r r q q < : < < < < & X o X % * * * 1 w w < -                                                                                                                                                                       ",
"                                                                                                                                                                                                                                                                                                                                                                                                                                                              o & , , & o O & & > 2 i d i 2 , & o o . . . . . . o - 3 2 w d d d w < & % $ X X & < w i w 2 1 < < < < 2 1 < , < < < 3 3 1 2 2 i k ( 0.f.f.7.( j < & - , 1 i n *.7.r.9.7.=.+.+.D S S n j 2 , & & , 2 j k j w 1 q q q r u ~ { { ~ W u r * % X & , 2 w i 2 3 3 5 V ,.x.yXaXuXZ.c.z.z.l.x.c.A.Z.rXrXC.u.=.=.r.m.D.Z.j.7.*.k 3 o . . $ % & * : < < * & & % % o . . . o & 2 V 7.z.Z.m.d.,.D j 3 + - < 2 d f j k n V S S V V V V V V N k k k k k k k k k k k k k k n n n n n n n n N N N N N n n k n n k k k k j d w < < f G 8.u.f.8.=.C j 1 & X X % & & * : < & & & & & % X X . . . + < g *.9.f.g.d.r.r.7.=.z 2 4 . . . o o - , , , & * < q q q q r r r r q q < < < < < : & o X & * * * < w w < -                                                                                                                                                                       ",
"                                                                                                                                                                                                                                                                                                                                                                                                                                                              o & , , & o O % % & < w d d w < - & o o . . . . . . + , 3 2 w d w w : & % $ X X o , 2 i i w 1 < < < 1 2 1 < , < < 3 1 1 1 2 2 w j S :.0.7.;.V w & & , < 3 2 j S >.9.d.r.,.;.*.+.D S V k i < & o - 2 f k j w 1 q q q r u u T T u u 0 9 = $ X & - 1 i d d 5 2 2 f G y.D.pXpXiXZ.c.c.c.c.c.A.Z.rXyXrXm.9.-.8.l.Z.D.n.r.=.N 1 + . . X $ & * * * * * * & & % o . . . o & 3 N ,.g.M.m.d.>.D j 1 - - < 2 d j k k N V S S S S A V V V N n k k k k k k k j k k k k k n n n n n n n n N N N N N N n k k k k k k k j d 2 < , d D 7.f.f.r.>.D j 2 & o X & & & & * < > & & & % % X o . . . o , f G 0.d.f.r.7.,.-.H g 2 + . . . o O & , , - * : q q r r q r r r r q q q q < < < < & o O & * * * < w w < &                                                                                                                                                                       ",
"                                                                                                                                                                                                                                                                                                                                                                                                                                                              o & , , & o O % % & : w d d d w < & & o o . . . . . o & < 2 w w w w < & % $ X X X - 1 w i w 2 < < < 1 2 2 < < < 3 3 < 1 < 1 2 w h N +.:.*.S j < & & , < 3 2 i n *.8.d.y.8.-.*.+.+.D S N h 2 , & & < d j d w < q q q r r 0 0 0 0 0 9 = $ X X o & 1 w d f d 2 2 i c ,.l.tXaXpXiXZ.A.c.c.A.Z.S.iXuXpXrXx.9.8.g.Z.tXZ.f.>.V 2 & . X X $ % * * * * * * * & & X . . . o o < g =.r.j.f.7.*.V d < & + , 3 2 d d d j k n n n n n k k k j j j j h h h d d d d d d d j j j j j j j j j j j j j j j j h d d d d d d i 2 3 , - 2 C ,.y.f.r.,.D k 2 & o X % & & & * < < & & & & & X o . . . o - d C >.9.9.5.=.G Z V f 1 + . . . o o & - , & ; < q q r q q q r r r u u r r q q q < & X O & : * * < 1 1 < &                                                                                                                                                                       ",
"                                                                                                                                                                                                                                                                                                                                                                                                                                                              o & , , & o O % % % & 1 w h h w 2 , & + o . . . . . . o , 2 2 w w q < & % % X X o + < 2 i w 2 < < < 2 2 2 < < < 3 3 < < 1 1 2 w h n S +.D k 2 & o + , < 3 1 2 j S >.r.r.9.,.*.*.*.+.S V k d 3 , & , 2 d w 1 < < q q q q q q q 9 * = $ $ X X o & < 2 d j f d 2 2 f H 9.M.pXgXpXrXA.A.A.Z.S.S.iXpXsXsXtXz.9.g.Z.tXZ.j.,.S d , o . X $ % & * * * * * * * & X . . . X o , f D ,.9.7.*.C k i , o o + - , < < 3 2 w i i w w w w w 2 2 2 2 2 2 2 2 1 1 1 1 < < < 2 2 2 2 2 2 2 2 2 2 2 2 2 2 2 2 2 1 < < < < < , , & o + 1 z =.9.r.9.>.S j 2 + o o $ & & & * < < < & & & & X o . . . o & 2 V *.5.5.=.C z z g d 3 + . . . . o & - < * * < q q q q q q q y T E W T u r r r q & X O & < < ; < 1 1 < &                                                                                                                                                                       ",
"                                                                                                                                                                                                                                                                                                                                                                                                                                                                - , , & & % & % % & < w h h h w < , & o o . . . . . + - 3 2 w w q < & % % O X o o , 2 w w 2 < < < 2 2 2 < < < < < < 1 1 1 w w d n S ( S j < + o + , < 3 1 2 i k +.7.r.r.7.:.*.*.+.D S n j i 3 , , < 2 < < : * * * : : * * * = % $ X X o X & & < 3 w f j f i 2 5 z =.f.rXaXaXuXD.Z.S.S.S.S.yXpXfXjXsXM.r.u.M.D.Z.g.5.D j < o . X $ % & * : : < : * * & X o . . X o , i V *.>.*.S k d 2 , + o o + o + & & & - , , , , , , , , , - - & & & & & & & & & & & & - & & & & > , , , , , , , , , , & & & + o o o + o o o < j G ,.7.,.*.V d 3 o . X $ & & & * < < < * & & & X o . . . o & 2 k G >.>.G z j j j d < + . . . o $ & < < < * < 1 q 1 1 q q q y Q { { ! W u e r q & X O & < , - < < < - &                                                                                                                                                                       ",
"                                                                                                                                                                                                                                                                                                                                                                                                                                                                , , , & o % % & % & & 2 d h j i 2 < - o o . . . . . . + , 2 2 w 1 : & % % X o . o + , 2 2 2 2 < 1 2 2 1 < < , < < < 1 1 q w w d n S ( A h , o o + , < 2 1 2 w j S >.9.r.9.,.*.+.G D S V n j i 2 , , , , & & & & & & & & % % $ X o o o o o o & , < 2 d j j d 2 1 i V ,.x.tXaXaXuXrXS.S.iXyXuXgXjXjXsXM.9.9.l.M.m.f.,.G k 2 o . X $ % & * : : < < : * & % o . . . o - 2 z D *.D V j d 2 , o . X o o o o o X o & & & o o & & & & & & & & & & & & & & & & & & & & & & & & & - - & & & & & & - & & & + o o @ . . o o < f C =.>.*.D k i , o . X $ % * & & < < < & & & & X o . . . o & 3 g G >.-.G k d j j d < + . . . o & & * < < * < < < 1 1 q q 0 T { ....{ W a e e w & X X & & & - < < : & +                                                                                                                                                                       ",
"                                                                                                                                                                                                                                                                                                                                                                                                                                                                  < , & & % % O O & & < w h j j w 3 , & o . . . . . . o - < 2 w 1 : & % % X X . . o & < 2 2 2 2 3 1 1 3 < , , , , < < 1 1 1 2 d n S D V d , o o & , 3 2 2 2 2 d n *.7.r.r.8.=.G D D S D S V k d 2 < , & & & & $ X X X X X X o . . . . . o + - , , < w f k j i 3 3 d H 9.m.uXgXsXuXiXiXyXpXsXfXhXfXyXj.,.,.y.l.z.r.,.G N 2 o o X $ % & * : < < < < : & & X . . . o & 2 k D *.D N j i 3 & o X o o & & & o X o & & & & o & & & & & & & & & - - & & & - - - - - & & & & - , , , , - - , , , , - & & & + + o . . o o < d C *.*.+.C k w , o . X $ % = & & < < < & & & & X o . . . o o < f D =.=.D k f j j d < o . . . X & * : < < < < < < < < < q 0 T { ..X.{ W M b d w , o o & & & & & * & & o                                                                                                                                                                       ",
"                                                                                                                                                                                                                                                                                                                                                                                                                                                                  < , & & % % % O % & < w j k k d 2 < & o o . . . . . . o , 3 2 < * & % X o X . . . o , 3 2 2 2 1 3 3 3 < , - - , < < 1 1 1 1 w k A S V d & o o & < 1 2 2 2 2 w j S >.9.a.9.>.G S S D *.*.D V k d w < , & & o X X X X X o o o . . . . . o + - , , , 2 d j j i 3 , 2 g K f.rXfXhXgXuXuXpXgXhXjXsXtXx.8.G =.8.y.r.7.-.D z 2 o o X $ % = * : : < < < : & o o . . . o - 2 k D *.D V j w < & o o X & - , & o o & & , , & & & & & & & & & - < < < < < & , , , < < - & & - < < < < < , , , , , , & & & - - + + . . o o < d V +.*.D V j w , o . X X % & * * < < < * & & & X o . . . o o < f C *.*.D k f j j d < o . . . o & * * < < < < < < < < < q q y Q { { ! ^ b b h w & o o O & & & & & & o o                                                                                                                                                                       ",
"                                                                                                                                                                                                                                                                                                                                                                                                                                                                  < < & & % % % O % & & 1 d k n j w < , & X . . . . . . o + , < < & & % X o . . . . o & < 2 2 2 1 3 3 3 < , - - , < < 1 < < 3 w j V S N w & o o - < 1 2 2 2 2 2 d k +.5.w.w.7.*.D D *.>.>.:.( A n j i 2 < & & & & & & % X X o . . . . . o + & - , , 3 w j j i 3 , 3 i V ,.m.sXjXfXgXgXhXjXkXfXtXl.7.G V H <.8.7.-.G C g 2 o . X $ % = * * : : < : < & o o . . . o + 2 k D +.D N j w < + o o & & , , & o o o & , , - & & & & & & & & : < < < < < * * < , < < - & & - < < < < < , , , , , & o + + & & & o o . o o < d V D G S N j 2 , + . X X % & = * < < < * & & & o o . . . o o < d V +.*.D k d f f d < + . . . o & & * < < < < < < : : : < q 0 u W W W M b b e w & o X X % % & & & X X o                                                                                                                                                                       ",
"                                                                                                                                                                                                                                                                                                                                                                                                                                                                  < < & & o O O O % % & < i k n j d 2 < - o o . . . . . . o & , & & O X o . . . . . . o , 3 2 2 2 2 2 3 < , - - , < < < < < < 2 j N C n w o o o - < 3 < 3 2 2 2 w d V *.7.q.8.>.*.G ;.5.7.5.:.( A n j d w 1 < < 1 1 < & & & o o o o . . o o & & , , , 2 d d d 2 < < 2 g *.f.uXhXjXjXlXlXkXfXyXl.7.D N N C *.-.=.G C z f 1 + . X $ % & * * : : : : * & o X . . . o + 2 k D +.S N f w < o o X & & , > & o o o o & & & & & + & & & & & & & & & * * & & & & & & & & & & * * & & & , , , - & o o o o + + & + + o o o < d V D D V k f 2 , + . . X % % & & * < < * & & & o o . . . o o , d V G G S k d d f i < o . . . o % * * * - < < : * * * * < q q r u u a M b h w 1 & o . o X X X X X o + + 4                                                                                                                                                                     ",
"                                                                                                                                                                                                                                                                                                                                                                                                                                                                  < < & & & O O O O % & < w j k k j w 1 < & o . . . . . . . o o o o o o . . . . . . . o & < 2 w 2 2 2 1 < , , - , , < < < , < 2 f N V k 2 o o o - < < < < 2 2 2 2 w j S :.8.w.8.>.*.:.7.9.r.q.5.*.D V n j h d i e e w w 1 < , & & & o X X o & & - - , < 2 d d i 2 3 2 d C 8.Z.sXlXxXxXlXhXyXl.7.D N N V V D G G Z c g d 3 + o X $ % & * * * : * * & & X o . . . o + 2 j S D S k d w < o o X & & & & o o . . o o & & & & o o o & & & & & & * & & & & & & & & & & & & & & & & & > , & & o o . . @ o + & & + o o o < d N S S V g d 2 , + . . X % & & & & < < * & & & o o . . . o o , d V D D C j d d d 2 , o . . . o $ & = * - - < , & & & & < 1 q r r e e s e e r < & . . . X o o o o o + , ,                                                                                                                                                                     ",
"                                                                                                                                                                                                                                                                                                                                                                                                                                                                  < < & & & O O O X O & , 1 i j k h d 2 < & o . . . . . . . . o o o . . . . . . . . . . + < w w w 2 2 2 < , , & , , < < , , < 2 f n V k 2 o . o & < < , < 1 2 2 2 2 w k +.7.a.r.7.>.:.7.d.l.l.f.9.,.;.+.S S V n n n j j i w w w 2 1 < & & o o & & - - , 3 i h h i 2 2 d z *.f.yXkXzXxXjXuXx.7.D z N V V z V C Z C z j d < + o o X % % = * * * * & & & X . . . . o + 3 j V D S k d w < o o X & & , & o o . . . o + - - & o & & & & & & & & * & & & & & & & & & & & & & & & & & , , & o o . . . . o o & & o o . o < d k V V N j d 2 , + . . o O & & & & : * * & & & o o . . . o o , 7 z D D V j i d d 2 - o . . . X $ & = & - - , , & & & & , < 1 q r r r e r r 1 < o . . . . . o o o + , , 3 1                                                                                                                                                                   ",
"                                                                                                                                                                                                                                                                                                                                                                                                                                                                  < < & & & O O X X X & & < 2 d k k d w < , o o . . . . . . . . . . . . . . . . . . . . + , 2 w w w 2 2 3 , - & & , < < , , < 2 j n V k 2 o o o & < < , , < 2 2 3 < 2 j S 3.r.d.w.7.5.9.n.rXtXZ.l.a.8.,.>.:.*.D A A A n n j j j d d w < & & o & & - - , < 2 d j h i 2 5 f C 7.Z.hXlXjXuXn.7.D z z C C N g z C C V z j i , + . o X $ $ % = * * & & & & X . . . . o & 1 j V D S k f w < o o X & , , & o . . . . o + , , & & & & & & & & & & * & * * * * & & * * * * & & & & & & , > & O o . . . . + & & & o o . o < i k V V N j d 2 , o . . o X O & & & & * & & & o o . . . . o + , i z C S N f i d i 1 - . . . . . X $ & & & - - - & & & & & ; < < q q q q q < < & o . . . . o o o + - , 3 2 2                                                                                                                                                                   ",
"                                                                                                                                                                                                                                                                                                                                                                                                                                                                  < < & & o O O X X X & & & < w j k j w 1 , & o o . . . . . . . . . . . . . . . . . . . o & 3 w w w 2 2 3 < & & & , < 3 , , < w j n V n 2 o o o , < < , , < < 3 < < 3 i N *.q.d.d.r.r.z.D.pXaXyXN.h.r.8.7.5.>.*.( S S A N N n n n h i w < & o & & - , , , 2 d j k d 2 1 d k =.x.aXfXuXn.7.C f g V C V g f z C S V z j i , o . . o X $ $ $ % % & & X X o . . . . o & 1 j V D S N j i < & o o o , , - + o . . . o & , , & & & & & & & & & & & & * * * & & * * * * * & & & & & & & > & o o o . . o & , - & o o o o < w k V V N k f w , + . . o o o X X $ & & & & & o o . . . . o o , d z C C z d i i i 1 & . . . . . X $ $ & & & & & & & & & & & & & * * : : < : & o o . . X o X o o & , < 2 2 w w                                                                                                                                                                 ",
"                                                                                                                                                                                                                                                                                                                                                                                                                                                                  < < & & O O O X X X O & & > 2 h h j i 2 < , & o . . . . . . . . . . . . . . . . . . . . o , 2 w w 2 2 1 < & & & , < < , , < w j n V n w & X & , < < , & , < < < < < 2 j S 5.a.j.l.m.Z.yXpXpXtXm.d.q.7.5.>.:.+.S S A V N N n n n h d w < & o o & - , , , 2 i j k j w 1 2 j G d.Z.rXx.8.C d d k V C N f d k V S V z j i , o . . X X $ $ $ $ $ % O X o o o . . . o & 1 j C D S V j d 3 & o o o - , , & o . . o o & , , & & & & & & & - - - & & * : : * & * * * & * & & & & & & & & & & o o o o & , , , & X o o $ < w k V V V k j w < + . . o o o o o o X X % o X X o . . . . o & < d z C C z d i i 2 3 + . . . . . . X X X o o o o o X X X X X X O % % & & & & X o o o o X % & & & - , < 2 w i i i                                                                                                                                                               ",
"                                                                                                                                                                                                                                                                                                                                                                                                                                                                  < < & & O O O O X X O O % & < s h h d w < , & o . . . . . . . . . . . . . . . . . . . . o & < 2 w 2 2 1 < , & & , < < < < < w j n V n w & X & , < < , & - , < < < 3 2 i n *.9.l.N.rXyXyXtXZ.n.d.7.>.;.*.+.D S V N n k k k k j h d w w < & o o & - , , < < w j k k d 2 2 d C 8.j.z.8.D d 2 d N V V j d d k V S V k f 5 , o . . o $ & & & & & & & o o o o o . . o & 2 j S +.D V k d 3 & o . o & , , & o o o o & & - & & & & & & & & & & & & & & * & & & & & & & & & & & & & & & & & & o o o o - , , - o o o X $ < w k V V V k j i < + o o o o o o o o o X O o o o o X o . o o & < d z C C g d i i 2 3 + . . . . . . . . o o o o o o o o o o X o o o o X X X o o o o X o & & & & , , < < 2 w i d d d                                                                                                                                                             ",
"                                                                                                                                                                                                                                                                                                                                                                                                                                                                  3 < & & O O O O O O O O O & , w j j j w 2 < , + o . . . . . . . . . o o o o o . . . . . . o , 2 w w 2 3 < , & , < < < < < 3 w j N V n w & % & < < < , & - , < < < 3 1 2 f D 8.l.rXyXyXZ.l.d.0.:.D S V N N k k j d d i w i i w w w 2 1 < & o X o & , < < < 2 d j k j d 2 i z -.9.9.K f 1 2 j N V k f i d k C S V k f 2 , o . o $ & < < < < < , & & & & + + o o o & 1 k S +.D V k d 1 & o . o o & & & o o o o & & & o o o & & & & & & & & & & & & & & & & & & & & & & & & % % o o & & o o o & - , - & X o o X $ < i k V V V N j i < + o o X o o o o o o o & & & & & & o o o o & < d z C C z d i i 2 3 + . . . . . . . . . . . . . . o o o o o o o X X X X . . o o X o & & > < < < , < < 1 w i d d d i                                                                                                                                                           ",
"                                                                                                                                                                                                                                                                                                                                                                                                                                                                  3 < & & O O O O O O O O o o & 1 d h j d 2 3 , - o . . . . . . . . o o o o o X o . . . . . o - 3 w w 2 2 < < , , < 1 3 < < 1 w j N V k 2 & $ & < < < - & & , < < < < 3 2 w C 8.n.rXtXZ.z.0.*.S k j d d i w w 2 2 2 2 1 < < < < 1 < < < & & O o o & < < < , 3 w j k k j d i g K ,.<.C 5 3 i k V n j d i j N S S V k d w , + o X & < 2 w w w w w 1 1 1 < , - o o o & 2 k D *.+.S k d 1 & o . . o o o o o o o o o o o o o o o X X X X o X X X X O X X X X X X X X X X o o X X X o o o o o o o & & & & X o o . o & < i k V S V N j w < + o X & & & , , , , , < < 1 2 < < , o o o o < d z C V z f i i 2 < & . . . . . . . . . . . o o o o o o o o o o o o o o o o X & & & , < < 1 1 < < < < < 2 w d d d w 1                                                                                                                                                         ",
"                                                                                                                                                                                                                                                                                                                                                                                                                                                                  3 < , & & O O O O O O O O o & < w j j j w 2 < , + o . . . . . . . o o & & & O X . . . . . . + , 2 2 w 2 < < , < < 2 1 < < 1 w j n V k 2 & $ & , < < & & & , < < < 3 3 3 2 V 7.l.Z.N.j.7.D j i 2 1 2 w w 2 2 1 < < 1 < < < < < < < < * & & X o o - < < < < 3 2 d k N k f i j H -.=.z 2 < i k N k d i d j V S S V k j w , o o & & 1 w w d d s w r w w 2 3 , + o o + 1 j S *.+.S k d 2 & o . . . . o o o o o o o o o o . . . . . o X X X o o o o o X X o o o o . . . . . . . . . . o o o o o o + o O o . . . o & < i k V S V n j w , + o O & , < < , , < < 3 2 w w 2 1 , & X o o < d n C C z f d i 2 < + . . . . . . . . . . o X O & & & - - & & & & & & & o & & , < < 1 2 w w w 2 1 < , < 2 w w w w w < &                                                                                                                                                       ",
"                                                                                                                                                                                                                                                                                                                                                                                                                                                                  3 < < > & & O X X X O O O X & , 2 d j j d 2 3 , & o . . . . . . . o & , , & % X . . . . . . + - < 2 w w 2 < < < < 2 1 < < 1 w j n V k 2 & $ & & , < & & & & , < < 3 3 < 2 N ,.f.l.f.7.D j 1 < < 1 w d d i w w w w r r q 1 < q < < : * = % X o o - < < < < 3 1 d k N n j w f D =.*.z 3 , w k n k d i d j V D D C n j w , o X & & < w w p w w w r w w 2 3 , + o . o 3 j S +.D V k d 1 & o . . . . . . o o o o o o o o o o o X X X X X o o o o o X X o o o o . . . . . . . . . . . . . . o o + + o X o . . . o O < w k V S V n f 2 , o o o & , < < < < < < 1 2 w 2 2 < & & X o o , d n S C n f d i 2 < + . . . . . . . . . o X & & , < < 3 2 3 < < < < < < < < 1 2 w w w d d d d i w 3 < < < 2 w w 2 < , &                                                                                                                                                       ",
"                                                                                                                                                                                                                                                                                                                                                                                                                                                                  < < < < & & X X o o X X X X & & < w j k j w 2 < , o . . . . . . o o - < < & O o . . . . . . . o , 2 w w 2 3 < < < 2 1 < < 1 w d n V k w & X & & , , & & & & , < < 3 3 < 2 k :.w.r.7.+.k 2 & , 1 i j k k h s e w e e e e r r r q q < * * & X o o & < < < 3 3 2 i k N n j 2 d S =.K z 3 3 2 j k j d i d j V D D V n h w , o o X & & < 1 q w w w 1 1 1 < , - o o . + < f C D D V j d 1 & o . . . . . . o o X o o o + o o o o O O o X X X o o o o O o o o o o o o o o o o o o o o o . . . o o & & & o o . . . . X , w k V S V k d 2 , o o o o & , , > > , < < < < < , & & O o o O , i k V C N f d i 2 < & . . . . . . . . . X & , 1 w w w i d i w w i i i w w w d d j h h k n j h j d 2 < , < < < < < , & o                                                                                                                                                       ",
"                                                                                                                                                                                                                                                                                                                                                                                                                                                                  , < 1 < & & X X o o o o X X $ & , 2 j k j d 2 < , o o . . . . . o & , < < & O o . . . . . . . o & < w w 2 3 < < 1 w 1 1 < < w d k V k 2 & X & & , , & & & & & , < < < < 3 j +.5.5.*.V w , & 1 w h n n n b h e e e e h p e e r r q q < * & X X O & < 1 1 1 1 1 i j N k d 2 d C *.G g 3 , 2 d j j d i d j V S S V k d 2 , o o o X o & & < < < < < > > & & + o . . o , d V D S N j d 3 + o . . . . . o o X & & - - - & & & & & & & & & & & & & & & & & & & & & o o o o o o o o o o X o o X o & & & o o o . . X X , w k C S V k d 1 - o . o o o & & & & & & & & & & & o X o o X o , w k V V N f i i 2 < + . . . . . . . . o X & 1 w j j j h h j j j j j h j j j h k n n n n n n n k j w 1 , , , , , , , & o                                                                                                                                                       ",
"                                                                                                                                                                                                                                                                                                                                                                                                                                                                  , < 1 < & & X o o o o o o X X o & 1 d k k h 2 < , + o . . . . o X & , 1 < & X o . . . . . . . . O , w w w 2 < < 1 w w 1 1 3 2 d k N k 2 & X & & - & & & & & & & , , , , 3 j S *.*.S j < & : w h n n n l h e r r r r e w w r r q q < : * & X o X & < < < 1 3 3 i j N k d 2 d C *.G k , - 1 d j j i w d j N C V n j i 1 - o o . o o o X o & & & & & o o X o . . . o , d V D C k d i < + . . . o o o X o & & , , , , , , < < < ; , & & & - - , , , , , , , , - - & & & & & & & & & o o o X o & - & & X o . . . X > w k C C V k d 1 - o . . . o X X X X O O O o o o o o o o . . o & w k V V n f i 2 2 < + . . . . . . . . X & < w h n n b h h h j j k k k k h h j k n n n n n n k j j i 2 < & & & & - , & o                                                                                                                                                       ",
"                                                                                                                                                                                                                                                                                                                                                                                                                                                                  & < < < & & O O o o o o o o X X & < i j n j w < , & X . . . . o O & < 1 < & X X . . . . . . . . o & 1 w w 2 < < 1 q w 1 1 3 2 d k N k 2 & X o & & & & & & & & & , , , , 3 d V D S n d < * 1 w b n l h e r q q q q q < 1 1 1 < < * * * * & X X X & * < < < 3 3 w j n k d 2 d V *.D j , & 1 d j j i w i h k N N k d w 3 & o . . . . . . o o X X o X o o o o . . . + < d V D C g d 2 , + o o o + & o o & & & , < < < < < 1 1 < < < < , , , , , < < < < < < < , , , , , , & & & & & & & & o o o & & & O o . . . X > w k C C V k d 1 & o . . . . o o o o o X X o o . . . . . . . . & 2 k V V n f w 2 2 < + . . . . . . . o o , 1 d n n n h h d d d j h j j j j h j h h h h h h h d d d i w 1 < * & & , , - +                                                                                                                                                       ",
"                                                                                                                                                                                                                                                                                                                                                                                                                                                                  & , < < & & O O X o o o o o o O & , 2 j n k d 2 < & o o . . . o o & < 1 < & X . . . . . . . . . . o < 2 w 2 3 < 1 1 2 1 1 3 2 d k N k 2 & X O & & & & & & & & & , , , , < d n S V k w < < 2 d h h p r q * * * * * * * * * * * * & & & & & $ X X & * < < < < 3 w j n k d 2 d V +.D j , - 1 d j j i w w d j n n k d w 3 & o . . . o o o o o o o o o o o o o o o o o < d V D V g d 2 , o o O & , , & & & & & , < < < < 1 1 q < 1 < < < < , , , < < < < < < < < < < < < < < & & & & & & & o o o & & & % o . . . X & w k V C V k d 1 - o . . . . o o X X X O o o o o . o o o o . o & w k S C n f 2 2 1 < + . . . . . . o o & 1 w h n n b s w r r w w w i w w w w w e w w w w w w w w w w w 1 1 < * & , , - +                                                                                                                                                       ",
"                                                                                                                                                                                                                                                                                                                                                                                                                                                                  & , < < > & & O o X o o o o o O & & 1 d n n j w < , & o . . . o O & < < < & X . . . . . . . . . . o - 1 2 2 1 3 3 1 1 1 3 1 2 d k N k 2 & X X & & & & & & & & , , , , , 1 d n V N j 2 & < w i d w q * * = = 9 9 9 9 9 9 9 9 9 9 = $ $ $ $ X X $ % * * < < < 1 w j n k d 2 d V +.D j , - 2 f k j d i w i j k k j f d 2 , o o O o + & & & , , , , , , , , , , - + + < d V C V j d 2 , o o o & < < , - & & & , < < 3 1 1 1 1 1 1 < < 3 3 < , , , < < < < < < < < < < < < < * & & & & & & & o X o & % X o . . . X > w k V C V k d 2 , o . . o o o & & & & & , , & + o o + + o o o - w k S S n d 2 2 2 < + . . . . . . o & < w j j n h e w q q q q q r r r r r r r r r r q q q < < < < 1 w w w 1 < < < < , &                                                                                                                                                       ",
"                                                                                                                                                                                                                                                                                                                                                                                                                                                                  + , < < < & & o o O O X o o o O o & < i j n j d 2 , - + o . . o O & : < : & o . . . . . o o o . . o + < 2 2 2 2 3 3 3 < < 1 2 d k N k w & X X & & < < & & & & , < < , , 1 d n N n d 1 & < w w e w : & = = 9 9 t t t t t t t t 9 9 = $ X o X X $ = * : < < < 1 i j n k d 2 d V +.D j , & 1 f k j d 2 2 i j k k j j d 2 , o o & , < < < 2 2 2 2 w i i w w w w 1 , & , d z C V j d 2 < o o O , 1 2 2 < , & & , < < 3 < 1 1 1 1 1 3 3 3 3 < < , < < < < < 1 1 1 1 1 < < < < : & & & & & & & o X X X % X o . . . X > w k V C V z f i , o o o o & & , < 1 2 2 2 w 2 3 < , < < , & o , w n S S n j i 2 2 < + . . . . . o o , 2 d h h d r q < < : q q q r r r r u r r r r r r r q < : * & < 1 w w w 1 < < < - &                                                                                                                                                       ",
"                                                                                                                                                                                                                                                                                                                                                                                                                                                                  + , < 1 1 > & o o O O X o o o O O & - w h k j d 2 < , - o . . X O & < < & o o o . . . . o o o o . . o , 1 2 2 2 3 < < < < 3 2 d k N k w & X X & , < < < & & & : < < , , 3 d k n n d 1 & < w w w q * % = 9 t t Y Y Y R R R Y Y t 9 9 $ o . . . $ * q q < < < 1 w j n k f 2 d V +.D j , & 1 f k j d 2 2 w j k k k j f i < o & , 2 w w i d h d d j k n j h j h d 2 - , i k V V g f i < + o X , 2 w i 2 < & > < < 3 3 < 1 1 1 1 1 3 3 3 3 1 < < < < < 3 3 1 1 q 1 1 < 1 1 < < & & & & & - & + X o X $ O o . . . X : w k C C V N g d 3 + o o & , < 2 w w d d h j j d w 2 w w 1 , & & 2 k A A N j d i 2 < + . . . . . o & 1 w j h d w < * * : q q r r e u u u u a u u u u u 0 r q < : & & < 1 w w w 1 < < - &                                                                                                                                                       ",
"                                                                                                                                                                                                                                                                                                                                                                                                                                                                  + , 1 2 1 : & o o O O X o o o O O o & 1 i h h d 2 3 < , + . . o O & < < & o o o . . . . o o o o . . o - < 2 w 2 3 , , < < 3 2 d k N k w & X X & , 1 1 < & & * : < < , , 1 d k n n d 1 & < w w w q & $ = 9 t Y Y R R R R R R R Y t 9 $ o . . . $ * q q < 1 < 1 w j z z f 2 d S *.( k , & 1 f k j i 2 2 w f k k k j j d < + & < w d d j k n k j k N V n n n n j w , , w k V V k j d 1 & o X , 2 d d w < , , < 3 3 3 < 1 q q 1 1 3 3 3 3 1 < < < < < 3 1 2 w q q 1 1 1 1 < < - & & & & , - & X o X $ O X o . . X : w k C Z C V z d 3 + o o & < 2 w d j h j k n k j d d d i w < & & 2 j V A N k f d 2 < & . . . . . o , 2 d j j w 1 * * * q q r r u u a a a W W W a a u u u r r 1 : & & & 1 w i w 1 < < - &                                                                                                                                                       "
};
